; generated by Slic3r 0.9.3 on 2013-04-30 at 22:03:29

; layer_height = 0.25
; perimeters = 2
; solid_layers = 4
; fill_density = 0
; perimeter_speed = 60
; infill_speed = 90
; travel_speed = 250
; scale = 1
; nozzle_diameter = 0.35
; filament_diameter = 1.7
; extrusion_multiplier = 1.0
; single wall width = 0.75mm

M104 S185 ; set temperature
;Standard Profile for Series 1. Single Extruder
M104 S185
M301 P24.72 I0.88 D231.1
G28
G1 X120 Y115 Z15 F10000
G92 E0
G1 Y5 Z15 F5000
M109 S185
G1 F100 E50
G92 E0
G1 X50 Z0.3 F10000
; do a little dance on a toothbrush to remove extrusions..  
G90 ; use absolute coordinates
G21 ; set units to millimeters
G92 E0 ; reset extrusion distance
M82 ; use absolute distances for extrusion
M106 S255 ; enable fan
G1 F6000.000 E-3.00000 ; retract
G92 E0 ; reset extrusion distance
G1 Z0.250 F15000.000 ; move to next layer (0)
G1 X111.267 Y97.605 ; move to first skirt point
G1 F6000.000 E3.00000 ; compensate retraction
G1 X114.907 Y94.345 F1080.000 E3.37478 ; skirt
G1 X115.037 Y94.255 E3.38690 ; skirt
G1 X119.387 Y91.735 E3.77248 ; skirt
G1 X119.527 Y91.665 E3.78448 ; skirt
G1 X119.807 Y91.545 E3.80785 ; skirt
G1 X124.457 Y90.035 E4.18282 ; skirt
G1 X124.607 Y89.995 E4.19473 ; skirt
G1 X124.757 Y89.965 E4.20646 ; skirt
G1 X129.757 Y89.425 E4.59218 ; skirt
G1 X130.227 Y89.425 E4.62822 ; skirt
G1 X135.237 Y89.965 E5.01470 ; skirt
G1 X135.387 Y90.005 E5.02661 ; skirt
G1 X135.537 Y90.035 E5.03834 ; skirt
G1 X140.177 Y91.545 E5.41259 ; skirt
G1 X140.457 Y91.665 E5.43595 ; skirt
G1 X140.737 Y91.805 E5.45996 ; skirt
G1 X144.697 Y94.085 E5.81043 ; skirt
G1 X144.827 Y94.175 E5.82255 ; skirt
G1 X144.957 Y94.255 E5.83426 ; skirt
G1 X145.217 Y94.445 E5.85896 ; skirt
G1 X148.947 Y97.825 E6.24502 ; skirt
G1 X152.017 Y102.015 E6.64341 ; skirt
G1 X152.177 Y102.275 E6.66683 ; skirt
G1 X154.297 Y107.015 E7.06508 ; skirt
G1 X154.337 Y107.165 E7.07698 ; skirt
G1 X154.387 Y107.315 E7.08911 ; skirt
G1 X155.397 Y112.095 E7.46382 ; skirt
G1 X155.437 Y112.405 E7.48779 ; skirt
G1 X155.447 Y112.555 E7.49932 ; skirt
G1 X155.447 Y117.435 E7.87360 ; skirt
G1 X155.437 Y117.585 E7.88513 ; skirt
G1 X155.397 Y117.895 E7.90911 ; skirt
G1 X154.387 Y122.675 E8.28381 ; skirt
G1 X154.337 Y122.825 E8.29594 ; skirt
G1 X154.297 Y122.975 E8.30785 ; skirt
G1 X152.177 Y127.715 E8.70610 ; skirt
G1 X152.017 Y127.975 E8.72951 ; skirt
G1 X149.147 Y131.925 E9.10399 ; skirt
G1 X148.947 Y132.165 E9.12795 ; skirt
G1 X148.837 Y132.275 E9.13988 ; skirt
G1 X145.327 Y135.435 E9.50212 ; skirt
G1 X145.217 Y135.545 E9.51405 ; skirt
G1 X144.957 Y135.735 E9.53875 ; skirt
G1 X144.827 Y135.815 E9.55045 ; skirt
G1 X144.697 Y135.905 E9.56258 ; skirt
G1 X140.737 Y138.185 E9.91305 ; skirt
G1 X140.457 Y138.325 E9.93706 ; skirt
G1 X140.177 Y138.445 E9.96042 ; skirt
G1 X135.537 Y139.955 E10.33466 ; skirt
G1 X135.387 Y139.985 E10.34640 ; skirt
G1 X135.237 Y140.025 E10.35830 ; skirt
G1 X133.817 Y140.185 E10.46790 ; skirt
G1 X133.807 Y140.185 E10.46867 ; skirt
G1 X130.227 Y140.565 E10.74479 ; skirt
G1 X129.757 Y140.565 E10.78084 ; skirt
G1 X124.757 Y140.025 E11.16655 ; skirt
G1 X124.607 Y139.985 E11.17846 ; skirt
G1 X124.457 Y139.955 E11.19019 ; skirt
G1 X119.807 Y138.445 E11.56517 ; skirt
G1 X119.527 Y138.325 E11.58853 ; skirt
G1 X119.387 Y138.255 E11.60054 ; skirt
G1 X115.037 Y135.735 E11.98611 ; skirt
G1 X114.907 Y135.645 E11.99824 ; skirt
G1 X111.147 Y132.275 E12.38550 ; skirt
G1 X111.037 Y132.165 E12.39743 ; skirt
G1 X110.737 Y131.795 E12.43396 ; skirt
G1 X107.887 Y127.845 E12.80754 ; skirt
G1 X107.677 Y127.435 E12.84287 ; skirt
G1 X105.697 Y122.975 E13.21713 ; skirt
G1 X105.657 Y122.825 E13.22904 ; skirt
G1 X105.607 Y122.675 E13.24117 ; skirt
G1 X104.597 Y117.895 E13.61588 ; skirt
G1 X104.557 Y117.585 E13.63985 ; skirt
G1 X104.547 Y117.435 E13.65138 ; skirt
G1 X104.547 Y112.555 E14.02566 ; skirt
G1 X104.557 Y112.405 E14.03719 ; skirt
G1 X104.597 Y112.095 E14.06116 ; skirt
G1 X105.607 Y107.315 E14.43587 ; skirt
G1 X105.657 Y107.165 E14.44800 ; skirt
G1 X105.697 Y107.015 E14.45991 ; skirt
G1 X107.747 Y102.415 E14.84616 ; skirt
G1 X107.887 Y102.145 E14.86949 ; skirt
G1 X110.764 Y98.160 E15.24650 ; skirt
G1 F6000.000 E12.24650 ; retract
G92 E0 ; reset extrusion distance
G1 X110.642 Y113.870 F15000.000 ; move to first perimeter point
G1 F6000.000 E3.00000 ; compensate retraction
G1 X111.236 Y114.302 F1170.000 E3.05631 ; perimeter
G1 X111.463 Y115.000 E3.11263 ; perimeter
G1 X111.236 Y115.698 E3.16895 ; perimeter
G1 X110.642 Y116.130 E3.22526 ; perimeter
G1 X109.908 Y116.130 E3.28158 ; perimeter
G1 X109.314 Y115.698 E3.33789 ; perimeter
G1 X109.087 Y115.000 E3.39421 ; perimeter
G1 X109.314 Y114.302 E3.45052 ; perimeter
G1 X109.895 Y113.879 E3.50563 ; perimeter
G1 F6000.000 E0.50563 ; retract
G92 E0 ; reset extrusion distance
G1 X112.800 Y113.295 F15000.000 ; move to first perimeter point
G1 F6000.000 E3.00000 ; compensate retraction
G1 X112.008 Y108.799 F1080.000 E3.35012 ; perimeter
G1 X116.817 Y104.764 E3.83159 ; perimeter
G1 X116.837 Y104.739 E3.83400 ; perimeter
G1 X121.784 Y100.588 E4.32936 ; perimeter
G1 X121.804 Y100.564 E4.33177 ; perimeter
G1 X122.986 Y99.572 E4.45006 ; perimeter
G1 X122.986 Y99.572 E4.45006 ; perimeter
G1 X126.649 Y96.499 E4.81678 ; perimeter
G1 X129.307 Y97.467 E5.03377 ; perimeter
G1 X129.307 Y97.467 E5.03377 ; perimeter
G1 X132.547 Y98.646 E5.29824 ; perimeter
G1 X132.578 Y98.651 E5.30065 ; perimeter
G1 X133.334 Y98.926 E5.36231 ; perimeter
G1 X133.334 Y98.926 E5.36231 ; perimeter
G1 X138.406 Y100.772 E5.77627 ; perimeter
G1 X138.406 Y100.766 E5.77672 ; perimeter
G1 X138.678 Y100.865 E5.79891 ; perimeter
G1 X138.678 Y100.865 E5.79892 ; perimeter
G1 X139.838 Y101.287 E5.89365 ; perimeter
G1 X139.838 Y101.287 E5.89365 ; perimeter
G1 X144.621 Y103.028 E6.28400 ; perimeter
G1 X144.926 Y104.759 E6.41881 ; perimeter
G1 X144.926 Y104.759 E6.41882 ; perimeter
G1 X145.711 Y109.211 E6.76547 ; perimeter
G1 X145.721 Y109.240 E6.76788 ; perimeter
G1 X146.176 Y111.819 E6.96876 ; perimeter
G1 X146.176 Y111.819 E6.96876 ; perimeter
G1 X146.525 Y113.793 E7.12248 ; perimeter
G1 X146.524 Y113.793 E7.12249 ; perimeter
G1 X146.843 Y115.600 E7.26323 ; perimeter
G1 X146.854 Y115.630 E7.26564 ; perimeter
G1 X147.952 Y121.858 E7.75067 ; perimeter
G1 X143.281 Y125.777 E8.21833 ; perimeter
G1 X143.281 Y125.777 E8.21833 ; perimeter
G1 X143.143 Y125.893 E8.23212 ; perimeter
G1 X143.123 Y125.917 E8.23453 ; perimeter
G1 X138.176 Y130.068 E8.72984 ; perimeter
G1 X138.156 Y130.092 E8.73225 ; perimeter
G1 X136.014 Y131.889 E8.94667 ; perimeter
G1 X136.014 Y131.889 E8.94668 ; perimeter
G1 X133.312 Y134.157 E9.21721 ; perimeter
G1 X133.312 Y134.157 E9.21721 ; perimeter
G1 X133.311 Y134.157 E9.21731 ; perimeter
G1 X130.976 Y133.307 E9.40792 ; perimeter
G1 X130.787 Y133.490 E9.42810 ; perimeter
G1 X131.112 Y134.492 E9.50895 ; perimeter
G1 X131.112 Y134.492 E9.50895 ; perimeter
G1 X131.188 Y134.725 E9.52770 ; perimeter
G1 X130.961 Y135.423 E9.58402 ; perimeter
G1 X130.367 Y135.855 E9.64033 ; perimeter
G1 X129.633 Y135.855 E9.69665 ; perimeter
G1 X129.039 Y135.423 E9.75296 ; perimeter
G1 X128.963 Y135.191 E9.77171 ; perimeter
G1 X128.963 Y135.191 E9.77171 ; perimeter
G1 X128.812 Y134.725 E9.80928 ; perimeter
G1 X128.963 Y134.259 E9.84684 ; perimeter
G1 X128.963 Y134.259 E9.84684 ; perimeter
G1 X129.039 Y134.027 E9.86559 ; perimeter
G1 X129.633 Y133.595 E9.92191 ; perimeter
G1 X130.269 Y133.595 E9.97072 ; perimeter
G1 X130.360 Y133.083 E10.01061 ; perimeter
G1 X128.763 Y132.502 E10.14090 ; perimeter
G1 X128.763 Y132.502 E10.14090 ; perimeter
G1 X127.087 Y131.891 E10.27775 ; perimeter
G1 X127.087 Y131.897 E10.27821 ; perimeter
G1 X120.991 Y129.679 E10.77574 ; perimeter
G1 X120.991 Y129.685 E10.77619 ; perimeter
G1 X119.619 Y129.185 E10.88819 ; perimeter
G1 X119.619 Y129.185 E10.88821 ; perimeter
G1 X118.000 Y128.596 E11.02031 ; perimeter
G1 X118.000 Y128.596 E11.02031 ; perimeter
G1 X115.756 Y127.779 E11.20350 ; perimeter
G1 X115.756 Y127.779 E11.20350 ; perimeter
G1 X115.339 Y127.628 E11.23752 ; perimeter
G1 X114.675 Y123.860 E11.53097 ; perimeter
G1 X114.675 Y123.860 E11.53097 ; perimeter
G1 X114.249 Y121.446 E11.71897 ; perimeter
G1 X114.238 Y121.416 E11.72138 ; perimeter
G1 X113.117 Y115.056 E12.21674 ; perimeter
G1 X113.106 Y115.026 E12.21915 ; perimeter
G1 X112.931 Y114.033 E12.29648 ; perimeter
G1 F6000.000 E9.29648 ; retract
G92 E0 ; reset extrusion distance
G1 X148.537 Y115.000 F15000.000 ; move to first perimeter point
G1 F6000.000 E3.00000 ; compensate retraction
G1 X148.764 Y114.302 F1170.000 E3.05632 ; perimeter
G1 X149.160 Y114.014 E3.09388 ; perimeter
G1 X149.160 Y114.014 E3.09388 ; perimeter
G1 X149.358 Y113.870 E3.11263 ; perimeter
G1 X150.092 Y113.870 E3.16894 ; perimeter
G1 X150.686 Y114.302 E3.22526 ; perimeter
G1 X150.913 Y115.000 E3.28158 ; perimeter
G1 X150.686 Y115.698 E3.33789 ; perimeter
G1 X150.092 Y116.130 E3.39421 ; perimeter
G1 X149.358 Y116.130 E3.45052 ; perimeter
G1 X148.777 Y115.708 E3.50563 ; perimeter
G1 F6000.000 E0.50563 ; retract
G92 E0 ; reset extrusion distance
G1 X130.961 Y95.973 F15000.000 ; move to first perimeter point
G1 F6000.000 E3.00000 ; compensate retraction
G1 X130.206 Y96.522 F1170.000 E3.07163 ; perimeter
G1 X129.975 Y96.405 E3.09145 ; perimeter
G1 X129.633 Y96.405 E3.11772 ; perimeter
G1 X129.039 Y95.973 E3.17403 ; perimeter
G1 X128.812 Y95.275 E3.23035 ; perimeter
G1 X129.039 Y94.577 E3.28666 ; perimeter
G1 X129.633 Y94.145 E3.34298 ; perimeter
G1 X129.975 Y94.145 E3.36924 ; perimeter
G1 X130.206 Y94.028 E3.38907 ; perimeter
G1 X130.961 Y94.577 E3.46069 ; perimeter
G1 X131.183 Y95.260 E3.51580 ; perimeter
G1 F6000.000 E0.51580 ; retract
G92 E0 ; reset extrusion distance
G1 X112.474 Y115.574 F15000.000 ; move to first perimeter point
G1 F6000.000 E3.00000 ; compensate retraction
G1 X113.537 Y121.604 F1080.000 E3.46961 ; perimeter
G1 X113.548 Y121.634 E3.47203 ; perimeter
G1 X114.699 Y128.164 E3.98064 ; perimeter
G1 X115.032 Y128.286 E4.00785 ; perimeter
G1 X115.032 Y128.286 E4.00785 ; perimeter
G1 X117.277 Y129.103 E4.19105 ; perimeter
G1 X117.277 Y129.103 E4.19105 ; perimeter
G1 X121.714 Y130.718 E4.55320 ; perimeter
G1 X121.714 Y130.712 E4.55363 ; perimeter
G1 X128.548 Y133.198 E5.11136 ; perimeter
G1 X128.052 Y134.725 E5.23451 ; perimeter
G1 X128.452 Y135.958 E5.33395 ; perimeter
G1 X125.609 Y135.659 E5.55324 ; perimeter
G1 X123.667 Y135.028 E5.70981 ; perimeter
G1 X123.667 Y135.028 E5.70981 ; perimeter
G1 X121.409 Y134.295 E5.89189 ; perimeter
G1 X120.398 Y133.711 E5.98148 ; perimeter
G1 X120.398 Y133.711 E5.98148 ; perimeter
G1 X117.586 Y132.087 E6.23054 ; perimeter
G1 X115.944 Y130.609 E6.39993 ; perimeter
G1 X115.944 Y130.609 E6.39993 ; perimeter
G1 X114.304 Y129.133 E6.56919 ; perimeter
G1 X111.709 Y125.560 E6.90785 ; perimeter
G1 X109.913 Y121.527 E7.24650 ; perimeter
G1 X108.995 Y117.208 E7.58515 ; perimeter
G1 X108.995 Y116.627 E7.62969 ; perimeter
G1 X109.211 Y116.517 E7.64825 ; perimeter
G1 X109.673 Y116.853 E7.69209 ; perimeter
G1 X110.877 Y116.853 E7.78444 ; perimeter
G1 X111.851 Y116.145 E7.87680 ; perimeter
G1 X111.947 Y115.850 E7.90061 ; perimeter
G1 F6000.000 E4.90061 ; retract
G92 E0 ; reset extrusion distance
G1 X131.929 Y134.666 F15000.000 ; move to first perimeter point
G1 F6000.000 E3.00000 ; compensate retraction
G1 X132.112 Y134.490 F1170.000 E3.01947 ; perimeter
G1 X134.183 Y135.244 E3.18850 ; perimeter
G1 X134.128 Y135.687 E3.22269 ; perimeter
G1 X132.951 Y135.811 E3.31346 ; perimeter
G1 X132.951 Y135.811 E3.31346 ; perimeter
G1 X132.323 Y135.877 E3.36195 ; perimeter
G1 X132.161 Y135.380 E3.40202 ; perimeter
G1 X132.893 Y135.453 F15000.000 ; move to first perimeter point
G1 X138.669 Y130.605 F1080.000 E3.98036 ; perimeter
G1 X138.689 Y130.581 E3.98277 ; perimeter
G1 X143.636 Y126.430 E4.47809 ; perimeter
G1 X143.657 Y126.406 E4.48050 ; perimeter
G1 X144.856 Y125.399 E4.60064 ; perimeter
G1 X144.856 Y125.399 E4.60065 ; perimeter
G1 X148.736 Y122.143 E4.98912 ; perimeter
G1 X147.989 Y117.903 E5.31936 ; perimeter
G1 X147.989 Y117.903 E5.31936 ; perimeter
G1 X147.681 Y116.155 E5.45549 ; perimeter
G1 X147.940 Y115.993 E5.47889 ; perimeter
G1 X149.123 Y116.853 E5.59108 ; perimeter
G1 X150.327 Y116.853 E5.68343 ; perimeter
G1 X150.789 Y116.517 E5.72727 ; perimeter
G1 X151.005 Y116.627 E5.74583 ; perimeter
G1 X151.005 Y117.208 E5.79037 ; perimeter
G1 X150.087 Y121.527 E6.12902 ; perimeter
G1 X148.291 Y125.560 E6.46767 ; perimeter
G1 X145.696 Y129.133 E6.80633 ; perimeter
G1 X142.414 Y132.087 E7.14498 ; perimeter
G1 X141.508 Y132.610 E7.22522 ; perimeter
G1 X141.508 Y132.610 E7.22522 ; perimeter
G1 X138.591 Y134.295 E7.48363 ; perimeter
G1 X137.596 Y134.618 E7.56387 ; perimeter
G1 X137.596 Y134.618 E7.56387 ; perimeter
G1 X134.391 Y135.659 E7.82228 ; perimeter
G1 X133.410 Y135.762 E7.89794 ; perimeter
G1 F6000.000 E4.89794 ; retract
G92 E0 ; reset extrusion distance
G1 X147.425 Y114.736 F15000.000 ; move to first perimeter point
G1 F6000.000 E3.00000 ; compensate retraction
G1 X147.225 Y113.602 F1170.000 E3.08837 ; perimeter
G1 X147.554 Y113.430 E3.11682 ; perimeter
G1 X148.107 Y113.983 E3.17680 ; perimeter
G1 X147.952 Y114.460 E3.21524 ; perimeter
G1 X147.370 Y114.421 F15000.000 ; move to first perimeter point
G1 X147.014 Y112.403 F1080.000 E3.37239 ; perimeter
G1 X147.014 Y112.403 E3.37240 ; perimeter
G1 X146.783 Y111.096 E3.47417 ; perimeter
G1 X146.783 Y111.096 E3.47417 ; perimeter
G1 X146.422 Y109.052 E3.63336 ; perimeter
G1 X146.412 Y109.023 E3.63576 ; perimeter
G1 X145.939 Y106.342 E3.84452 ; perimeter
G1 X145.939 Y106.342 E3.84452 ; perimeter
G1 X145.261 Y102.492 E4.14441 ; perimeter
G1 X139.115 Y100.255 E4.64601 ; perimeter
G1 X139.115 Y100.255 E4.64603 ; perimeter
G1 X137.683 Y99.734 E4.76296 ; perimeter
G1 X137.683 Y99.739 E4.76339 ; perimeter
G1 X132.766 Y97.950 E5.16468 ; perimeter
G1 X132.766 Y97.950 E5.16469 ; perimeter
G1 X132.611 Y97.893 E5.17735 ; perimeter
G1 X132.611 Y97.899 E5.17780 ; perimeter
G1 X130.796 Y97.239 E5.32592 ; perimeter
G1 X130.764 Y97.011 E5.34361 ; perimeter
G1 X131.576 Y96.420 E5.42065 ; perimeter
G1 X131.948 Y95.275 E5.51301 ; perimeter
G1 X131.548 Y94.042 E5.61245 ; perimeter
G1 X134.391 Y94.341 E5.83174 ; perimeter
G1 X138.591 Y95.705 E6.17039 ; perimeter
G1 X142.414 Y97.913 E6.50904 ; perimeter
G1 X145.696 Y100.867 E6.84770 ; perimeter
G1 X148.291 Y104.440 E7.18635 ; perimeter
G1 X150.087 Y108.473 E7.52500 ; perimeter
G1 X151.005 Y112.792 E7.86365 ; perimeter
G1 X151.005 Y113.373 E7.90819 ; perimeter
G1 X150.789 Y113.483 E7.92675 ; perimeter
G1 X150.327 Y113.147 E7.97059 ; perimeter
G1 X149.123 Y113.147 E8.06294 ; perimeter
G1 X147.976 Y113.980 E8.17164 ; perimeter
G1 F6000.000 E5.17164 ; retract
G92 E0 ; reset extrusion distance
G1 X128.318 Y96.094 F15000.000 ; move to first perimeter point
G1 F6000.000 E3.00000 ; compensate retraction
G1 X128.135 Y96.270 F1080.000 E3.01947 ; perimeter
G1 X126.504 Y95.676 E3.15264 ; perimeter
G1 X122.263 Y99.235 E3.57725 ; perimeter
G1 X122.263 Y99.235 E3.57726 ; perimeter
G1 X121.291 Y100.051 E3.67455 ; perimeter
G1 X121.271 Y100.074 E3.67694 ; perimeter
G1 X116.324 Y104.226 E4.17230 ; perimeter
G1 X116.303 Y104.250 E4.17471 ; perimeter
G1 X115.711 Y104.747 E4.23402 ; perimeter
G1 X115.711 Y104.747 E4.23403 ; perimeter
G1 X115.257 Y105.128 E4.27945 ; perimeter
G1 X115.257 Y105.128 E4.27946 ; perimeter
G1 X111.890 Y107.953 E4.61658 ; perimeter
G1 X111.890 Y107.953 E4.61658 ; perimeter
G1 X111.223 Y108.513 E4.68336 ; perimeter
G1 X112.140 Y113.715 E5.08846 ; perimeter
G1 X111.882 Y113.877 E5.11186 ; perimeter
G1 X110.877 Y113.147 E5.20708 ; perimeter
G1 X109.673 Y113.147 E5.29944 ; perimeter
G1 X109.211 Y113.483 E5.34328 ; perimeter
G1 X108.995 Y113.373 E5.36183 ; perimeter
G1 X108.995 Y112.792 E5.40637 ; perimeter
G1 X109.913 Y108.473 E5.74503 ; perimeter
G1 X111.709 Y104.440 E6.08368 ; perimeter
G1 X114.304 Y100.867 E6.42233 ; perimeter
G1 X117.586 Y97.913 E6.76098 ; perimeter
G1 X121.409 Y95.705 E7.09964 ; perimeter
G1 X125.609 Y94.341 E7.43829 ; perimeter
G1 X128.452 Y94.042 E7.65758 ; perimeter
