; generated by Slic3r 0.9.3 on 2013-05-01 at 16:41:06

; layer_height = 0.25
; perimeters = 2
; solid_layers = 2
; fill_density = 0.15
; perimeter_speed = 85
; infill_speed = 60
; travel_speed = 250
; scale = 1
; nozzle_diameter = 0.35
; filament_diameter = 1.7
; extrusion_multiplier = 1.0
; single wall width = 0.39mm

M104 S185 ; set temperature
;Standard Profile for Series 1. Single Extruder
M104 S185
M301 P24.72 I0.88 D231.1
G28
G1 X120 Y115 Z15 F10000
G92 E0
G1 Y5 Z15 F5000
M109 S185
G1 F100 E50
G92 E0
G1 X50 Z0.3 F10000
; do a little dance on a toothbrush to remove extrusions..  
G90 ; use absolute coordinates
G21 ; set units to millimeters
G92 E0
M82 ; use absolute distances for extrusion
M106 S255
G1 F6000.000 E-3.00000
G92 E0
G1 Z0.250 F15000.000
G1 X59.837 Y50.930
G1 F6000.000 E3.00000
G1 X73.607 Y38.530 F2040.000 E3.78545
G1 X74.237 Y38.030 E3.81955
G1 X90.977 Y28.350 E4.63921
G1 X91.457 Y28.120 E4.66177
G1 X109.587 Y22.200 E5.47019
G1 X110.367 Y22.000 E5.50432
G1 X129.597 Y19.970 E6.32396
G1 X129.867 Y19.960 E6.33541
G1 X130.397 Y19.970 E6.35788
G1 X149.627 Y22.000 E7.17752
G1 X150.407 Y22.200 E7.21165
G1 X168.277 Y28.020 E8.00828
G1 X168.767 Y28.230 E8.03088
G1 X185.747 Y38.030 E8.86189
G1 X186.367 Y38.530 E8.89565
G1 X200.347 Y51.110 E9.69283
G1 X200.717 Y51.500 E9.71561
G1 X212.237 Y67.360 E10.54651
G1 X212.607 Y68.070 E10.58044
G1 X220.247 Y85.250 E11.37742
G1 X220.427 Y85.750 E11.39995
G1 X224.457 Y104.670 E12.21991
G1 X224.527 Y105.200 E12.24257
G1 X224.527 Y124.790 E13.07294
G1 X224.407 Y125.590 E13.10723
G1 X220.497 Y143.980 E13.90416
G1 X220.427 Y144.240 E13.91558
G1 X220.147 Y144.990 E13.94951
G1 X212.367 Y162.400 E14.75781
G1 X212.237 Y162.630 E14.76901
G1 X200.887 Y178.280 E15.58846
G1 X200.717 Y178.490 E15.59992
G1 X200.347 Y178.880 E15.62270
G1 X185.957 Y191.800 E16.44244
G1 X185.747 Y191.960 E16.45363
G1 X169.007 Y201.640 E17.27329
G1 X168.527 Y201.870 E17.29585
G1 X150.407 Y207.790 E18.10386
G1 X149.627 Y207.990 E18.13800
G1 X130.397 Y210.020 E18.95764
G1 X130.127 Y210.030 E18.96909
G1 X129.597 Y210.020 E18.99156
G1 X110.367 Y207.990 E19.81120
G1 X109.587 Y207.790 E19.84533
G1 X91.707 Y201.970 E20.64236
G1 X91.217 Y201.760 E20.66496
G1 X74.237 Y191.960 E21.49597
G1 X73.607 Y191.460 E21.53006
G1 X59.457 Y178.680 E22.33827
G1 X59.107 Y178.280 E22.36080
G1 X47.757 Y162.630 E23.18025
G1 X47.387 Y161.920 E23.21419
G1 X39.747 Y144.740 E24.01117
G1 X39.567 Y144.240 E24.03369
G1 X35.527 Y125.330 E24.85333
G1 X35.457 Y124.800 E24.87599
G1 X35.457 Y105.190 E25.70721
G1 X35.527 Y104.660 E25.72987
G1 X39.497 Y86.010 E26.53811
G1 X39.567 Y85.750 E26.54952
G1 X39.847 Y85.000 E26.58346
G1 X47.627 Y67.590 E27.39176
G1 X47.757 Y67.360 E27.40295
G1 X59.107 Y51.710 E28.22241
G1 X59.457 Y51.310 E28.24494
G1 X59.558 Y51.209 E28.25100
G1 F6000.000 E25.25100
G92 E0
G1 X52.320 Y111.246 F15000.000
G1 F6000.000 E3.00000
G1 X54.293 Y112.680 F1440.000 E3.12568
G1 X55.002 Y114.863 E3.24392
G1 X55.002 Y114.863 E3.24392
G1 X55.047 Y115.000 E3.25136
G1 X54.804 Y115.746 E3.29177
G1 X54.804 Y115.746 E3.29177
G1 X54.293 Y117.320 E3.37704
G1 X52.320 Y118.754 E3.50272
G1 X49.880 Y118.754 E3.62840
G1 X49.381 Y118.391 E3.66018
G1 X49.381 Y118.391 E3.66018
G1 X47.907 Y117.320 E3.75408
G1 X47.153 Y115.000 E3.87976
G1 X47.907 Y112.680 E4.00544
G1 X49.880 Y111.246 E4.13112
G1 X51.925 Y111.246 E4.23647
G1 X52.162 Y111.730 F15000.000
G1 X53.881 Y112.979 F1440.000 E4.34595
G1 X54.538 Y115.000 E4.45543
G1 X53.881 Y117.021 E4.56491
G1 X52.162 Y118.270 E4.67438
G1 X50.038 Y118.270 E4.78386
G1 X48.319 Y117.021 E4.89333
G1 X47.662 Y115.000 E5.00281
G1 X48.319 Y112.979 E5.11229
G1 X50.038 Y111.730 E5.22177
G1 X51.768 Y111.730 E5.31092
G1 F6000.000 E2.31092
G92 E0
G1 X126.873 Y38.622 F15000.000
G1 F6000.000 E3.00000
G1 X126.814 Y38.440 F1440.000 E3.00986
G1 X126.814 Y38.440 E3.00986
G1 X126.053 Y36.100 E3.13665
G1 X126.813 Y33.762 E3.26330
G1 X126.813 Y33.762 E3.26330
G1 X126.873 Y33.578 E3.27331
G1 X127.086 Y33.578 E3.28428
G1 X128.780 Y32.346 E3.39220
G1 X131.220 Y32.346 E3.51788
G1 X133.193 Y33.780 E3.64356
G1 X133.947 Y36.100 E3.76924
G1 X133.193 Y38.420 E3.89492
G1 X131.220 Y39.854 E4.02060
G1 X128.780 Y39.854 E4.14628
G1 X128.750 Y39.832 E4.14819
G1 X128.751 Y39.832 E4.14819
G1 X127.233 Y38.729 E4.24486
G1 X127.224 Y38.138 F15000.000
G1 X127.218 Y38.120 F1440.000 E4.24588
G1 X127.218 Y38.120 E4.24588
G1 X126.562 Y36.100 E4.35530
G1 X127.218 Y34.080 E4.46471
G1 X127.218 Y34.080 E4.46472
G1 X127.224 Y34.062 E4.46573
G1 X127.243 Y34.062 E4.46669
G1 X128.938 Y32.830 E4.57462
G1 X131.062 Y32.830 E4.68409
G1 X132.781 Y34.079 E4.79357
G1 X133.438 Y36.100 E4.90305
G1 X132.781 Y38.121 E5.01252
G1 X131.062 Y39.370 E5.12200
G1 X128.938 Y39.370 E5.23148
G1 X127.547 Y38.359 E5.32004
G1 F6000.000 E2.32004
G92 E0
G1 X205.707 Y112.680 F15000.000
G1 F6000.000 E3.00000
G1 X207.680 Y111.246 F1440.000 E3.12568
G1 X210.120 Y111.246 E3.25136
G1 X212.093 Y112.680 E3.37704
G1 X212.847 Y115.000 E3.50272
G1 X212.093 Y117.320 E3.62840
G1 X210.120 Y118.754 E3.75408
G1 X207.680 Y118.754 E3.87975
G1 X205.707 Y117.320 E4.00543
G1 X204.953 Y115.000 E4.13111
G1 X205.585 Y113.055 E4.23647
G1 X206.068 Y113.134 F15000.000
G1 X206.119 Y112.979 F1440.000 E4.24487
G1 X207.838 Y111.730 E4.35435
G1 X209.962 Y111.730 E4.46382
G1 X211.681 Y112.979 E4.57330
G1 X212.338 Y115.000 E4.68278
G1 X211.681 Y117.021 E4.79225
G1 X209.962 Y118.270 E4.90173
G1 X207.838 Y118.270 E5.01120
G1 X206.119 Y117.021 E5.12068
G1 X205.462 Y115.000 E5.23016
G1 X205.947 Y113.509 E5.31092
G1 F6000.000 E2.31092
G92 E0
G1 X196.447 Y116.567 F15000.000
G1 F6000.000 E3.00000
G1 X196.499 Y116.857 F2040.000 E3.01519
G1 X196.498 Y118.721 E3.11123
G1 X199.440 Y135.401 E3.98396
G1 X199.440 Y135.401 E3.98396
G1 X200.374 Y140.703 E4.26136
G1 X200.374 Y140.703 E4.26136
G1 X200.426 Y140.995 E4.27663
G1 X200.426 Y143.041 E4.38203
G1 X182.788 Y157.841 E5.56839
G1 X181.174 Y158.773 E5.66442
G1 X162.976 Y174.044 E6.88846
G1 X162.976 Y174.044 E6.88846
G1 X162.738 Y174.244 E6.90450
G1 X161.124 Y175.176 E7.00053
G1 X144.429 Y189.185 E8.12347
G1 X144.429 Y189.185 E8.12347
G1 X143.797 Y189.715 E8.16595
G1 X142.026 Y190.738 E8.27134
G1 X120.390 Y182.862 E9.45769
G1 X118.776 Y181.931 E9.55371
G1 X97.084 Y174.037 E10.74311
G1 X97.084 Y174.037 E10.74311
G1 X96.158 Y173.699 E10.79391
G1 X94.544 Y172.767 E10.88992
G1 X82.392 Y168.345 E11.55621
G1 X82.392 Y168.345 E11.55622
G1 X73.289 Y165.032 E12.05537
G1 X71.518 Y164.009 E12.16078
G1 X71.318 Y162.875 E12.22009
G1 X71.318 Y162.875 E12.22009
G1 X68.436 Y146.528 E13.07537
G1 X68.436 Y146.528 E13.07537
G1 X67.520 Y141.334 E13.34712
G1 X67.520 Y139.470 E13.44315
G1 X63.956 Y119.257 E14.50071
G1 X63.956 Y119.257 E14.50072
G1 X63.341 Y115.766 E14.68339
G1 X63.342 Y113.902 E14.77941
G1 X61.304 Y102.355 E15.38359
G1 X61.304 Y102.355 E15.38359
G1 X59.414 Y91.630 E15.94470
G1 X59.413 Y89.584 E16.05010
G1 X65.426 Y84.538 E16.45457
G1 X65.426 Y84.538 E16.45457
G1 X77.051 Y74.784 E17.23649
G1 X78.665 Y73.852 E17.33252
G1 X79.145 Y73.449 E17.36479
G1 X79.145 Y73.449 E17.36479
G1 X96.865 Y58.580 E18.55669
G1 X96.865 Y58.580 E18.55669
G1 X97.103 Y58.379 E18.57273
G1 X98.717 Y57.448 E18.66874
G1 X102.484 Y54.285 E18.92221
G1 X102.484 Y54.284 E18.92221
G1 X112.823 Y45.611 E19.61755
G1 X112.823 Y45.611 E19.61755
G1 X116.042 Y42.909 E19.83410
G1 X117.814 Y41.887 E19.93950
G1 X118.672 Y42.199 E19.98656
G1 X118.672 Y42.199 E19.98656
G1 X123.356 Y43.905 E20.24343
G1 X123.356 Y43.905 E20.24344
G1 X139.450 Y49.761 E21.12588
G1 X141.065 Y50.693 E21.22191
G1 X141.555 Y50.871 E21.24880
G1 X141.555 Y50.871 E21.24880
G1 X144.658 Y52.000 E21.41893
G1 X144.658 Y52.000 E21.41893
G1 X162.756 Y58.588 E22.41129
G1 X162.756 Y58.588 E22.41129
G1 X163.682 Y58.925 E22.46209
G1 X165.296 Y59.857 E22.55812
G1 X178.576 Y64.691 E23.28630
G1 X178.576 Y64.691 E23.28630
G1 X186.550 Y67.592 E23.72350
G1 X188.322 Y68.615 E23.82891
G1 X190.725 Y82.249 E24.54221
G1 X190.725 Y82.249 E24.54222
G1 X192.318 Y91.291 E25.01529
G1 X192.318 Y93.155 E25.11132
G1 X192.385 Y93.535 E25.13120
G1 X192.385 Y93.535 E25.13120
G1 X193.200 Y98.152 E25.37277
G1 X193.201 Y98.152 E25.37278
G1 X193.878 Y101.994 E25.57383
G1 X193.878 Y101.994 E25.57383
G1 X194.720 Y106.765 E25.82342
G1 X194.719 Y106.765 E25.82342
G1 X196.379 Y116.178 E26.31595
G1 X195.971 Y116.651 F15000.000
G1 X196.015 Y116.899 F2040.000 E26.32896
G1 X196.014 Y118.763 E26.42501
G1 X199.034 Y135.885 E27.32084
G1 X199.034 Y135.885 E27.32084
G1 X199.942 Y141.038 E27.59040
G1 X199.942 Y142.815 E27.68200
G1 X196.655 Y145.573 E27.90304
G1 X196.655 Y145.573 E27.90304
G1 X195.653 Y146.414 E27.97048
G1 X195.653 Y146.414 E27.97048
G1 X182.509 Y157.443 E28.85456
G1 X180.895 Y158.375 E28.95059
G1 X162.459 Y173.846 E30.19066
G1 X160.845 Y174.778 E30.28669
G1 X143.713 Y189.154 E31.43902
G1 X143.713 Y189.154 E31.43902
G1 X143.519 Y189.317 E31.45212
G1 X141.979 Y190.206 E31.54369
G1 X136.201 Y188.102 E31.86056
G1 X136.201 Y188.102 E31.86056
G1 X120.595 Y182.422 E32.71623
G1 X118.981 Y181.490 E32.81226
G1 X96.600 Y173.345 E34.03945
G1 X96.600 Y173.345 E34.03945
G1 X96.363 Y173.259 E34.05245
G1 X94.750 Y172.327 E34.14846
G1 X81.909 Y167.654 E34.85255
G1 X81.909 Y167.654 E34.85255
G1 X78.552 Y166.432 E35.03659
G1 X78.552 Y166.432 E35.03659
G1 X73.495 Y164.592 E35.31391
G1 X71.955 Y163.703 E35.40550
G1 X71.895 Y163.359 E35.42348
G1 X71.895 Y163.359 E35.42348
G1 X69.778 Y151.347 E36.05194
G1 X69.778 Y151.347 E36.05194
G1 X68.004 Y141.292 E36.57804
G1 X68.004 Y139.428 E36.67407
G1 X64.533 Y119.741 E37.70410
G1 X64.533 Y119.741 E37.70410
G1 X63.825 Y115.723 E37.91429
G1 X63.825 Y113.860 E38.01032
G1 X63.330 Y111.057 E38.15699
G1 X63.330 Y111.057 E38.15699
G1 X61.710 Y101.871 E38.63760
G1 X61.710 Y101.871 E38.63760
G1 X59.898 Y91.588 E39.17561
G1 X59.897 Y89.810 E39.26721
G1 X77.330 Y75.182 E40.43978
G1 X78.944 Y74.250 E40.53581
G1 X79.116 Y74.105 E40.54741
G1 X79.116 Y74.105 E40.54741
G1 X82.930 Y70.905 E40.80391
G1 X82.930 Y70.905 E40.80391
G1 X97.382 Y58.777 E41.77602
G1 X98.996 Y57.846 E41.87204
G1 X102.968 Y54.510 E42.13931
G1 X102.968 Y54.510 E42.13931
G1 X116.321 Y43.307 E43.03739
G1 X117.860 Y42.418 E43.12898
G1 X118.188 Y42.538 E43.14696
G1 X118.188 Y42.538 E43.14696
G1 X135.978 Y49.014 E44.12240
G1 X135.978 Y49.013 E44.12240
G1 X139.245 Y50.202 E44.30156
G1 X140.860 Y51.133 E44.39759
G1 X141.071 Y51.210 E44.40920
G1 X141.071 Y51.210 E44.40920
G1 X163.240 Y59.279 E45.62475
G1 X163.240 Y59.279 E45.62475
G1 X163.477 Y59.366 E45.63776
G1 X164.178 Y59.770 E45.67947
G1 X164.178 Y59.770 E45.67947
G1 X165.091 Y60.297 E45.73379
G1 X186.345 Y68.033 E46.89917
G1 X187.884 Y68.922 E46.99077
G1 X191.834 Y91.333 E48.16334
G1 X191.834 Y93.197 E48.25937
G1 X192.795 Y98.636 E48.54393
G1 X192.795 Y98.636 E48.54393
G1 X194.064 Y105.836 E48.92065
G1 X194.064 Y105.836 E48.92065
G1 X194.143 Y106.281 E48.94393
G1 X194.143 Y106.281 E48.94393
G1 X195.902 Y116.262 E49.46617
G1 F6000.000 E46.46617
G92 E0
G1 X133.193 Y191.580 F15000.000
G1 F6000.000 E3.00000
G1 X133.947 Y193.900 F1440.000 E3.12568
G1 X133.193 Y196.220 E3.25136
G1 X131.220 Y197.654 E3.37704
G1 X128.780 Y197.654 E3.50272
G1 X127.086 Y196.422 E3.61064
G1 X126.873 Y196.422 E3.62162
G1 X126.809 Y196.227 E3.63220
G1 X126.809 Y196.227 E3.63220
G1 X126.053 Y193.900 E3.75827
G1 X126.803 Y191.593 E3.88325
G1 X126.803 Y191.593 E3.88325
G1 X126.873 Y191.378 E3.89493
G1 X127.086 Y191.378 E3.90590
G1 X128.780 Y190.146 E4.01382
G1 X131.220 Y190.146 E4.13950
G1 X132.874 Y191.348 E4.24486
G1 X132.649 Y191.783 F15000.000
G1 X132.781 Y191.879 F1440.000 E4.25326
G1 X133.438 Y193.900 E4.36274
G1 X132.781 Y195.921 E4.47221
G1 X131.062 Y197.170 E4.58169
G1 X128.938 Y197.170 E4.69117
G1 X127.243 Y195.938 E4.79909
G1 X127.224 Y195.938 E4.80005
G1 X127.220 Y195.925 E4.80078
G1 X127.220 Y195.925 E4.80078
G1 X126.562 Y193.900 E4.91049
G1 X127.220 Y191.875 E5.02020
G1 X127.220 Y191.875 E5.02020
G1 X127.224 Y191.862 E5.02093
G1 X127.243 Y191.862 E5.02189
G1 X128.938 Y190.630 E5.12981
G1 X131.062 Y190.630 E5.23929
G1 X132.330 Y191.552 E5.32004
G1 F6000.000 E2.32004
G92 E0
G1 X64.483 Y56.008 F15000.000
G1 F6000.000 E3.00000
G1 X78.180 Y43.675 F2040.000 E3.94966
G1 X94.141 Y34.460 E4.89932
G1 X111.007 Y28.980 E5.81306
G1 X111.007 Y28.980 E5.81306
G1 X111.670 Y28.765 E5.84898
G1 X130.000 Y26.838 E6.79864
G1 X148.330 Y28.765 E7.74829
G1 X165.859 Y34.460 E8.69796
G1 X181.217 Y43.327 E9.61169
G1 X181.217 Y43.327 E9.61169
G1 X181.820 Y43.675 E9.64762
G1 X195.517 Y56.008 E10.59728
G1 X206.351 Y70.919 E11.54694
G1 X213.847 Y87.756 E12.49659
G1 X217.679 Y105.785 E13.44625
G1 X217.679 Y124.215 E14.39591
G1 X213.847 Y142.244 E15.34557
G1 X206.351 Y159.081 E16.29523
G1 X195.517 Y173.992 E17.24489
G1 X195.138 Y174.333 E17.27119
G1 X195.138 Y174.333 E17.27119
G1 X181.820 Y186.325 E18.19455
G1 X181.217 Y186.673 E18.23047
G1 X181.217 Y186.673 E18.23047
G1 X165.859 Y195.540 E19.14421
G1 X165.196 Y195.755 E19.18013
G1 X165.196 Y195.756 E19.18013
G1 X148.330 Y201.235 E20.09387
G1 X130.000 Y203.162 E21.04353
G1 X111.670 Y201.235 E21.99318
G1 X111.007 Y201.020 E22.02911
G1 X111.007 Y201.020 E22.02911
G1 X94.141 Y195.540 E22.94284
G1 X93.537 Y195.191 E22.97877
G1 X93.537 Y195.191 E22.97877
G1 X78.180 Y186.325 E23.89250
G1 X64.483 Y173.992 E24.84217
G1 X63.899 Y173.188 E24.89337
G1 X63.899 Y173.188 E24.89337
G1 X53.649 Y159.081 E25.79182
G1 X46.153 Y142.244 E26.74148
G1 X42.321 Y124.215 E27.69114
G1 X42.321 Y105.785 E28.64080
G1 X46.153 Y87.756 E29.59046
G1 X53.649 Y70.919 E30.54012
G1 X64.251 Y56.327 E31.46946
G1 X63.681 Y56.288 F15000.000
G1 X64.121 Y55.683 F2040.000 E31.50800
G1 X77.894 Y43.282 E32.46291
G1 X93.943 Y34.015 E33.41780
G1 X111.569 Y28.289 E34.37271
G1 X130.000 Y26.351 E35.32761
G1 X148.431 Y28.289 E36.28250
G1 X166.057 Y34.015 E37.23741
G1 X182.106 Y43.282 E38.19231
G1 X195.879 Y55.683 E39.14721
G1 X206.772 Y70.676 E40.10211
G1 X214.310 Y87.606 E41.05701
G1 X218.163 Y105.734 E42.01191
G1 X218.163 Y124.266 E42.96681
G1 X214.310 Y142.394 E43.92171
G1 X206.772 Y159.324 E44.87661
G1 X195.879 Y174.317 E45.83151
G1 X182.106 Y186.718 E46.78641
G1 X166.057 Y195.985 E47.74131
G1 X148.431 Y201.711 E48.69621
G1 X147.687 Y201.790 E48.73476
G1 X147.687 Y201.790 E48.73476
G1 X130.000 Y203.649 E49.65111
G1 X111.569 Y201.711 E50.60601
G1 X93.943 Y195.985 E51.56091
G1 X77.894 Y186.718 E52.51581
G1 X64.121 Y174.317 E53.47072
G1 X53.228 Y159.324 E54.42562
G1 X45.690 Y142.394 E55.38051
G1 X41.837 Y124.266 E56.33542
G1 X41.837 Y105.734 E57.29032
G1 X45.690 Y87.606 E58.24522
G1 X53.228 Y70.676 E59.20012
G1 X63.450 Y56.607 E60.09615
G1 X63.976 Y56.865 F15000.000
G1 X79.850 Y72.739 F1440.000 E61.25537
G1 X79.477 Y73.052 F15000.000
G1 X63.687 Y57.263 F1440.000 E62.40844
G1 X63.399 Y57.660 F15000.000
G1 X79.104 Y73.366 F1440.000 E63.55537
G1 X78.731 Y73.678 F15000.000
G1 X63.110 Y58.058 F1440.000 E64.69610
G1 X62.822 Y58.455 F15000.000
G1 X78.307 Y73.940 F1440.000 E65.82697
G1 X77.872 Y74.191 F15000.000
G1 X62.533 Y58.852 F1440.000 E66.94716
G1 X62.244 Y59.249 F15000.000
G1 X77.437 Y74.442 F1440.000 E68.05665
G1 X77.009 Y74.700 F15000.000
G1 X61.956 Y59.646 F1440.000 E69.15597
G1 X61.667 Y60.044 F15000.000
G1 X76.637 Y75.013 F1440.000 E70.24914
G1 X76.263 Y75.326 F15000.000
G1 X61.379 Y60.441 F1440.000 E71.33612
G1 X61.090 Y60.839 F15000.000
G1 X75.891 Y75.639 F1440.000 E72.41695
G1 X75.518 Y75.952 F15000.000
G1 X60.801 Y61.235 F1440.000 E73.49169
G1 X60.513 Y61.633 F15000.000
G1 X75.145 Y76.265 F1440.000 E74.56023
G1 X74.772 Y76.578 F15000.000
G1 X60.224 Y62.030 F1440.000 E75.62263
G1 X59.935 Y62.428 F15000.000
G1 X74.398 Y76.891 F1440.000 E76.67883
G1 X74.025 Y77.204 F15000.000
G1 X59.646 Y62.826 F1440.000 E77.72888
G1 X59.358 Y63.223 F15000.000
G1 X73.652 Y77.517 F1440.000 E78.77274
G1 X73.279 Y77.830 F15000.000
G1 X59.069 Y63.620 F1440.000 E79.81051
G1 X58.780 Y64.017 F15000.000
G1 X72.907 Y78.143 F1440.000 E80.84213
G1 X72.533 Y78.456 F15000.000
G1 X58.492 Y64.414 F1440.000 E81.86755
G1 X58.203 Y64.812 F15000.000
G1 X72.161 Y78.769 F1440.000 E82.88683
G1 X71.787 Y79.082 F15000.000
