; generated by Slic3r 0.9.3 on 2013-05-01 at 16:34:45

; layer_height = 0.25
; perimeters = 2
; solid_layers = 6
; fill_density = 0
; perimeter_speed = 60
; infill_speed = 90
; travel_speed = 250
; scale = 1
; nozzle_diameter = 0.35
; filament_diameter = 1.7
; extrusion_multiplier = 1.0
; single wall width = 0.75mm

M104 S185 ; set temperature
;Standard Profile for Series 1. Single Extruder
M104 S185
M301 P24.72 I0.88 D231.1
G28
G1 X120 Y115 Z15 F10000
G92 E0
G1 Y5 Z15 F5000
M109 S185
G1 F100 E50
G92 E0
G1 X50 Z0.3 F10000
; do a little dance on a toothbrush to remove extrusions..  
G90 ; use absolute coordinates
G21 ; set units to millimeters
G92 E0 ; reset extrusion distance
M82 ; use absolute distances for extrusion
M106 S255 ; enable fan
G1 F6000.000 E-3.00000 ; retract
G92 E0 ; reset extrusion distance
G1 Z0.250 F15000.000 ; move to next layer (0)
G1 X61.717 Y52.990 ; move to first skirt point
G1 F6000.000 E3.00000 ; compensate retraction
G1 X75.717 Y40.410 F1080.000 E4.44357 ; skirt
G1 X75.847 Y40.320 E4.45570 ; skirt
G1 X92.257 Y30.830 E5.90961 ; skirt
G1 X92.397 Y30.760 E5.92161 ; skirt
G1 X92.687 Y30.640 E5.94568 ; skirt
G1 X110.587 Y24.820 E7.38931 ; skirt
G1 X110.737 Y24.790 E7.40104 ; skirt
G1 X110.887 Y24.750 E7.41295 ; skirt
G1 X129.767 Y22.750 E8.86909 ; skirt
G1 X130.227 Y22.750 E8.90437 ; skirt
G1 X149.097 Y24.750 E10.35976 ; skirt
G1 X149.247 Y24.790 E10.37166 ; skirt
G1 X149.397 Y24.820 E10.38340 ; skirt
G1 X167.297 Y30.640 E11.82702 ; skirt
G1 X167.577 Y30.760 E11.85039 ; skirt
G1 X167.717 Y30.830 E11.86239 ; skirt
G1 X184.147 Y40.320 E13.31763 ; skirt
G1 X184.277 Y40.410 E13.32975 ; skirt
G1 X198.267 Y52.990 E14.77276 ; skirt
G1 X198.597 Y53.330 E14.80910 ; skirt
G1 X209.757 Y68.670 E16.26404 ; skirt
G1 X209.987 Y69.070 E16.29943 ; skirt
G1 X217.707 Y86.420 E17.75591 ; skirt
G1 X217.797 Y86.710 E17.77920 ; skirt
G1 X221.707 Y105.120 E19.22269 ; skirt
G1 X221.747 Y105.430 E19.24667 ; skirt
G1 X221.757 Y105.580 E19.25820 ; skirt
G1 X221.757 Y124.410 E20.70240 ; skirt
G1 X221.747 Y124.560 E20.71393 ; skirt
G1 X221.707 Y124.870 E20.73791 ; skirt
G1 X217.797 Y143.280 E22.18140 ; skirt
G1 X217.707 Y143.570 E22.20469 ; skirt
G1 X209.987 Y160.920 E23.66117 ; skirt
G1 X209.757 Y161.320 E23.69656 ; skirt
G1 X198.697 Y176.540 E25.13955 ; skirt
G1 X198.487 Y176.780 E25.16401 ; skirt
G1 X198.267 Y177.000 E25.18787 ; skirt
G1 X184.277 Y189.580 E26.63087 ; skirt
G1 X184.147 Y189.670 E26.64300 ; skirt
G1 X167.717 Y199.160 E28.09824 ; skirt
G1 X167.577 Y199.230 E28.11024 ; skirt
G1 X167.297 Y199.350 E28.13361 ; skirt
G1 X149.397 Y205.170 E29.57723 ; skirt
G1 X149.247 Y205.200 E29.58896 ; skirt
G1 X149.097 Y205.240 E29.60087 ; skirt
G1 X130.227 Y207.240 E31.05625 ; skirt
G1 X129.767 Y207.240 E31.09153 ; skirt
G1 X110.887 Y205.240 E32.54768 ; skirt
G1 X110.737 Y205.200 E32.55959 ; skirt
G1 X110.587 Y205.170 E32.57132 ; skirt
G1 X92.687 Y199.350 E34.01494 ; skirt
G1 X92.397 Y199.230 E34.03901 ; skirt
G1 X92.257 Y199.160 E34.05102 ; skirt
G1 X75.847 Y189.670 E35.50493 ; skirt
G1 X75.717 Y189.580 E35.51706 ; skirt
G1 X61.717 Y177.000 E36.96063 ; skirt
G1 X61.387 Y176.660 E36.99697 ; skirt
G1 X50.227 Y161.320 E38.45191 ; skirt
G1 X49.987 Y160.910 E38.48835 ; skirt
G1 X42.287 Y143.570 E39.94351 ; skirt
G1 X42.197 Y143.280 E39.96680 ; skirt
G1 X38.287 Y124.870 E41.41029 ; skirt
G1 X38.247 Y124.560 E41.43426 ; skirt
G1 X38.237 Y124.410 E41.44579 ; skirt
G1 X38.237 Y105.580 E42.89000 ; skirt
G1 X38.247 Y105.430 E42.90153 ; skirt
G1 X38.287 Y105.120 E42.92550 ; skirt
G1 X42.197 Y86.710 E44.36899 ; skirt
G1 X42.287 Y86.420 E44.39228 ; skirt
G1 X49.987 Y69.080 E45.84744 ; skirt
G1 X50.227 Y68.670 E45.88388 ; skirt
G1 X61.215 Y53.546 E47.31768 ; skirt
G1 F6000.000 E44.31768 ; retract
G92 E0 ; reset extrusion distance
G1 X52.438 Y110.882 F15000.000 ; move to first perimeter point
G1 F6000.000 E3.00000 ; compensate retraction
G1 X54.603 Y112.455 F1170.000 E3.20523 ; perimeter
G1 X55.430 Y115.000 E3.41047 ; perimeter
G1 X54.603 Y117.545 E3.61570 ; perimeter
G1 X52.438 Y119.118 E3.82094 ; perimeter
G1 X49.762 Y119.118 E4.02617 ; perimeter
G1 X47.597 Y117.545 E4.23140 ; perimeter
G1 X46.770 Y115.000 E4.43663 ; perimeter
G1 X47.597 Y112.455 E4.64187 ; perimeter
G1 X49.907 Y110.777 E4.86084 ; perimeter
G1 X50.012 Y110.882 E4.87225 ; perimeter
G1 X51.688 Y110.882 E5.00077 ; perimeter
G1 X52.203 Y111.605 F15000.000 ; move to first perimeter point
G1 X53.988 Y112.902 F1170.000 E5.16996 ; perimeter
G1 X54.669 Y115.000 E5.33916 ; perimeter
G1 X53.988 Y117.098 E5.50835 ; perimeter
G1 X52.203 Y118.395 E5.67754 ; perimeter
G1 X49.997 Y118.395 E5.84672 ; perimeter
G1 X48.212 Y117.098 E6.01591 ; perimeter
G1 X47.531 Y115.000 E6.18510 ; perimeter
G1 X48.212 Y112.902 E6.35429 ; perimeter
G1 X49.832 Y111.725 E6.50787 ; perimeter
G1 X49.832 Y111.725 E6.50787 ; perimeter
G1 X49.997 Y111.605 E6.52348 ; perimeter
G1 X51.453 Y111.605 E6.63515 ; perimeter
G1 F6000.000 E3.63515 ; retract
G92 E0 ; reset extrusion distance
G1 X126.608 Y38.987 F15000.000 ; move to first perimeter point
G1 F6000.000 E3.00000 ; compensate retraction
G1 X126.498 Y38.646 F1170.000 E3.02745 ; perimeter
G1 X126.498 Y38.646 E3.02745 ; perimeter
G1 X125.670 Y36.100 E3.23279 ; perimeter
G1 X126.498 Y33.552 E3.43828 ; perimeter
G1 X126.498 Y33.552 E3.43828 ; perimeter
G1 X126.608 Y33.213 E3.46558 ; perimeter
G1 X126.968 Y33.213 E3.49314 ; perimeter
G1 X128.662 Y31.982 E3.65378 ; perimeter
G1 X131.338 Y31.982 E3.85902 ; perimeter
G1 X133.503 Y33.555 E4.06425 ; perimeter
G1 X134.330 Y36.100 E4.26948 ; perimeter
G1 X133.503 Y38.645 E4.47471 ; perimeter
G1 X133.148 Y38.903 E4.50835 ; perimeter
G1 X133.148 Y38.903 E4.50835 ; perimeter
G1 X131.338 Y40.218 E4.67995 ; perimeter
G1 X128.662 Y40.218 E4.88518 ; perimeter
G1 X127.284 Y39.216 E5.01586 ; perimeter
G1 X127.202 Y38.263 F15000.000 ; move to first perimeter point
G1 X127.134 Y38.263 F1170.000 E5.02114 ; perimeter
G1 X127.112 Y38.198 E5.02642 ; perimeter
G1 X127.112 Y38.198 E5.02642 ; perimeter
G1 X126.431 Y36.100 E5.19561 ; perimeter
G1 X127.112 Y34.002 E5.36481 ; perimeter
G1 X127.112 Y34.002 E5.36481 ; perimeter
G1 X127.134 Y33.937 E5.37008 ; perimeter
G1 X127.202 Y33.937 E5.37536 ; perimeter
G1 X128.897 Y32.705 E5.53601 ; perimeter
G1 X131.103 Y32.705 E5.70520 ; perimeter
G1 X132.888 Y34.002 E5.87439 ; perimeter
G1 X133.569 Y36.100 E6.04358 ; perimeter
G1 X132.888 Y38.198 E6.21277 ; perimeter
G1 X131.103 Y39.495 E6.38196 ; perimeter
G1 X128.897 Y39.495 E6.55115 ; perimeter
G1 X127.809 Y38.704 E6.65427 ; perimeter
G1 F6000.000 E3.65427 ; retract
G92 E0 ; reset extrusion distance
G1 X205.397 Y112.455 F15000.000 ; move to first perimeter point
G1 F6000.000 E3.00000 ; compensate retraction
G1 X206.522 Y111.638 F1170.000 E3.10666 ; perimeter
G1 X206.522 Y111.638 E3.10666 ; perimeter
G1 X207.562 Y110.882 E3.20524 ; perimeter
G1 X210.238 Y110.882 E3.41046 ; perimeter
G1 X212.403 Y112.455 E3.61570 ; perimeter
G1 X213.230 Y115.000 E3.82093 ; perimeter
G1 X213.094 Y115.417 E3.85457 ; perimeter
G1 X213.094 Y115.417 E3.85457 ; perimeter
G1 X212.403 Y117.545 E4.02617 ; perimeter
G1 X210.238 Y119.118 E4.23140 ; perimeter
G1 X207.562 Y119.118 E4.43663 ; perimeter
G1 X205.397 Y117.545 E4.64186 ; perimeter
G1 X204.570 Y115.000 E4.84710 ; perimeter
G1 X205.165 Y113.168 E4.99481 ; perimeter
G1 X205.949 Y113.096 F15000.000 ; move to first perimeter point
G1 X206.012 Y112.902 F1170.000 E5.01042 ; perimeter
G1 X207.632 Y111.725 E5.16400 ; perimeter
G1 X207.632 Y111.725 E5.16400 ; perimeter
G1 X207.797 Y111.605 E5.17961 ; perimeter
G1 X210.003 Y111.605 E5.34880 ; perimeter
G1 X211.788 Y112.902 E5.51799 ; perimeter
G1 X212.469 Y115.000 E5.68718 ; perimeter
G1 X211.788 Y117.098 E5.85637 ; perimeter
G1 X210.003 Y118.395 E6.02556 ; perimeter
G1 X207.797 Y118.395 E6.19475 ; perimeter
G1 X206.012 Y117.098 E6.36394 ; perimeter
G1 X205.331 Y115.000 E6.53313 ; perimeter
G1 X205.718 Y113.809 E6.62918 ; perimeter
G1 F6000.000 E3.62918 ; retract
G92 E0 ; reset extrusion distance
G1 X196.806 Y116.504 F15000.000 ; move to first perimeter point
G1 F6000.000 E3.00000 ; compensate retraction
G1 X196.863 Y116.825 F1080.000 E3.02505 ; perimeter
G1 X196.863 Y118.689 E3.16801 ; perimeter
G1 X197.199 Y120.596 E3.31650 ; perimeter
G1 X197.199 Y120.596 E3.31650 ; perimeter
G1 X200.883 Y141.489 E4.94366 ; perimeter
G1 X200.790 Y141.489 E4.95076 ; perimeter
G1 X200.790 Y143.211 E5.08283 ; perimeter
G1 X193.556 Y149.281 E5.80712 ; perimeter
G1 X193.556 Y149.281 E5.80712 ; perimeter
G1 X182.998 Y158.141 E6.86422 ; perimeter
G1 X181.384 Y159.073 E7.00717 ; perimeter
G1 X162.947 Y174.543 E8.85307 ; perimeter
G1 X161.333 Y175.475 E8.99601 ; perimeter
G1 X144.517 Y189.587 E10.67974 ; perimeter
G1 X144.517 Y189.587 E10.67974 ; perimeter
G1 X144.007 Y190.014 E10.73079 ; perimeter
G1 X142.061 Y191.138 E10.90314 ; perimeter
G1 X138.604 Y189.879 E11.18532 ; perimeter
G1 X138.604 Y189.879 E11.18532 ; perimeter
G1 X120.236 Y183.194 E12.68452 ; perimeter
G1 X118.622 Y182.262 E12.82745 ; perimeter
G1 X113.397 Y180.361 E13.25383 ; perimeter
G1 X113.397 Y180.362 E13.25384 ; perimeter
G1 X96.003 Y174.030 E14.67355 ; perimeter
G1 X94.390 Y173.098 E14.81647 ; perimeter
G1 X84.977 Y169.674 E15.58466 ; perimeter
G1 X84.977 Y169.674 E15.58466 ; perimeter
G1 X84.842 Y169.624 E15.59575 ; perimeter
G1 X84.842 Y169.624 E15.59575 ; perimeter
G1 X73.135 Y165.363 E16.55125 ; perimeter
G1 X71.188 Y164.239 E16.72363 ; perimeter
G1 X68.793 Y150.645 E17.78231 ; perimeter
G1 X68.793 Y150.645 E17.78231 ; perimeter
G1 X68.183 Y147.189 E18.05152 ; perimeter
G1 X68.183 Y147.189 E18.05153 ; perimeter
G1 X67.156 Y141.366 E18.50501 ; perimeter
G1 X67.156 Y139.502 E18.64796 ; perimeter
G1 X62.977 Y115.798 E20.49408 ; perimeter
G1 X62.977 Y113.934 E20.63701 ; perimeter
G1 X62.331 Y110.275 E20.92199 ; perimeter
G1 X62.331 Y110.275 E20.92199 ; perimeter
G1 X61.914 Y107.915 E21.10580 ; perimeter
G1 X61.914 Y107.915 E21.10580 ; perimeter
G1 X60.875 Y102.018 E21.56505 ; perimeter
G1 X60.875 Y102.018 E21.56506 ; perimeter
G1 X60.116 Y97.713 E21.90031 ; perimeter
G1 X60.116 Y97.713 E21.90031 ; perimeter
G1 X59.778 Y95.793 E22.04983 ; perimeter
G1 X59.778 Y95.793 E22.04983 ; perimeter
G1 X59.049 Y91.662 E22.37157 ; perimeter
G1 X59.049 Y89.415 E22.54393 ; perimeter
G1 X76.602 Y74.685 E24.30141 ; perimeter
G1 X76.602 Y74.685 E24.30141 ; perimeter
G1 X76.842 Y74.484 E24.32540 ; perimeter
G1 X78.456 Y73.552 E24.46834 ; perimeter
G1 X96.894 Y58.080 E26.31443 ; perimeter
G1 X98.507 Y57.148 E26.45733 ; perimeter
G1 X102.423 Y53.861 E26.84948 ; perimeter
G1 X102.423 Y53.861 E26.84948 ; perimeter
G1 X115.833 Y42.610 E28.19201 ; perimeter
G1 X117.779 Y41.486 E28.36438 ; perimeter
G1 X132.834 Y46.968 E29.59322 ; perimeter
G1 X132.834 Y46.968 E29.59323 ; perimeter
G1 X139.605 Y49.430 E30.14581 ; perimeter
G1 X141.219 Y50.361 E30.28876 ; perimeter
G1 X145.171 Y51.799 E30.61128 ; perimeter
G1 X145.171 Y51.799 E30.61128 ; perimeter
G1 X150.867 Y53.873 E31.07622 ; perimeter
G1 X150.867 Y53.873 E31.07622 ; perimeter
G1 X163.530 Y58.482 E32.10975 ; perimeter
G1 X163.530 Y58.482 E32.10975 ; perimeter
G1 X163.837 Y58.594 E32.13481 ; perimeter
G1 X165.451 Y59.526 E32.27775 ; perimeter
G1 X186.705 Y67.261 E34.01246 ; perimeter
G1 X188.651 Y68.385 E34.18485 ; perimeter
G1 X189.276 Y71.935 E34.46129 ; perimeter
G1 X189.276 Y71.935 E34.46129 ; perimeter
G1 X190.978 Y81.588 E35.21311 ; perimeter
G1 X190.978 Y81.588 E35.21311 ; perimeter
G1 X191.265 Y83.217 E35.34000 ; perimeter
G1 X191.265 Y83.217 E35.34001 ; perimeter
G1 X192.682 Y91.259 E35.96629 ; perimeter
G1 X192.682 Y93.123 E36.10922 ; perimeter
G1 X193.780 Y99.337 E36.59320 ; perimeter
G1 X193.779 Y99.337 E36.59322 ; perimeter
G1 X194.982 Y106.155 E37.12424 ; perimeter
G1 X194.982 Y106.155 E37.12424 ; perimeter
G1 X196.676 Y115.765 E37.87265 ; perimeter
G1 X196.094 Y116.629 F15000.000 ; move to first perimeter point
G1 X196.140 Y116.888 F1080.000 E37.89285 ; perimeter
G1 X196.139 Y118.752 E38.03582 ; perimeter
G1 X196.592 Y121.319 E38.23571 ; perimeter
G1 X196.592 Y121.319 E38.23571 ; perimeter
G1 X200.021 Y140.766 E39.75022 ; perimeter
G1 X200.021 Y140.766 E39.75022 ; perimeter
G1 X200.067 Y141.027 E39.77055 ; perimeter
G1 X200.067 Y142.874 E39.91220 ; perimeter
G1 X196.247 Y146.079 E40.29466 ; perimeter
G1 X196.247 Y146.079 E40.29466 ; perimeter
G1 X182.581 Y157.546 E41.66289 ; perimeter
G1 X180.967 Y158.478 E41.80583 ; perimeter
G1 X162.531 Y173.949 E43.65172 ; perimeter
G1 X160.917 Y174.880 E43.79467 ; perimeter
G1 X143.794 Y189.249 E45.50911 ; perimeter
G1 X143.794 Y189.249 E45.50911 ; perimeter
G1 X143.591 Y189.420 E45.52944 ; perimeter
G1 X141.991 Y190.343 E45.67107 ; perimeter
G1 X120.542 Y182.536 E47.42174 ; perimeter
G1 X118.928 Y181.604 E47.56468 ; perimeter
G1 X96.310 Y173.373 E49.41074 ; perimeter
G1 X94.697 Y172.440 E49.55366 ; perimeter
G1 X73.442 Y164.705 E51.28845 ; perimeter
G1 X71.842 Y163.782 E51.43011 ; perimeter
G1 X69.773 Y152.037 E52.34474 ; perimeter
G1 X69.773 Y152.037 E52.34475 ; perimeter
G1 X69.655 Y151.369 E52.39683 ; perimeter
G1 X69.655 Y151.369 E52.39683 ; perimeter
G1 X68.789 Y146.466 E52.77869 ; perimeter
G1 X68.789 Y146.466 E52.77869 ; perimeter
G1 X67.879 Y141.303 E53.18078 ; perimeter
G1 X67.879 Y139.668 E53.30616 ; perimeter
G1 X67.919 Y139.668 E53.30926 ; perimeter
G1 X64.799 Y121.963 E54.68808 ; perimeter
G1 X64.798 Y121.963 E54.68809 ; perimeter
G1 X63.700 Y115.734 E55.17321 ; perimeter
G1 X63.700 Y113.871 E55.31615 ; perimeter
G1 X60.723 Y96.990 E56.63085 ; perimeter
G1 X60.723 Y96.990 E56.63085 ; perimeter
G1 X59.773 Y91.599 E57.05072 ; perimeter
G1 X59.772 Y89.752 E57.19237 ; perimeter
G1 X77.258 Y75.079 E58.94310 ; perimeter
G1 X78.872 Y74.147 E59.08604 ; perimeter
G1 X97.310 Y58.675 E60.93213 ; perimeter
G1 X98.924 Y57.743 E61.07506 ; perimeter
G1 X112.985 Y45.943 E62.48294 ; perimeter
G1 X112.985 Y45.943 E62.48294 ; perimeter
G1 X116.249 Y43.204 E62.80971 ; perimeter
G1 X117.848 Y42.281 E62.95137 ; perimeter
G1 X132.823 Y47.733 E64.17362 ; perimeter
G1 X132.823 Y47.733 E64.17362 ; perimeter
G1 X139.298 Y50.088 E64.70208 ; perimeter
G1 X140.913 Y51.019 E64.84503 ; perimeter
G1 X144.448 Y52.306 E65.13355 ; perimeter
G1 X144.448 Y52.306 E65.13355 ; perimeter
G1 X163.530 Y59.252 E66.69106 ; perimeter
G1 X165.070 Y60.141 E66.82745 ; perimeter
G1 X165.070 Y60.157 E66.82866 ; perimeter
G1 X178.477 Y65.037 E67.92293 ; perimeter
G1 X178.477 Y65.037 E67.92294 ; perimeter
G1 X186.398 Y67.919 E68.56944 ; perimeter
G1 X187.997 Y68.842 E68.71109 ; perimeter
G1 X188.673 Y72.680 E69.00996 ; perimeter
G1 X188.673 Y72.680 E69.00997 ; perimeter
G1 X190.371 Y82.311 E69.76004 ; perimeter
G1 X190.371 Y82.311 E69.76004 ; perimeter
G1 X190.403 Y82.494 E69.77429 ; perimeter
G1 X190.403 Y82.494 E69.77429 ; perimeter
G1 X191.959 Y91.322 E70.46182 ; perimeter
G1 X191.959 Y93.186 E70.60476 ; perimeter
G1 X192.051 Y93.707 E70.64532 ; perimeter
G1 X192.051 Y93.707 E70.64532 ; perimeter
G1 X192.918 Y98.614 E71.02748 ; perimeter
G1 X192.918 Y98.614 E71.02748 ; perimeter
G1 X193.528 Y102.074 E71.29700 ; perimeter
G1 X193.527 Y102.074 E71.29701 ; perimeter
G1 X195.964 Y115.890 E72.37301 ; perimeter
G1 F6000.000 E69.37301 ; retract
G92 E0 ; reset extrusion distance
G1 X133.503 Y191.355 F15000.000 ; move to first perimeter point
G1 F6000.000 E3.00000 ; compensate retraction
G1 X134.330 Y193.900 F1170.000 E3.20524 ; perimeter
G1 X133.503 Y196.445 E3.41047 ; perimeter
G1 X131.338 Y198.018 E3.61570 ; perimeter
G1 X128.662 Y198.018 E3.82094 ; perimeter
G1 X126.968 Y196.787 E3.98158 ; perimeter
G1 X126.608 Y196.787 E4.00914 ; perimeter
G1 X126.489 Y196.419 E4.03879 ; perimeter
G1 X126.489 Y196.419 E4.03879 ; perimeter
G1 X125.670 Y193.900 E4.24193 ; perimeter
G1 X126.499 Y191.350 E4.44755 ; perimeter
G1 X126.499 Y191.350 E4.44755 ; perimeter
G1 X126.608 Y191.013 E4.47472 ; perimeter
G1 X126.968 Y191.013 E4.50228 ; perimeter
G1 X128.662 Y189.782 E4.66292 ; perimeter
G1 X131.338 Y189.782 E4.86816 ; perimeter
G1 X132.896 Y190.914 E5.01587 ; perimeter
