; generated by Slic3r 0.9.3 on 2012-12-08 at 22:30:08

; layer_height = 0.25
; perimeters = 2
; solid_layers = 2
; fill_density = 0.15
; perimeter_speed = 85
; infill_speed = 60
; travel_speed = 250
; scale = 1
; nozzle_diameter = 0.35
; filament_diameter = 1.7
; extrusion_multiplier = 1.0
; single wall width = 0.39mm

M104 S185 ; set temperature
;Standard Profile for Series 1. Single Extruder
M104 S185
M301 P24.72 I0.88 D231.1
G28
G1 X120 Y115 Z15 F10000
G92 E0
G1 Y5 Z15 F5000
M109 S185
G1 F100 E50
G92 E0
G1 X50 Z0.3 F10000
; do a little dance on a toothbrush to remove extrusions..  
G90 ; use absolute coordinates
G21 ; set units to millimeters
G92 E0
M82 ; use absolute distances for extrusion
M106 S255
G1 F6000.000 E-3.00000
G92 E0
G1 Z0.250 F15000.000
G1 X122.390 Y107.767
G1 F6000.000 E3.00000
G1 X122.570 Y107.577 F600.000 E3.01109
G1 X122.960 Y107.217 E3.03359
G1 X123.380 Y106.897 E3.05597
G1 X123.820 Y106.607 E3.07831
G1 X124.280 Y106.357 E3.10050
G1 X124.770 Y106.147 E3.12310
G1 X125.270 Y105.977 E3.14548
G1 X125.780 Y105.847 E3.16779
G1 X126.300 Y105.757 E3.19016
G1 X126.560 Y105.727 E3.20126
G1 X127.090 Y105.707 E3.22374
G1 X131.120 Y105.727 E3.39456
G1 X131.640 Y105.797 E3.41680
G1 X132.160 Y105.907 E3.43933
G1 X132.660 Y106.057 E3.46146
G1 X133.160 Y106.247 E3.48413
G1 X133.630 Y106.477 E3.50631
G1 X134.080 Y106.747 E3.52855
G1 X134.300 Y106.897 E3.53984
G1 X134.720 Y107.217 E3.56222
G1 X135.110 Y107.577 E3.58472
G1 X135.470 Y107.967 E3.60722
G1 X135.790 Y108.387 E3.62960
G1 X136.080 Y108.827 E3.65193
G1 X136.330 Y109.287 E3.67413
G1 X136.540 Y109.777 E3.69672
G1 X136.710 Y110.277 E3.71911
G1 X136.840 Y110.787 E3.74142
G1 X136.930 Y111.307 E3.76379
G1 X136.960 Y111.567 E3.77488
G1 X136.960 Y116.127 E3.96817
G1 X136.890 Y116.647 E3.99041
G1 X136.780 Y117.167 E4.01294
G1 X136.630 Y117.667 E4.03506
G1 X136.440 Y118.167 E4.05774
G1 X136.210 Y118.637 E4.07992
G1 X135.940 Y119.087 E4.10216
G1 X135.790 Y119.307 E4.11345
G1 X135.470 Y119.727 E4.13583
G1 X135.110 Y120.117 E4.15833
G1 X134.720 Y120.477 E4.18082
G1 X134.300 Y120.797 E4.20320
G1 X133.860 Y121.087 E4.22554
G1 X133.400 Y121.337 E4.24773
G1 X132.910 Y121.547 E4.27033
G1 X132.410 Y121.717 E4.29272
G1 X131.900 Y121.847 E4.31502
G1 X131.380 Y121.937 E4.33739
G1 X131.120 Y121.967 E4.34849
G1 X130.590 Y121.987 E4.37097
G1 X126.560 Y121.967 E4.54179
G1 X126.040 Y121.897 E4.56403
G1 X125.520 Y121.787 E4.58656
G1 X125.020 Y121.637 E4.60869
G1 X124.520 Y121.447 E4.63136
G1 X124.050 Y121.217 E4.65354
G1 X123.600 Y120.947 E4.67579
G1 X123.380 Y120.797 E4.68707
G1 X122.960 Y120.477 E4.70945
G1 X122.570 Y120.117 E4.73195
G1 X122.210 Y119.727 E4.75445
G1 X121.890 Y119.307 E4.77683
G1 X121.600 Y118.867 E4.79917
G1 X121.350 Y118.407 E4.82136
G1 X121.140 Y117.917 E4.84396
G1 X120.970 Y117.417 E4.86634
G1 X120.840 Y116.907 E4.88865
G1 X120.750 Y116.387 E4.91102
G1 X120.720 Y116.127 E4.92211
G1 X120.720 Y111.567 E5.11540
G1 X120.790 Y111.047 E5.13764
G1 X120.900 Y110.527 E5.16017
G1 X121.050 Y110.027 E5.18230
G1 X121.240 Y109.527 E5.20497
G1 X121.470 Y109.057 E5.22715
G1 X121.740 Y108.607 E5.24939
G1 X121.890 Y108.387 E5.26068
G1 X122.134 Y108.067 E5.27775
G1 F6000.000 E2.27775
G92 E0
G1 X128.357 Y113.499 F15000.000
G1 F6000.000 E3.00000
G1 X129.038 Y113.278 F600.000 E3.03689
G1 X129.459 Y113.857 E3.07378
G1 X129.038 Y114.437 E3.11067
G1 X128.357 Y114.215 E3.14756
G1 X128.357 Y113.894 E3.16413
G1 X128.526 Y114.779 F15000.000
G1 X128.472 Y115.123 F600.000 E3.18209
G1 X127.584 Y115.123 E3.22785
G1 X127.584 Y114.473 E3.26137
G1 X128.151 Y114.657 E3.29211
G1 X129.242 Y114.979 F15000.000
G1 X129.885 Y114.094 F600.000 E3.34848
G1 X130.116 Y114.169 E3.36099
G1 X130.116 Y115.123 E3.41016
G1 X129.548 Y115.123 E3.43942
G1 X129.885 Y113.620 F15000.000
G1 X129.242 Y112.736 F600.000 E3.49579
G1 X129.316 Y112.591 E3.50413
G1 X130.116 Y112.591 E3.54537
G1 X130.116 Y113.394 E3.58673
G1 X128.526 Y112.936 F15000.000
G1 X127.584 Y113.242 F600.000 E3.63780
G1 X127.584 Y112.591 E3.67132
G1 X128.426 Y112.591 E3.71472
G1 X127.100 Y112.107 F15000.000
G1 X130.600 Y112.107 F600.000 E3.89506
G1 X130.600 Y115.607 E4.07540
G1 X127.100 Y115.607 E4.25574
G1 X127.100 Y112.502 E4.41576
G1 X127.703 Y114.104 F15000.000
G1 X127.703 Y114.350 F600.000 E4.42844
G1 X127.703 Y113.611 F15000.000
G1 X127.703 Y113.365 F600.000 E4.44113
G1 X128.584 Y112.838 F15000.000
G1 X128.626 Y112.714 F600.000 E4.44785
G1 X128.768 Y112.706 E4.45519
G1 X128.999 Y112.638 E4.46761
G1 F6000.000 E1.46761
G92 E0
G1 X128.657 Y114.967 F15000.000
G1 F6000.000 E3.00000
G1 X128.999 Y115.057 F600.000 E3.01824
G1 X129.100 Y115.001 E3.02419
G1 F6000.000 E0.02419
G92 E0
G1 Z0.500 F15000.000
G1 X129.167 Y114.832
G1 F6000.000 E3.00000
G1 X128.021 Y114.460 F600.000 E3.05109
G1 X128.021 Y113.255 E3.10218
G1 X129.167 Y112.882 E3.15327
G1 X129.875 Y113.857 E3.20436
G1 X129.399 Y114.513 E3.23874
G1 X129.018 Y114.374 F15000.000
G1 X128.410 Y114.177 F600.000 E3.26583
G1 X128.410 Y113.538 E3.29293
G1 X129.018 Y113.340 E3.32002
G1 X129.394 Y113.857 E3.34711
G1 X129.250 Y114.055 E3.35749
G1 X130.263 Y115.271 F15000.000
G1 X127.437 Y115.271 F600.000 E3.47730
G1 X127.437 Y112.444 E3.59710
G1 X130.263 Y112.444 E3.71691
G1 X130.263 Y114.876 E3.82000
G1 X130.653 Y115.660 F15000.000
G1 X127.047 Y115.660 F600.000 E3.97283
G1 X127.047 Y112.055 E4.12566
G1 X130.653 Y112.055 E4.27850
G1 X130.653 Y115.266 E4.41461
G1 F6000.000 E1.41461
G92 E0
G1 X132.845 Y117.861 F15000.000
G1 F6000.000 E3.00000
G1 X132.977 Y117.861 F600.000 E3.00557
G1 X132.845 Y117.861 F15000.000
G1 X132.842 Y117.852 F600.000 E3.00597
G1 F6000.000 E0.00597
G92 E0
G1 Z0.750 F15000.000
G1 X129.167 Y114.832
G1 F6000.000 E3.00000
G1 X128.021 Y114.460 F600.000 E3.05109
G1 X128.021 Y113.255 E3.10218
G1 X129.167 Y112.882 E3.15327
G1 X129.875 Y113.857 E3.20436
G1 X129.399 Y114.513 E3.23874
G1 X129.018 Y114.374 F15000.000
G1 X128.410 Y114.177 F600.000 E3.26583
G1 X128.410 Y113.538 E3.29293
G1 X129.018 Y113.340 E3.32002
G1 X129.394 Y113.857 E3.34711
G1 X129.250 Y114.055 E3.35749
G1 X130.263 Y115.271 F15000.000
G1 X127.437 Y115.271 F600.000 E3.47730
G1 X127.437 Y112.444 E3.59710
G1 X130.263 Y112.444 E3.71691
G1 X130.263 Y114.876 E3.82000
G1 X130.653 Y115.660 F15000.000
G1 X127.047 Y115.660 F600.000 E3.97283
G1 X127.047 Y112.055 E4.12566
G1 X130.653 Y112.055 E4.27850
G1 X130.653 Y115.266 E4.41462
G1 F6000.000 E1.41462
G92 E0
G1 X132.843 Y117.863 F15000.000
G1 F6000.000 E3.00000
G1 X132.962 Y117.864 F600.000 E3.00506
G1 X132.843 Y117.863 F15000.000
G1 X132.837 Y117.848 F600.000 E3.00571
G1 F6000.000 E0.00571
G92 E0
G1 Z1.000 F15000.000
G1 X129.167 Y114.833
G1 F6000.000 E3.00000
G1 X128.021 Y114.460 F600.000 E3.05109
G1 X128.021 Y113.255 E3.10218
G1 X129.167 Y112.882 E3.15327
G1 X129.875 Y113.857 E3.20436
G1 X129.399 Y114.513 E3.23874
G1 X129.018 Y114.374 F15000.000
G1 X128.945 Y114.351 F600.000 E3.24201
G1 X128.945 Y114.351 E3.24201
G1 X128.410 Y114.177 E3.26583
G1 X128.410 Y113.538 E3.29293
G1 X129.018 Y113.340 E3.32002
G1 X129.394 Y113.857 E3.34712
G1 X129.323 Y113.954 E3.35220
G1 X129.323 Y113.954 E3.35220
G1 X129.250 Y114.055 E3.35750
G1 X130.263 Y115.271 F15000.000
G1 X127.437 Y115.271 F600.000 E3.47730
G1 X127.437 Y112.444 E3.59711
G1 X130.263 Y112.444 E3.71691
G1 X130.263 Y114.876 E3.82000
G1 X130.653 Y115.660 F15000.000
G1 X127.047 Y115.660 F600.000 E3.97283
G1 X127.047 Y112.055 E4.12567
G1 X130.653 Y112.055 E4.27850
G1 X130.653 Y115.266 E4.41462
G1 F6000.000 E1.41462
G92 E0
G1 X132.840 Y117.865 F15000.000
G1 F6000.000 E3.00000
G1 X132.947 Y117.867 F600.000 E3.00455
G1 X132.840 Y117.865 F15000.000
G1 X132.832 Y117.844 F600.000 E3.00546
G1 F6000.000 E0.00546
G92 E0
G1 Z1.250 F15000.000
G1 X129.018 Y114.374
G1 F6000.000 E3.00000
G1 X128.787 Y114.300 F600.000 E3.01028
G1 X128.787 Y114.300 E3.01028
G1 X128.410 Y114.177 E3.02709
G1 X128.410 Y113.538 E3.05419
G1 X129.020 Y113.340 E3.08138
G1 X129.020 Y113.340 E3.08138
G1 X129.046 Y113.331 E3.08251
G1 X129.046 Y113.378 E3.08449
G1 X129.394 Y113.857 E3.10960
G1 X129.310 Y113.972 E3.11562
G1 X129.310 Y113.972 E3.11562
G1 X129.250 Y114.055 E3.11998
G1 X129.662 Y114.993 F15000.000
G1 X129.618 Y115.271 F600.000 E3.13188
G1 X127.437 Y115.271 E3.22433
G1 X127.437 Y112.444 E3.34414
G1 X129.618 Y112.444 E3.43659
G1 X129.662 Y112.721 E3.44849
G1 X128.021 Y113.255 E3.52164
G1 X128.021 Y114.460 E3.57273
G1 X129.287 Y114.871 E3.62916
G1 X129.177 Y114.818 F15000.000
G1 X130.077 Y113.580 F600.000 E3.69408
G1 X130.263 Y113.640 E3.70237
G1 X130.263 Y115.271 E3.77149
G1 X129.177 Y115.271 E3.81753
G1 X129.177 Y115.213 E3.81997
G1 X130.077 Y114.135 F15000.000
G1 X129.435 Y113.252 F600.000 E3.86627
G1 X129.435 Y112.444 E3.90050
G1 X130.263 Y112.444 E3.93560
G1 X130.263 Y113.876 E3.99629
G1 X130.653 Y115.660 F15000.000
G1 X127.047 Y115.660 F600.000 E4.14912
G1 X127.047 Y112.055 E4.30196
G1 X130.653 Y112.055 E4.45479
G1 X130.653 Y115.266 E4.59091
G1 F6000.000 E1.59091
G92 E0
G1 X132.838 Y117.866 F15000.000
G1 F6000.000 E3.00000
G1 X132.933 Y117.870 F600.000 E3.00404
G1 X132.838 Y117.866 F15000.000
G1 X132.827 Y117.841 F600.000 E3.00521
G1 F6000.000 E0.00521
G92 E0
G1 Z1.500 F15000.000
G1 X129.167 Y114.832
G1 F6000.000 E3.00000
G1 X128.646 Y114.663 F600.000 E3.02321
G1 X128.646 Y114.663 E3.02321
G1 X128.021 Y114.460 E3.05109
G1 X128.021 Y113.255 E3.10218
G1 X128.646 Y113.051 E3.13006
G1 X128.646 Y113.051 E3.13006
G1 X129.167 Y112.882 E3.15327
G1 X129.520 Y113.369 E3.17876
G1 X129.680 Y113.369 E3.18553
G1 X129.907 Y113.814 E3.20671
G1 X129.399 Y114.513 E3.24336
G1 X129.018 Y114.374 F15000.000
G1 X128.410 Y114.177 F600.000 E3.27046
G1 X128.410 Y113.538 E3.29755
G1 X129.018 Y113.340 E3.32464
G1 X129.322 Y113.758 E3.34654
G1 X129.441 Y113.758 E3.35161
G1 X129.451 Y113.778 E3.35255
G1 X129.379 Y113.878 E3.35777
G1 X129.379 Y113.878 E3.35777
G1 X129.250 Y114.055 E3.36709
G1 X130.263 Y115.271 F15000.000
G1 X127.437 Y115.271 F600.000 E3.48689
G1 X127.437 Y112.444 E3.60670
G1 X130.263 Y112.444 E3.72650
G1 X130.263 Y114.876 E3.82959
G1 X130.653 Y115.660 F15000.000
G1 X127.047 Y115.660 F600.000 E3.98242
G1 X127.047 Y112.055 E4.13526
G1 X130.653 Y112.055 E4.28809
G1 X130.653 Y115.266 E4.42421
G1 F6000.000 E1.42421
G92 E0
G1 X132.835 Y117.868 F15000.000
G1 F6000.000 E3.00000
G1 X132.919 Y117.873 F600.000 E3.00354
G1 X132.835 Y117.868 F15000.000
G1 X132.822 Y117.837 F600.000 E3.00496
G1 F6000.000 E0.00496
G92 E0
G1 Z1.750 F15000.000
G1 X129.167 Y114.832
G1 F6000.000 E3.00000
G1 X128.021 Y114.460 F600.000 E3.05109
G1 X128.021 Y113.255 E3.10218
G1 X129.167 Y112.882 E3.15327
G1 X129.875 Y113.857 E3.20436
G1 X129.599 Y114.238 E3.22430
G1 X129.599 Y114.238 E3.22430
G1 X129.399 Y114.513 E3.23874
G1 X129.018 Y114.374 F15000.000
G1 X128.410 Y114.177 F600.000 E3.26583
G1 X128.410 Y113.538 E3.29293
G1 X129.018 Y113.340 E3.32002
G1 X129.394 Y113.857 E3.34711
G1 X129.250 Y114.055 E3.35749
G1 X130.263 Y115.271 F15000.000
G1 X127.437 Y115.271 F600.000 E3.47730
G1 X127.437 Y112.444 E3.59710
G1 X130.263 Y112.444 E3.71691
G1 X130.263 Y114.876 E3.82000
G1 X130.653 Y115.660 F15000.000
G1 X127.047 Y115.660 F600.000 E3.97283
G1 X127.047 Y112.055 E4.12566
G1 X130.653 Y112.055 E4.27850
G1 X130.653 Y115.266 E4.41462
G1 F6000.000 E1.41462
G92 E0
G1 X132.833 Y117.869 F15000.000
G1 F6000.000 E3.00000
G1 X132.905 Y117.877 F600.000 E3.00303
G1 X132.833 Y117.869 F15000.000
G1 X132.817 Y117.833 F600.000 E3.00470
G1 F6000.000 E0.00470
G92 E0
G1 Z2.000 F15000.000
G1 X129.167 Y114.832
G1 F6000.000 E3.00000
G1 X128.021 Y114.460 F600.000 E3.05109
G1 X128.021 Y113.255 E3.10218
G1 X129.167 Y112.882 E3.15327
G1 X129.875 Y113.857 E3.20436
G1 X129.399 Y114.513 E3.23874
G1 X129.018 Y114.374 F15000.000
G1 X128.410 Y114.177 F600.000 E3.26583
G1 X128.410 Y113.538 E3.29293
G1 X129.018 Y113.340 E3.32002
G1 X129.394 Y113.857 E3.34711
G1 X129.250 Y114.055 E3.35749
G1 X130.263 Y115.271 F15000.000
G1 X127.437 Y115.271 F600.000 E3.47730
G1 X127.437 Y112.444 E3.59710
G1 X130.263 Y112.444 E3.71691
G1 X130.263 Y114.876 E3.82000
G1 X130.653 Y115.660 F15000.000
G1 X127.047 Y115.660 F600.000 E3.97283
G1 X127.047 Y112.055 E4.12566
G1 X130.653 Y112.055 E4.27850
G1 X130.653 Y115.266 E4.41462
G1 F6000.000 E1.41462
G92 E0
G1 X132.832 Y117.871 F15000.000
G1 F6000.000 E3.00000
G1 X132.891 Y117.880 F600.000 E3.00253
G1 X132.832 Y117.871 F15000.000
G1 X132.812 Y117.830 F600.000 E3.00445
G1 F6000.000 E0.00445
G92 E0
G1 Z2.250 F15000.000
G1 X129.167 Y114.832
G1 F6000.000 E3.00000
G1 X128.021 Y114.460 F600.000 E3.05109
G1 X128.021 Y113.255 E3.10218
G1 X129.167 Y112.882 E3.15327
G1 X129.559 Y113.422 E3.18156
G1 X129.641 Y113.422 E3.18504
G1 X129.868 Y113.867 E3.20622
G1 X129.399 Y114.513 E3.24007
G1 X129.018 Y114.374 F15000.000
G1 X128.410 Y114.177 F600.000 E3.26716
G1 X128.410 Y113.538 E3.29425
G1 X129.018 Y113.340 E3.32135
G1 X129.361 Y113.812 E3.34605
G1 X129.402 Y113.812 E3.34782
G1 X129.412 Y113.832 E3.34877
G1 X129.250 Y114.055 E3.36050
G1 X130.263 Y115.271 F15000.000
G1 X127.437 Y115.271 F600.000 E3.48030
G1 X127.437 Y112.444 E3.60011
G1 X130.263 Y112.444 E3.71991
G1 X130.263 Y114.876 E3.82300
G1 X130.653 Y115.660 F15000.000
G1 X127.047 Y115.660 F600.000 E3.97583
G1 X127.047 Y112.055 E4.12867
G1 X130.653 Y112.055 E4.28150
G1 X130.653 Y115.266 E4.41762
G1 F6000.000 E1.41762
G92 E0
G1 X132.830 Y117.872 F15000.000
G1 F6000.000 E3.00000
G1 X132.864 Y117.892 F600.000 E3.00166
G1 X132.830 Y117.872 F15000.000
G1 X132.807 Y117.826 F600.000 E3.00383
G1 F6000.000 E0.00383
G92 E0
G1 Z2.500 F15000.000
G1 X129.167 Y114.832
G1 F6000.000 E3.00000
G1 X128.021 Y114.460 F600.000 E3.05109
G1 X128.021 Y113.255 E3.10218
G1 X128.293 Y113.166 E3.11433
G1 X128.293 Y113.166 E3.11433
G1 X129.167 Y112.882 E3.15327
G1 X129.875 Y113.857 E3.20436
G1 X129.560 Y114.291 E3.22710
G1 X129.560 Y114.291 E3.22710
G1 X129.399 Y114.513 E3.23874
G1 X129.018 Y114.374 F15000.000
G1 X128.410 Y114.177 F600.000 E3.26583
G1 X128.410 Y113.538 E3.29293
G1 X128.683 Y113.449 E3.30507
G1 X128.683 Y113.449 E3.30507
G1 X129.018 Y113.340 E3.32002
G1 X129.394 Y113.857 E3.34711
G1 X129.250 Y114.055 E3.35749
G1 X130.263 Y115.271 F15000.000
G1 X127.437 Y115.271 F600.000 E3.47730
G1 X127.437 Y112.444 E3.59710
G1 X130.263 Y112.444 E3.71691
G1 X130.263 Y114.876 E3.81999
G1 X130.653 Y115.660 F15000.000
G1 X127.047 Y115.660 F600.000 E3.97283
G1 X127.047 Y112.055 E4.12566
G1 X130.653 Y112.055 E4.27850
G1 X130.653 Y115.266 E4.41461
G1 F6000.000 E1.41461
G92 E0
G1 X132.829 Y117.873 F15000.000
G1 F6000.000 E3.00000
G1 X132.867 Y117.904 F600.000 E3.00208
G1 X132.829 Y117.873 F15000.000
G1 X132.802 Y117.822 F600.000 E3.00449
G1 F6000.000 E0.00449
G92 E0
G1 Z2.750 F15000.000
G1 X129.167 Y114.832
G1 F6000.000 E3.00000
G1 X128.272 Y114.542 F600.000 E3.03988
G1 X128.272 Y114.542 E3.03988
G1 X128.021 Y114.460 E3.05109
G1 X128.021 Y113.255 E3.10218
G1 X128.272 Y113.173 E3.11339
G1 X128.272 Y113.173 E3.11339
G1 X129.167 Y112.882 E3.15327
G1 X129.875 Y113.857 E3.20436
G1 X129.399 Y114.513 E3.23874
G1 X129.018 Y114.374 F15000.000
G1 X128.662 Y114.259 F600.000 E3.25462
G1 X128.662 Y114.259 E3.25462
G1 X128.410 Y114.177 E3.26583
G1 X128.410 Y113.538 E3.29293
G1 X128.662 Y113.456 E3.30414
G1 X128.662 Y113.456 E3.30414
G1 X129.018 Y113.340 E3.32002
G1 X129.394 Y113.857 E3.34711
G1 X129.250 Y114.055 E3.35749
G1 X130.263 Y115.271 F15000.000
G1 X127.437 Y115.271 F600.000 E3.47730
G1 X127.437 Y112.444 E3.59710
G1 X130.263 Y112.444 E3.71691
G1 X130.263 Y114.876 E3.82000
G1 X130.653 Y115.660 F15000.000
G1 X127.047 Y115.660 F600.000 E3.97283
G1 X127.047 Y112.055 E4.12566
G1 X130.653 Y112.055 E4.27850
G1 X130.653 Y115.266 E4.41461
G1 F6000.000 E1.41461
G92 E0
G1 X132.828 Y117.873 F15000.000
G1 F6000.000 E3.00000
G1 X132.870 Y117.914 F600.000 E3.00248
G1 X132.828 Y117.873 F15000.000
G1 X132.797 Y117.819 F600.000 E3.00514
G1 F6000.000 E0.00514
G92 E0
G1 Z3.000 F15000.000
G1 X129.167 Y114.832
G1 F6000.000 E3.00000
G1 X128.251 Y114.535 F600.000 E3.04081
G1 X128.251 Y114.535 E3.04081
G1 X128.021 Y114.460 E3.05109
G1 X128.021 Y113.255 E3.10218
G1 X128.251 Y113.180 E3.11246
G1 X128.251 Y113.180 E3.11246
