; generated by Slic3r 0.9.3 on 2012-12-08 at 22:34:51

; layer_height = 0.25
; perimeters = 2
; solid_layers = 2
; fill_density = 0.15
; perimeter_speed = 85
; infill_speed = 60
; travel_speed = 250
; scale = 1
; nozzle_diameter = 0.35
; filament_diameter = 1.7
; extrusion_multiplier = 1.0
; single wall width = 0.39mm

M104 S185 ; set temperature
;Standard Profile for Series 1. Single Extruder
M104 S185
M301 P24.72 I0.88 D231.1
G28
G1 X120 Y115 Z15 F10000
G92 E0
G1 Y5 Z15 F5000
M109 S185
G1 F100 E50
G92 E0
G1 X50 Z0.3 F10000
; do a little dance on a toothbrush to remove extrusions..  
G90 ; use absolute coordinates
G21 ; set units to millimeters
G92 E0
M82 ; use absolute distances for extrusion
M106 S255
G1 F6000.000 E-3.00000
G92 E0
G1 Z0.250 F15000.000
G1 X84.930 Y95.015
G1 F6000.000 E3.00000
G1 X128.940 Y51.095 F2040.000 E5.63549
G1 X129.360 Y50.745 E5.65866
G1 X129.590 Y50.575 E5.67078
G1 X130.060 Y50.275 E5.69442
G1 X130.550 Y50.025 E5.71773
G1 X131.070 Y49.805 E5.74167
G1 X131.870 Y49.575 E5.77695
G1 X132.420 Y49.475 E5.80065
G1 X132.690 Y49.445 E5.81216
G1 X133.250 Y49.425 E5.83591
G1 X145.270 Y49.445 E6.34541
G1 X146.060 Y49.565 E6.37928
G1 X146.570 Y49.695 E6.40159
G1 X147.070 Y49.865 E6.42398
G1 X147.550 Y50.075 E6.44618
G1 X148.020 Y50.335 E6.46895
G1 X148.460 Y50.625 E6.49129
G1 X148.880 Y50.945 E6.51367
G1 X149.270 Y51.305 E6.53617
G1 X149.630 Y51.695 E6.55866
G1 X149.950 Y52.115 E6.58105
G1 X150.240 Y52.565 E6.60374
G1 X150.490 Y53.025 E6.62593
G1 X157.700 Y71.695 E7.47427
G1 X176.680 Y133.695 E10.22268
G1 X176.750 Y133.985 E10.23533
G1 X176.870 Y134.865 E10.27297
G1 X176.880 Y135.455 E10.29798
G1 X176.830 Y136.045 E10.32308
G1 X170.440 Y174.345 E11.96896
G1 X170.370 Y174.635 E11.98161
G1 X170.190 Y175.205 E12.00695
G1 X170.080 Y175.485 E12.01970
G1 X169.820 Y176.015 E12.04472
G1 X169.510 Y176.535 E12.07038
G1 X168.180 Y178.325 E12.16491
G1 X168.000 Y178.525 E12.17631
G1 X167.620 Y178.895 E12.19879
G1 X166.990 Y179.385 E12.23263
G1 X166.770 Y179.535 E12.24391
G1 X166.070 Y179.915 E12.27767
G1 X165.820 Y180.025 E12.28925
G1 X165.070 Y180.285 E12.32290
G1 X164.550 Y180.405 E12.34552
G1 X164.020 Y180.485 E12.36824
G1 X163.490 Y180.515 E12.39074
G1 X162.960 Y180.505 E12.41321
G1 X162.170 Y180.405 E12.44696
G1 X161.650 Y180.285 E12.46958
G1 X130.700 Y168.605 E13.87179
G1 X130.430 Y168.485 E13.88431
G1 X129.910 Y168.195 E13.90955
G1 X129.420 Y167.865 E13.93459
G1 X128.960 Y167.485 E13.95988
G1 X84.550 Y119.145 E16.74233
G1 X84.370 Y118.925 E16.75438
G1 X84.050 Y118.475 E16.77778
G1 X83.770 Y117.985 E16.80170
G1 X83.540 Y117.485 E16.82503
G1 X83.270 Y116.695 E16.86042
G1 X83.200 Y116.415 E16.87265
G1 X83.070 Y115.595 E16.90784
G1 X83.070 Y98.975 E17.61233
G1 X83.200 Y98.155 E17.64752
G1 X83.270 Y97.875 E17.65975
G1 X83.440 Y97.345 E17.68334
G1 X83.650 Y96.835 E17.70672
G1 X83.770 Y96.585 E17.71848
G1 X84.050 Y96.095 E17.74240
G1 X84.370 Y95.645 E17.76580
G1 X84.657 Y95.299 E17.78485
G1 F6000.000 E14.78485
G92 E0
G1 X168.278 Y135.812 F15000.000
G1 F6000.000 E3.00000
G1 X168.278 Y134.762 F1440.000 E3.05408
G1 X169.276 Y134.438 E3.10816
G1 X169.893 Y135.287 E3.16225
G1 X169.276 Y136.136 E3.21633
G1 X168.653 Y135.933 E3.25009
G1 X167.794 Y136.163 F15000.000
G1 X167.794 Y134.410 F1440.000 E3.34041
G1 X169.461 Y133.869 E3.43072
G1 X170.491 Y135.287 E3.52103
G1 X169.461 Y136.705 E3.61134
G1 X168.169 Y136.285 E3.68133
G1 F6000.000 E0.68133
G92 E0
G1 X145.837 Y113.861 F15000.000
G1 F6000.000 E3.00000
G1 X142.810 Y112.878 F1440.000 E3.16398
G1 X142.810 Y109.695 E3.32795
G1 X145.837 Y108.712 E3.49193
G1 X147.707 Y111.287 E3.65591
G1 X146.068 Y113.542 E3.79957
G1 X145.652 Y113.292 F15000.000
G1 X143.294 Y112.526 F1440.000 E3.92731
G1 X143.294 Y110.047 E4.05506
G1 X145.652 Y109.281 E4.18281
G1 X147.109 Y111.287 E4.31055
G1 X145.884 Y112.973 E4.41798
G1 F6000.000 E1.41798
G92 E0
G1 X133.734 Y122.553 F15000.000
G1 F6000.000 E3.00000
G1 X133.734 Y100.021 F2040.000 E4.16098
G1 X156.266 Y100.021 E5.32196
G1 X156.266 Y122.553 E6.48294
G1 X134.128 Y122.553 E7.62360
G1 X133.250 Y123.037 F15000.000
G1 X133.250 Y99.537 F2040.000 E8.83445
G1 X156.750 Y99.537 E10.04530
G1 X156.750 Y123.037 E11.25614
G1 X133.644 Y123.037 E12.44667
G1 X134.497 Y122.348 F15000.000
G1 X133.939 Y121.790 F1440.000 E12.48734
G1 X133.939 Y121.105 F15000.000
G1 X135.182 Y122.348 F1440.000 E12.57791
G1 X135.866 Y122.348 F15000.000
G1 X133.939 Y120.421 F1440.000 E12.71838
G1 X133.939 Y119.736 F15000.000
G1 X136.551 Y122.348 F1440.000 E12.90875
G1 X137.235 Y122.348 F15000.000
G1 X133.939 Y119.051 F1440.000 E13.14902
G1 X133.939 Y118.367 F15000.000
G1 X137.920 Y122.348 F1440.000 E13.43919
G1 X138.604 Y122.348 F15000.000
G1 X133.939 Y117.682 F1440.000 E13.77926
G1 X133.939 Y116.998 F15000.000
G1 X139.289 Y122.348 F1440.000 E14.16923
G1 X139.973 Y122.348 F15000.000
G1 X133.939 Y116.313 F1440.000 E14.60910
G1 X133.939 Y115.629 F15000.000
G1 X140.658 Y122.348 F1440.000 E15.09887
G1 X141.342 Y122.348 F15000.000
G1 X133.939 Y114.944 F1440.000 E15.63854
G1 X133.939 Y114.260 F15000.000
G1 X142.027 Y122.348 F1440.000 E16.22811
G1 X142.711 Y122.348 F15000.000
G1 X133.939 Y113.575 F1440.000 E16.86758
G1 X133.939 Y112.890 F15000.000
G1 X143.397 Y122.348 F1440.000 E17.55696
G1 X144.081 Y122.348 F15000.000
G1 X133.939 Y112.205 F1440.000 E18.29623
G1 X133.939 Y111.521 F15000.000
G1 X144.766 Y122.348 F1440.000 E19.08540
G1 X145.450 Y122.348 F15000.000
G1 X133.939 Y110.836 F1440.000 E19.92447
G1 X133.939 Y110.152 F15000.000
G1 X146.135 Y122.348 F1440.000 E20.81345
G1 X146.819 Y122.348 F15000.000
G1 X133.939 Y109.467 F1440.000 E21.75232
G1 X133.939 Y108.783 F15000.000
G1 X147.504 Y122.348 F1440.000 E22.74109
G1 X148.188 Y122.348 F15000.000
G1 X133.939 Y108.098 F1440.000 E23.77977
G1 X133.939 Y107.414 F15000.000
G1 X148.873 Y122.348 F1440.000 E24.86834
G1 X149.557 Y122.348 F15000.000
G1 X133.939 Y106.729 F1440.000 E26.00682
G1 X133.939 Y106.045 F15000.000
G1 X150.242 Y122.348 F1440.000 E27.19519
G1 X150.927 Y122.348 F15000.000
G1 X133.939 Y105.360 F1440.000 E28.43346
G1 X133.939 Y104.676 F15000.000
G1 X142.605 Y113.342 F1440.000 E29.06515
G1 X142.294 Y113.031 F15000.000
G1 X151.611 Y122.348 F1440.000 E29.74428
G1 X152.296 Y122.348 F15000.000
G1 X143.308 Y113.361 F1440.000 E30.39938
G1 X142.605 Y112.657 F15000.000
G1 X133.938 Y103.991 F1440.000 E31.03106
G1 X133.939 Y103.306 F15000.000
G1 X142.605 Y111.972 F1440.000 E31.66274
G1 X142.605 Y111.287 F15000.000
G1 X133.939 Y102.621 F1440.000 E32.29443
G1 X133.939 Y101.937 F15000.000
G1 X142.605 Y110.603 F1440.000 E32.92611
G1 X142.605 Y109.918 F15000.000
G1 X133.939 Y101.252 F1440.000 E33.55779
G1 X133.939 Y100.568 F15000.000
G1 X142.899 Y109.527 F1440.000 E34.21087
G1 X143.415 Y109.359 F15000.000
G1 X134.281 Y100.225 F1440.000 E34.87666
G1 X134.966 Y100.226 F15000.000
G1 X143.932 Y109.192 F1440.000 E35.53022
G1 X144.448 Y109.024 F15000.000
G1 X135.650 Y100.226 F1440.000 E36.17153
G1 X136.335 Y100.226 F15000.000
G1 X144.965 Y108.856 F1440.000 E36.80060
G1 X145.482 Y108.688 F15000.000
G1 X137.019 Y100.226 F1440.000 E37.41744
G1 X137.704 Y100.226 F15000.000
G1 X145.998 Y108.520 F1440.000 E38.02205
G1 X146.804 Y109.326 F15000.000
G1 X156.061 Y118.583 F1440.000 E38.69682
G1 X156.061 Y119.267 F15000.000
G1 X147.932 Y111.138 F1440.000 E39.28938
G1 X147.644 Y111.534 F15000.000
G1 X156.061 Y119.952 F1440.000 E39.90295
G1 X156.061 Y120.637 F15000.000
G1 X147.356 Y111.931 F1440.000 E40.53751
G1 X147.068 Y112.327 F15000.000
G1 X156.061 Y121.321 F1440.000 E41.19307
G1 X156.061 Y122.006 F15000.000
G1 X146.780 Y112.724 F1440.000 E41.86962
G1 X146.492 Y113.120 F15000.000
G1 X155.719 Y122.348 F1440.000 E42.54223
G1 X155.035 Y122.348 F15000.000
G1 X146.204 Y113.517 F1440.000 E43.18593
G1 X145.916 Y113.913 F15000.000
G1 X154.350 Y122.348 F1440.000 E43.80073
G1 X153.666 Y122.348 F15000.000
G1 X145.337 Y114.019 F1440.000 E44.40782
G1 X144.323 Y113.690 E44.46277
G1 X152.981 Y122.348 E45.09386
G1 F6000.000 E42.09386
G92 E0
G1 X156.061 Y117.898 F15000.000
G1 F6000.000 E3.00000
G1 X138.388 Y100.226 F1440.000 E4.28817
G1 X139.073 Y100.226 F15000.000
G1 X156.061 Y117.214 F1440.000 E5.52643
G1 X156.061 Y116.528 F15000.000
G1 X139.758 Y100.225 F1440.000 E6.71480
G1 X140.443 Y100.225 F15000.000
G1 X156.061 Y115.844 F1440.000 E7.85327
G1 X156.061 Y115.159 F15000.000
G1 X141.127 Y100.225 F1440.000 E8.94184
G1 X141.812 Y100.225 F15000.000
G1 X156.061 Y114.475 F1440.000 E9.98050
G1 X156.061 Y113.790 F15000.000
G1 X142.496 Y100.225 F1440.000 E10.96927
G1 X143.181 Y100.225 F15000.000
G1 X156.061 Y113.106 F1440.000 E11.90813
G1 X156.061 Y112.421 F15000.000
G1 X143.865 Y100.226 F1440.000 E12.79710
G1 X144.550 Y100.226 F15000.000
G1 X156.061 Y111.737 F1440.000 E13.63616
G1 X156.061 Y111.052 F15000.000
G1 X145.234 Y100.226 F1440.000 E14.42533
G1 X145.919 Y100.226 F15000.000
G1 X156.061 Y110.368 F1440.000 E15.16459
G1 X156.061 Y109.683 F15000.000
G1 X146.604 Y100.226 F1440.000 E15.85396
G1 X147.288 Y100.226 F15000.000
G1 X156.061 Y108.999 F1440.000 E16.49342
G1 X156.061 Y108.314 F15000.000
G1 X147.973 Y100.226 F1440.000 E17.08298
G1 X148.658 Y100.225 F15000.000
G1 X156.062 Y107.629 F1440.000 E17.62265
G1 X156.061 Y106.944 F15000.000
G1 X149.342 Y100.225 F1440.000 E18.11241
G1 X150.027 Y100.225 F15000.000
G1 X156.061 Y106.260 F1440.000 E18.55227
G1 X156.061 Y105.575 F15000.000
G1 X150.711 Y100.225 F1440.000 E18.94224
G1 X151.396 Y100.225 F15000.000
G1 X156.061 Y104.891 F1440.000 E19.28230
G1 X156.061 Y104.206 F15000.000
G1 X152.080 Y100.225 F1440.000 E19.57246
G1 X152.765 Y100.226 F15000.000
G1 X156.061 Y103.522 F1440.000 E19.81272
G1 X156.061 Y102.837 F15000.000
G1 X153.450 Y100.226 F1440.000 E20.00308
G1 X154.134 Y100.226 F15000.000
G1 X156.061 Y102.153 F1440.000 E20.14355
G1 X156.061 Y101.468 F15000.000
G1 X154.819 Y100.226 F1440.000 E20.23411
G1 X155.503 Y100.226 F15000.000
G1 X156.061 Y100.784 F1440.000 E20.27477
G1 F6000.000 E17.27477
G92 E0
G1 X163.183 Y172.435 F15000.000
G1 F6000.000 E3.00000
G1 X163.593 Y172.999 F1440.000 E3.03591
G1 X163.183 Y173.562 E3.07182
G1 X162.520 Y173.347 E3.10773
G1 X162.520 Y172.650 E3.14364
G1 X162.808 Y172.557 E3.15923
G1 X162.036 Y172.299 F15000.000
G1 X163.368 Y171.866 F1440.000 E3.23137
G1 X164.191 Y172.999 E3.30351
G1 X163.368 Y174.131 E3.37566
G1 X162.036 Y173.699 E3.44780
G1 X162.036 Y172.693 E3.49962
G1 F6000.000 E0.49962
G92 E0
G1 X143.744 Y155.288 F15000.000
G1 F6000.000 E3.00000
G1 X141.053 Y154.414 F1440.000 E3.14581
G1 X141.053 Y151.584 E3.29161
G1 X143.744 Y150.709 E3.43742
G1 X145.407 Y152.999 E3.58322
G1 X143.976 Y154.969 E3.70871
G1 X143.559 Y154.719 F15000.000
G1 X141.536 Y154.062 F1440.000 E3.81828
G1 X141.536 Y151.935 E3.92786
G1 X143.559 Y151.278 E4.03743
G1 X144.809 Y152.999 E4.14701
G1 X143.791 Y154.400 E4.23627
G1 F6000.000 E1.23627
G92 E0
G1 X133.734 Y143.733 F15000.000
G1 F6000.000 E3.00000
G1 X152.266 Y143.733 F2040.000 E3.95488
G1 X152.266 Y162.265 E4.90976
G1 X133.734 Y162.265 E5.86464
G1 X133.734 Y144.127 E6.79920
G1 X133.250 Y143.249 F15000.000
G1 X152.750 Y143.249 F2040.000 E7.80394
G1 X152.750 Y162.749 E8.80869
G1 X133.250 Y162.749 E9.81343
G1 X133.250 Y143.643 E10.79786
G1 X133.939 Y144.282 F15000.000
G1 X141.089 Y151.433 F1440.000 E11.32200
G1 X140.847 Y151.880 F15000.000
G1 X133.939 Y144.971 F1440.000 E11.82841
G1 X133.939 Y145.660 F15000.000
G1 X140.847 Y152.568 F1440.000 E12.33483
G1 X140.847 Y153.257 F15000.000
G1 X133.939 Y146.348 F1440.000 E12.84124
G1 X133.939 Y147.037 F15000.000
G1 X140.848 Y153.946 F1440.000 E13.34766
G1 X140.848 Y154.635 F15000.000
G1 X133.939 Y147.726 F1440.000 E13.85407
G1 X133.939 Y148.415 F15000.000
G1 X147.584 Y162.060 F1440.000 E14.85426
G1 X146.895 Y162.060 F15000.000
G1 X133.939 Y149.103 F1440.000 E15.80395
G1 X133.939 Y149.792 F15000.000
G1 X146.206 Y162.060 F1440.000 E16.70316
G1 X145.518 Y162.060 F15000.000
G1 X133.939 Y150.481 F1440.000 E17.55188
G1 X133.939 Y151.170 F15000.000
G1 X144.829 Y162.060 F1440.000 E18.35011
G1 X144.140 Y162.060 F15000.000
G1 X133.939 Y151.858 F1440.000 E19.09785
G1 X133.939 Y152.547 F15000.000
G1 X143.451 Y162.060 F1440.000 E19.79510
G1 X142.763 Y162.060 F15000.000
G1 X133.939 Y153.236 F1440.000 E20.44186
G1 X133.939 Y153.925 F15000.000
G1 X142.074 Y162.060 F1440.000 E21.03814
G1 X141.385 Y162.059 F15000.000
G1 X133.939 Y154.614 F1440.000 E21.58392
G1 X133.939 Y155.303 F15000.000
G1 X140.696 Y162.060 F1440.000 E22.07922
G1 X140.007 Y162.060 F15000.000
G1 X133.939 Y155.992 F1440.000 E22.52403
G1 X133.939 Y156.681 F15000.000
G1 X139.318 Y162.060 F1440.000 E22.91834
G1 X138.629 Y162.060 F15000.000
G1 X133.939 Y157.369 F1440.000 E23.26217
G1 X133.939 Y158.058 F15000.000
G1 X137.941 Y162.060 F1440.000 E23.55551
G1 X137.252 Y162.060 F15000.000
G1 X133.939 Y158.747 F1440.000 E23.79837
G1 X133.939 Y159.436 F15000.000
G1 X136.563 Y162.060 F1440.000 E23.99073
G1 X135.874 Y162.060 F15000.000
G1 X133.939 Y160.124 F1440.000 E24.13260
G1 X133.939 Y160.813 F15000.000
G1 X135.186 Y162.060 F1440.000 E24.22398
G1 X134.497 Y162.060 F15000.000
G1 X133.939 Y161.502 F1440.000 E24.26488
G1 F6000.000 E21.26488
G92 E0
G1 X140.896 Y154.683 F15000.000
G1 F6000.000 E3.00000
G1 X148.273 Y162.060 F1440.000 E3.54071
G1 X148.961 Y162.060 F15000.000
G1 X141.916 Y155.015 F1440.000 E4.05712
G1 X142.937 Y155.346 F15000.000
G1 X149.650 Y162.060 F1440.000 E4.54923
G1 X150.339 Y162.060 F15000.000
G1 X143.737 Y155.458 F1440.000 E5.03316
G1 X144.027 Y155.059 F15000.000
G1 X151.028 Y162.060 F1440.000 E5.54634
G1 X151.717 Y162.060 F15000.000
G1 X144.317 Y154.660 F1440.000 E6.08876
G1 X144.606 Y154.261 F15000.000
G1 X152.061 Y161.716 F1440.000 E6.63517
G1 X152.061 Y161.027 F15000.000
G1 X144.896 Y153.862 F1440.000 E7.16034
G1 X145.187 Y153.463 F15000.000
G1 X152.061 Y160.337 F1440.000 E7.66426
G1 X152.061 Y159.649 F15000.000
G1 X145.476 Y153.064 F1440.000 E8.14694
G1 X145.476 Y152.374 F15000.000
G1 X152.061 Y158.960 F1440.000 E8.62968
G1 X152.061 Y158.271 F15000.000
G1 X137.727 Y143.937 F1440.000 E9.68035
G1 X138.416 Y143.937 F15000.000
G1 X152.061 Y157.582 F1440.000 E10.68053
G1 X152.061 Y156.894 F15000.000
G1 X139.105 Y143.937 F1440.000 E11.63023
G1 X139.794 Y143.937 F15000.000
G1 X152.061 Y156.205 F1440.000 E12.52943
G1 X152.061 Y155.516 F15000.000
G1 X140.483 Y143.937 F1440.000 E13.37814
G1 X141.171 Y143.937 F15000.000
G1 X152.061 Y154.827 F1440.000 E14.17637
G1 X152.061 Y154.139 F15000.000
G1 X141.860 Y143.937 F1440.000 E14.92410
G1 X142.549 Y143.938 F15000.000
G1 X152.061 Y153.450 F1440.000 E15.62135
G1 X152.061 Y152.761 F15000.000
G1 X143.238 Y143.938 F1440.000 E16.26811
G1 X143.926 Y143.938 F15000.000
G1 X152.061 Y152.072 F1440.000 E16.86438
G1 X152.061 Y151.384 F15000.000
G1 X144.615 Y143.938 F1440.000 E17.41016
G1 X145.304 Y143.938 F15000.000
G1 X152.061 Y150.695 F1440.000 E17.90545
G1 X152.061 Y150.006 F15000.000
G1 X145.993 Y143.938 F1440.000 E18.35025
G1 X146.681 Y143.938 F15000.000
G1 X152.061 Y149.317 F1440.000 E18.74457
G1 X152.061 Y148.628 F15000.000
G1 X147.370 Y143.938 F1440.000 E19.08839
G1 X148.060 Y143.937 F15000.000
G1 X152.061 Y147.939 F1440.000 E19.38173
G1 X152.061 Y147.250 F15000.000
G1 X148.748 Y143.937 F1440.000 E19.62457
G1 X149.437 Y143.937 F15000.000
G1 X152.061 Y146.561 F1440.000 E19.81693
G1 X152.061 Y145.873 F15000.000
G1 X150.126 Y143.937 F1440.000 E19.95880
G1 X150.815 Y143.937 F15000.000
G1 X152.061 Y145.184 F1440.000 E20.05018
G1 X152.061 Y144.495 F15000.000
G1 X151.503 Y143.937 F1440.000 E20.09107
G1 F6000.000 E17.09107
G92 E0
G1 X143.689 Y150.588 F15000.000
G1 F6000.000 E3.00000
G1 X137.039 Y143.937 F1440.000 E3.48748
G1 X136.350 Y143.937 F15000.000
G1 X143.169 Y150.757 F1440.000 E3.98733
G1 X142.649 Y150.925 F15000.000
G1 X135.661 Y143.937 F1440.000 E4.49957
G1 X134.972 Y143.938 F15000.000
G1 X142.129 Y151.095 F1440.000 E5.02419
G1 X141.609 Y151.264 F15000.000
G1 X134.283 Y143.938 F1440.000 E5.56120
G1 F6000.000 E2.56120
G92 E0
G1 X150.522 Y73.227 F15000.000
G1 F6000.000 E3.00000
G1 X151.183 Y73.013 F1440.000 E3.03580
G1 X151.591 Y73.575 E3.07159
G1 X151.183 Y74.137 E3.10739
G1 X150.522 Y73.922 E3.14319
