; generated by Slic3r 0.9.3 on 2013-04-30 at 20:35:11

; layer_height = 0.25
; perimeters = 2
; solid_layers = 2
; fill_density = 0.15
; perimeter_speed = 85
; infill_speed = 60
; travel_speed = 250
; scale = 1
; nozzle_diameter = 0.35
; filament_diameter = 1.7
; extrusion_multiplier = 1.0
; single wall width = 0.39mm

M104 S185 ; set temperature
;Standard Profile for Series 1. Single Extruder
M104 S185
M301 P24.72 I0.88 D231.1
G28
G1 X120 Y115 Z15 F10000
G92 E0
G1 Y5 Z15 F5000
M109 S185
G1 F100 E50
G92 E0
G1 X50 Z0.3 F10000
; do a little dance on a toothbrush to remove extrusions..  
G90 ; use absolute coordinates
G21 ; set units to millimeters
G92 E0
M82 ; use absolute distances for extrusion
M106 S255
G1 F6000.000 E-3.00000
G92 E0
G1 Z0.250 F15000.000
G1 X105.220 Y83.897
G1 F6000.000 E3.00000
G1 X105.400 Y83.707 F2040.000 E3.01109
G1 X105.790 Y83.347 E3.03359
G1 X106.210 Y83.027 E3.05597
G1 X106.650 Y82.737 E3.07831
G1 X107.110 Y82.487 E3.10050
G1 X107.600 Y82.277 E3.12310
G1 X108.100 Y82.107 E3.14548
G1 X108.610 Y81.977 E3.16779
G1 X109.130 Y81.887 E3.19016
G1 X109.390 Y81.857 E3.20126
G1 X109.920 Y81.837 E3.22374
G1 X150.590 Y81.857 E4.94764
G1 X151.110 Y81.927 E4.96988
G1 X151.630 Y82.037 E4.99241
G1 X152.130 Y82.187 E5.01454
G1 X152.630 Y82.377 E5.03721
G1 X153.100 Y82.607 E5.05939
G1 X153.550 Y82.877 E5.08163
G1 X153.770 Y83.027 E5.09292
G1 X154.190 Y83.347 E5.11530
G1 X154.580 Y83.707 E5.13780
G1 X154.940 Y84.097 E5.16029
G1 X155.260 Y84.517 E5.18268
G1 X155.550 Y84.957 E5.20501
G1 X155.800 Y85.417 E5.22720
G1 X156.010 Y85.907 E5.24980
G1 X156.180 Y86.407 E5.27219
G1 X156.310 Y86.917 E5.29450
G1 X156.400 Y87.437 E5.31686
G1 X156.430 Y87.697 E5.32796
G1 X156.430 Y142.287 E7.64189
G1 X156.360 Y142.807 E7.66413
G1 X156.250 Y143.327 E7.68666
G1 X156.100 Y143.827 E7.70879
G1 X155.910 Y144.327 E7.73146
G1 X155.680 Y144.797 E7.75364
G1 X155.410 Y145.247 E7.77589
G1 X155.260 Y145.467 E7.78717
G1 X154.940 Y145.887 E7.80956
G1 X154.580 Y146.277 E7.83205
G1 X154.190 Y146.637 E7.85455
G1 X153.770 Y146.957 E7.87693
G1 X153.330 Y147.247 E7.89927
G1 X152.870 Y147.497 E7.92146
G1 X152.380 Y147.707 E7.94406
G1 X151.880 Y147.877 E7.96644
G1 X151.370 Y148.007 E7.98875
G1 X150.850 Y148.097 E8.01112
G1 X150.590 Y148.127 E8.02221
G1 X150.060 Y148.147 E8.04470
G1 X109.390 Y148.127 E9.76860
G1 X108.870 Y148.057 E9.79084
G1 X108.350 Y147.947 E9.81337
G1 X107.850 Y147.797 E9.83549
G1 X107.350 Y147.607 E9.85817
G1 X106.880 Y147.377 E9.88035
G1 X106.430 Y147.107 E9.90259
G1 X106.210 Y146.957 E9.91388
G1 X105.790 Y146.637 E9.93626
G1 X105.400 Y146.277 E9.95876
G1 X105.040 Y145.887 E9.98125
G1 X104.720 Y145.467 E10.00363
G1 X104.430 Y145.027 E10.02597
G1 X104.180 Y144.567 E10.04816
G1 X103.970 Y144.077 E10.07076
G1 X103.800 Y143.577 E10.09315
G1 X103.670 Y143.067 E10.11545
G1 X103.580 Y142.547 E10.13782
G1 X103.550 Y142.287 E10.14892
G1 X103.550 Y87.697 E12.46285
G1 X103.620 Y87.177 E12.48509
G1 X103.730 Y86.657 E12.50762
G1 X103.880 Y86.157 E12.52975
G1 X104.070 Y85.657 E12.55242
G1 X104.300 Y85.187 E12.57460
G1 X104.570 Y84.737 E12.59685
G1 X104.720 Y84.517 E12.60813
G1 X104.964 Y84.197 E12.62520
G1 F6000.000 E9.62520
G92 E0
G1 X114.113 Y95.341 F15000.000
G1 F6000.000 E3.00000
G1 X116.131 Y93.732 F1440.000 E3.13296
G1 X118.646 Y94.306 E3.26589
G1 X119.766 Y96.631 E3.39884
G1 X118.646 Y98.956 E3.53180
G1 X116.131 Y99.530 E3.66473
G1 X114.113 Y97.921 E3.79769
G1 X114.113 Y95.735 E3.91036
G1 X114.597 Y95.574 F15000.000
G1 X116.250 Y94.255 F1440.000 E4.01930
G1 X118.311 Y94.726 E4.12821
G1 X119.228 Y96.631 E4.23716
G1 X118.311 Y98.536 E4.34610
G1 X116.250 Y99.007 E4.45501
G1 X114.597 Y97.688 E4.56396
G1 X114.597 Y95.968 E4.65261
G1 F6000.000 E1.65261
G92 E0
G1 X122.918 Y95.341 F15000.000
G1 F6000.000 E3.00000
G1 X124.936 Y93.732 F1440.000 E3.13296
G1 X127.451 Y94.306 E3.26589
G1 X128.571 Y96.631 E3.39884
G1 X127.451 Y98.956 E3.53180
G1 X124.936 Y99.530 E3.66473
G1 X122.918 Y97.921 E3.79769
G1 X122.918 Y95.735 E3.91035
G1 X123.402 Y95.574 F15000.000
G1 X125.055 Y94.255 F1440.000 E4.01930
G1 X127.116 Y94.726 E4.12821
G1 X128.033 Y96.631 E4.23716
G1 X127.116 Y98.536 E4.34610
G1 X125.055 Y99.007 E4.45501
G1 X123.402 Y97.688 E4.56396
G1 X123.402 Y95.968 E4.65261
G1 F6000.000 E1.65261
G92 E0
G1 X124.936 Y112.101 F15000.000
G1 F6000.000 E3.00000
G1 X127.451 Y112.675 F1440.000 E3.13292
G1 X128.571 Y115.000 E3.26588
G1 X127.451 Y117.325 E3.39884
G1 X124.936 Y117.899 E3.53176
G1 X122.918 Y116.290 E3.66473
G1 X122.918 Y113.710 E3.79771
G1 X124.627 Y112.347 E3.91035
G1 X125.055 Y112.624 F15000.000
G1 X127.116 Y113.095 F1440.000 E4.01927
G1 X128.033 Y115.000 E4.12821
G1 X127.116 Y116.905 E4.23715
G1 X125.055 Y117.376 E4.34607
G1 X123.402 Y116.057 E4.45501
G1 X123.402 Y113.943 E4.56398
G1 X124.747 Y112.870 E4.65261
G1 F6000.000 E1.65261
G92 E0
G1 X119.766 Y115.000 F15000.000
G1 F6000.000 E3.00000
G1 X118.646 Y117.325 F1440.000 E3.13296
G1 X116.131 Y117.899 E3.26588
G1 X114.113 Y116.290 E3.39884
G1 X114.113 Y113.710 E3.53183
G1 X116.131 Y112.101 E3.66479
G1 X118.646 Y112.675 E3.79772
G1 X119.594 Y114.645 E3.91036
G1 X119.228 Y115.000 F15000.000
G1 X118.311 Y116.905 F1440.000 E4.01930
G1 X116.250 Y117.376 E4.12821
G1 X114.597 Y116.057 E4.23716
G1 X114.597 Y113.943 E4.34613
G1 X116.250 Y112.624 E4.45507
G1 X118.311 Y113.095 E4.56398
G1 X119.057 Y114.645 E4.65261
G1 F6000.000 E1.65261
G92 E0
G1 X116.131 Y130.470 F15000.000
G1 F6000.000 E3.00000
G1 X118.646 Y131.044 F1440.000 E3.13293
G1 X119.766 Y133.369 E3.26588
G1 X118.646 Y135.694 E3.39884
G1 X116.131 Y136.268 E3.53176
G1 X114.113 Y134.659 E3.66473
G1 X114.113 Y132.079 E3.79771
G1 X115.822 Y130.716 E3.91036
G1 X116.250 Y130.993 F15000.000
G1 X118.311 Y131.464 F1440.000 E4.01927
G1 X119.228 Y133.369 E4.12821
G1 X118.311 Y135.274 E4.23715
G1 X116.250 Y135.745 E4.34607
G1 X114.597 Y134.426 E4.45501
G1 X114.597 Y132.312 E4.56398
G1 X115.942 Y131.239 E4.65261
G1 F6000.000 E1.65261
G92 E0
G1 X122.918 Y132.079 F15000.000
G1 F6000.000 E3.00000
G1 X124.936 Y130.470 F1440.000 E3.13296
G1 X127.451 Y131.044 E3.26589
G1 X128.571 Y133.369 E3.39884
G1 X127.451 Y135.694 E3.53180
G1 X124.936 Y136.268 E3.66473
G1 X122.918 Y134.659 E3.79769
G1 X122.918 Y132.473 E3.91035
G1 X123.402 Y132.312 F15000.000
G1 X125.055 Y130.993 F1440.000 E4.01930
G1 X127.116 Y131.464 E4.12821
G1 X128.033 Y133.369 E4.23716
G1 X127.116 Y135.274 E4.34610
G1 X125.055 Y135.745 E4.45501
G1 X123.402 Y134.426 E4.56396
G1 X123.402 Y132.706 E4.65261
G1 F6000.000 E1.65261
G92 E0
G1 X110.414 Y88.721 F15000.000
G1 F6000.000 E3.00000
G1 X149.586 Y88.721 F2040.000 E5.01836
G1 X149.586 Y101.979 E5.70150
G1 X148.120 Y101.979 E5.77704
G1 X148.505 Y100.713 E5.84524
G1 X147.919 Y98.785 E5.94908
G1 X147.919 Y98.785 E5.94908
G1 X147.840 Y98.526 E5.96302
G1 X146.072 Y97.046 E6.08182
G1 X143.772 Y96.727 E6.20145
G1 X143.221 Y96.970 E6.23248
G1 X141.471 Y96.727 E6.32354
G1 X139.352 Y97.661 E6.44285
G1 X138.081 Y99.571 E6.56107
G1 X138.081 Y101.979 E6.68513
G1 X134.130 Y101.979 E6.88871
G1 X134.130 Y128.021 E8.23053
G1 X138.081 Y128.021 E8.43411
G1 X138.081 Y130.429 E8.55817
G1 X139.352 Y132.339 E8.67639
G1 X141.471 Y133.273 E8.79571
G1 X142.361 Y133.150 E8.84200
G1 X142.635 Y133.275 E8.85752
G1 X143.495 Y133.151 E8.90231
G1 X143.772 Y133.273 E8.91791
G1 X146.072 Y132.954 E9.03754
G1 X147.840 Y131.474 E9.15634
G1 X148.505 Y129.287 E9.27412
G1 X148.120 Y128.021 E9.34232
G1 X149.586 Y128.021 E9.41787
G1 X149.586 Y141.279 E10.10100
G1 X110.414 Y141.279 E12.11936
G1 X110.414 Y89.115 E14.80713
G1 X109.930 Y88.237 F15000.000
G1 X150.070 Y88.237 F2040.000 E16.87536
G1 X150.070 Y102.463 E17.60836
G1 X147.467 Y102.463 E17.74248
G1 X147.999 Y100.713 E17.83673
G1 X147.419 Y98.804 E17.93951
G1 X145.868 Y97.506 E18.04373
G1 X143.842 Y97.225 E18.14912
G1 X143.291 Y97.468 E18.18015
G1 X141.540 Y97.225 E18.27121
G1 X139.677 Y98.047 E18.37616
G1 X138.565 Y99.718 E18.47957
G1 X138.565 Y101.708 E18.58211
G1 X138.975 Y102.324 E18.62023
G1 X138.900 Y102.463 E18.62837
G1 X134.614 Y102.463 E18.84922
G1 X134.614 Y127.537 E20.14117
G1 X138.900 Y127.537 E20.36202
G1 X138.975 Y127.676 E20.37016
G1 X138.565 Y128.292 E20.40827
G1 X138.565 Y130.282 E20.51082
G1 X139.677 Y131.953 E20.61423
G1 X141.540 Y132.775 E20.71918
G1 X142.434 Y132.651 E20.76564
G1 X142.706 Y132.776 E20.78109
G1 X143.564 Y132.653 E20.82572
G1 X143.842 Y132.775 E20.84138
G1 X145.868 Y132.494 E20.94678
G1 X146.208 Y132.210 E20.96961
G1 X146.208 Y132.210 E20.96961
G1 X147.419 Y131.196 E21.05100
G1 X147.999 Y129.287 E21.15377
G1 X147.467 Y127.537 E21.24803
G1 X150.070 Y127.537 E21.38215
G1 X150.070 Y141.763 E22.11515
G1 X109.930 Y141.763 E24.18338
G1 X109.930 Y88.631 E26.92101
G1 X110.619 Y89.107 F15000.000
G1 X115.572 Y94.060 F1440.000 E27.28246
G1 X115.190 Y94.364 F15000.000
G1 X110.619 Y89.793 F1440.000 E27.61608
G1 X110.619 Y90.478 F15000.000
G1 X114.809 Y94.668 F1440.000 E27.92187
G1 X114.428 Y94.972 F15000.000
G1 X110.619 Y91.163 F1440.000 E28.19982
G1 X110.619 Y91.849 F15000.000
G1 X114.046 Y95.276 F1440.000 E28.44994
G1 X113.908 Y95.823 F15000.000
G1 X110.619 Y92.534 F1440.000 E28.68998
G1 X110.619 Y93.220 F15000.000
G1 X113.908 Y96.509 F1440.000 E28.93001
G1 X113.908 Y97.194 F15000.000
G1 X110.619 Y93.905 F1440.000 E29.17005
G1 X110.619 Y94.591 F15000.000
G1 X113.908 Y97.880 F1440.000 E29.41009
G1 F6000.000 E26.41009
G92 E0
G1 X115.790 Y99.762 F15000.000
G1 F6000.000 E3.00000
G1 X133.925 Y117.897 F1440.000 E4.32342
G1 X133.925 Y118.582 F15000.000
G1 X127.681 Y112.338 F1440.000 E4.77909
G1 X126.933 Y112.276 E4.81782
G1 X110.619 Y95.961 E6.00838
G1 X110.619 Y95.276 F15000.000
G1 X127.822 Y112.479 F1440.000 E7.26377
G1 F6000.000 E4.26377
G92 E0
G1 X128.562 Y115.275 F15000.000
G1 F6000.000 E3.00000
G1 X133.925 Y120.638 F1440.000 E3.39140
G1 X133.925 Y119.954 F15000.000
G1 X128.784 Y114.813 F1440.000 E3.76653
G1 X128.318 Y113.661 E3.83068
G1 X133.925 Y119.268 E4.23987
G1 F6000.000 E1.23987
G92 E0
G1 X133.925 Y117.211 F15000.000
G1 F6000.000 E3.00000
G1 X116.348 Y99.634 F1440.000 E4.28271
G1 X116.906 Y99.507 F15000.000
G1 X133.925 Y116.526 F1440.000 E5.52469
G1 X133.926 Y115.840 F15000.000
G1 X117.464 Y99.379 F1440.000 E6.72596
G1 X118.022 Y99.252 F15000.000
G1 X133.925 Y115.155 F1440.000 E7.88650
G1 X133.925 Y114.470 F15000.000
G1 X118.580 Y99.124 F1440.000 E9.00632
G1 X118.876 Y98.735 F15000.000
G1 X133.925 Y113.784 F1440.000 E10.10454
G1 X133.925 Y113.099 F15000.000
G1 X119.099 Y98.273 F1440.000 E11.18650
G1 X119.322 Y97.810 F15000.000
G1 X133.925 Y112.413 F1440.000 E12.25220
G1 X133.925 Y111.728 F15000.000
G1 X119.545 Y97.347 F1440.000 E13.30164
G1 X119.767 Y96.885 F15000.000
G1 X133.925 Y111.043 F1440.000 E14.33483
G1 X133.925 Y110.357 F15000.000
G1 X119.990 Y96.422 F1440.000 E15.35174
G1 F6000.000 E12.35174
G92 E0
G1 X122.713 Y96.403 F15000.000
G1 F6000.000 E3.00000
G1 X115.236 Y88.926 F1440.000 E3.54565
G1 X115.921 Y88.926 F15000.000
G1 X122.713 Y95.718 F1440.000 E4.04128
G1 X122.910 Y95.229 F15000.000
G1 X116.607 Y88.926 F1440.000 E4.50128
G1 X117.292 Y88.926 F15000.000
G1 X123.292 Y94.925 F1440.000 E4.93908
G1 X123.673 Y94.621 F15000.000
G1 X117.978 Y88.926 F1440.000 E5.35469
G1 X118.663 Y88.926 F15000.000
G1 X124.054 Y94.317 F1440.000 E5.74812
G1 X124.436 Y94.013 F15000.000
G1 X119.349 Y88.926 F1440.000 E6.11935
G1 X120.034 Y88.926 F15000.000
G1 X124.817 Y93.709 F1440.000 E6.46840
G1 F6000.000 E3.46840
G92 E0
G1 X122.713 Y97.089 F15000.000
G1 F6000.000 E3.00000
G1 X114.550 Y88.926 F1440.000 E3.59568
G1 X113.865 Y88.926 F15000.000
G1 X119.058 Y94.120 F1440.000 E3.97468
G1 X119.483 Y95.229 E4.03597
G1 X133.925 Y109.671 E5.08991
G1 X133.925 Y108.986 F15000.000
G1 X124.681 Y99.742 F1440.000 E5.76449
G1 X125.239 Y99.615 F15000.000
G1 X133.925 Y108.301 F1440.000 E6.39835
G1 X133.925 Y107.615 F15000.000
G1 X125.797 Y99.487 F1440.000 E6.99149
G1 X126.355 Y99.360 F15000.000
G1 X133.925 Y106.930 F1440.000 E7.54391
G1 X133.925 Y106.244 F15000.000
G1 X126.913 Y99.232 F1440.000 E8.05560
G1 X127.471 Y99.105 F15000.000
G1 X133.925 Y105.559 F1440.000 E8.52657
G1 X133.925 Y104.873 F15000.000
G1 X127.716 Y98.663 F1440.000 E8.97973
G1 X127.938 Y98.201 F15000.000
G1 X133.925 Y104.188 F1440.000 E9.41663
G1 X133.925 Y103.502 F15000.000
G1 X128.161 Y97.738 F1440.000 E9.83726
G1 X128.384 Y97.275 F15000.000
G1 X133.925 Y102.817 F1440.000 E10.24163
G1 X133.925 Y102.132 F15000.000
G1 X128.607 Y96.813 F1440.000 E10.62975
G1 X128.826 Y96.347 F15000.000
G1 X134.253 Y101.774 F1440.000 E11.02580
G1 X134.939 Y101.774 F15000.000
G1 X128.190 Y95.024 F1440.000 E11.51835
G1 X128.001 Y94.151 E11.56446
G1 X122.776 Y88.926 E11.94575
G1 X122.091 Y88.926 F15000.000
G1 X127.113 Y93.948 F1440.000 E12.31224
G1 X127.552 Y93.703 E12.33820
G1 X135.624 Y101.774 E12.92725
G1 X136.310 Y101.774 F15000.000
G1 X123.461 Y88.926 F1440.000 E13.86487
G1 X124.147 Y88.926 F15000.000
G1 X136.995 Y101.774 F1440.000 E14.80248
G1 X137.680 Y101.774 F15000.000
G1 X124.832 Y88.926 F1440.000 E15.74010
G1 X125.518 Y88.926 F15000.000
G1 X137.876 Y101.284 F1440.000 E16.64196
G1 X137.876 Y100.599 F15000.000
G1 X126.203 Y88.926 F1440.000 E17.49380
G1 X126.889 Y88.925 F15000.000
G1 X137.877 Y99.913 F1440.000 E18.29563
G1 X138.066 Y99.418 F15000.000
G1 X127.574 Y88.926 F1440.000 E19.06131
G1 X128.260 Y88.926 F15000.000
G1 X138.340 Y99.006 F1440.000 E19.79696
G1 X138.614 Y98.595 F15000.000
G1 X128.945 Y88.926 F1440.000 E20.50256
G1 X129.630 Y88.926 F15000.000
G1 X138.888 Y98.184 F1440.000 E21.17813
G1 X139.162 Y97.772 F15000.000
G1 X130.316 Y88.926 F1440.000 E21.82367
G1 X131.002 Y88.926 F15000.000
G1 X139.531 Y97.455 F1440.000 E22.44612
G1 X140.006 Y97.246 F15000.000
G1 X131.687 Y88.926 F1440.000 E23.05325
G1 X132.372 Y88.926 F15000.000
G1 X140.482 Y97.036 F1440.000 E23.64507
G1 X140.958 Y96.826 F15000.000
G1 X133.058 Y88.926 F1440.000 E24.22158
G1 X133.743 Y88.926 F15000.000
G1 X141.433 Y96.616 F1440.000 E24.78278
G1 F6000.000 E21.78278
G92 E0
G1 X143.565 Y96.691 F15000.000
G1 F6000.000 E3.00000
G1 X135.800 Y88.925 F1440.000 E3.56668
G1 X136.485 Y88.926 F15000.000
G1 X144.080 Y96.521 F1440.000 E4.12094
G1 F6000.000 E1.12094
G92 E0
G1 X146.468 Y96.853 F15000.000
G1 F6000.000 E3.00000
G1 X138.541 Y88.926 F1440.000 E3.57846
G1 X137.856 Y88.926 F15000.000
G1 X145.673 Y96.742 F1440.000 E4.14886
G1 X144.876 Y96.631 E4.19034
G1 X137.171 Y88.926 E4.75267
G1 F6000.000 E1.75267
G92 E0
G1 X135.114 Y88.926 F15000.000
G1 F6000.000 E3.00000
G1 X142.859 Y96.671 F1440.000 E3.56521
G1 X142.063 Y96.561 E3.60668
G1 X134.429 Y88.926 E4.16382
G1 F6000.000 E1.16382
G92 E0
G1 X139.227 Y88.926 F15000.000
G1 F6000.000 E3.00000
G1 X149.381 Y99.080 F1440.000 E3.74101
G1 X149.381 Y98.394 F15000.000
G1 X139.913 Y88.926 F1440.000 E4.43199
G1 X140.598 Y88.926 F15000.000
G1 X149.381 Y97.709 F1440.000 E5.07295
G1 X149.381 Y97.024 F15000.000
G1 X141.283 Y88.926 F1440.000 E5.66390
G1 X141.969 Y88.926 F15000.000
G1 X149.381 Y96.338 F1440.000 E6.20482
G1 X149.381 Y95.653 F15000.000
G1 X142.654 Y88.926 F1440.000 E6.69572
G1 X143.340 Y88.926 F15000.000
G1 X149.381 Y94.967 F1440.000 E7.13659
G1 X149.381 Y94.282 F15000.000
G1 X144.025 Y88.926 F1440.000 E7.52745
G1 X144.711 Y88.925 F15000.000
G1 X149.381 Y93.596 F1440.000 E7.86829
G1 X149.381 Y92.911 F15000.000
G1 X145.396 Y88.926 F1440.000 E8.15910
G1 X146.082 Y88.926 F15000.000
G1 X149.381 Y92.225 F1440.000 E8.39989
G1 X149.381 Y91.540 F15000.000
G1 X146.767 Y88.926 F1440.000 E8.59066
G1 X147.452 Y88.926 F15000.000
G1 X149.381 Y90.855 F1440.000 E8.73140
G1 X149.381 Y90.169 F15000.000
G1 X148.138 Y88.926 F1440.000 E8.82213
G1 F6000.000 E5.82213
G92 E0
G1 X148.156 Y98.541 F15000.000
G1 F6000.000 E3.00000
G1 X149.381 Y99.766 F1440.000 E3.08940
G1 X149.061 Y100.130 F15000.000
G1 X148.456 Y99.525 F1440.000 E3.13354
G1 F6000.000 E0.13354
G92 E0
G1 X122.713 Y97.774 F15000.000
G1 F6000.000 E3.00000
G1 X118.846 Y93.907 F1440.000 E3.28222
G1 X118.170 Y93.916 E3.31706
G1 X113.180 Y88.926 E3.68126
G1 X112.494 Y88.926 F15000.000
G1 X117.282 Y93.714 F1440.000 E4.03065
G1 X116.393 Y93.511 E4.07767
G1 X111.808 Y88.926 E4.41226
G1 X111.123 Y88.926 F15000.000
