; generated by Slic3r 0.9.3 on 2013-04-30 at 18:28:07

; layer_height = 0.25
; perimeters = 2
; solid_layers = 2
; fill_density = 0.15
; perimeter_speed = 85
; infill_speed = 60
; travel_speed = 250
; scale = 1
; nozzle_diameter = 0.35
; filament_diameter = 1.7
; extrusion_multiplier = 1.0
; single wall width = 0.39mm

M104 S185 ; set temperature
;Standard Profile for Series 1. Single Extruder
M104 S185
M301 P24.72 I0.88 D231.1
G28
G1 X120 Y115 Z15 F10000
G92 E0
G1 Y5 Z15 F5000
M109 S185
G1 F100 E50
G92 E0
G1 X50 Z0.3 F10000
; do a little dance on a toothbrush to remove extrusions..  
G90 ; use absolute coordinates
G21 ; set units to millimeters
G92 E0
M82 ; use absolute distances for extrusion
M106 S255
G1 F6000.000 E-3.00000
G92 E0
G1 Z0.250 F15000.000
G1 X105.220 Y83.897
G1 F6000.000 E3.00000
G1 X105.400 Y83.707 F2040.000 E3.01109
G1 X105.790 Y83.347 E3.03359
G1 X106.210 Y83.027 E3.05597
G1 X106.650 Y82.737 E3.07831
G1 X107.110 Y82.487 E3.10050
G1 X107.600 Y82.277 E3.12310
G1 X108.100 Y82.107 E3.14548
G1 X108.610 Y81.977 E3.16779
G1 X109.130 Y81.887 E3.19016
G1 X109.390 Y81.857 E3.20126
G1 X109.920 Y81.837 E3.22374
G1 X150.590 Y81.857 E4.94764
G1 X151.110 Y81.927 E4.96988
G1 X151.630 Y82.037 E4.99241
G1 X152.130 Y82.187 E5.01454
G1 X152.630 Y82.377 E5.03721
G1 X153.100 Y82.607 E5.05939
G1 X153.550 Y82.877 E5.08163
G1 X153.770 Y83.027 E5.09292
G1 X154.190 Y83.347 E5.11530
G1 X154.580 Y83.707 E5.13780
G1 X154.940 Y84.097 E5.16029
G1 X155.260 Y84.517 E5.18268
G1 X155.550 Y84.957 E5.20501
G1 X155.800 Y85.417 E5.22720
G1 X156.010 Y85.907 E5.24980
G1 X156.180 Y86.407 E5.27219
G1 X156.310 Y86.917 E5.29450
G1 X156.400 Y87.437 E5.31686
G1 X156.430 Y87.697 E5.32796
G1 X156.430 Y142.287 E7.64189
G1 X156.360 Y142.807 E7.66413
G1 X156.250 Y143.327 E7.68666
G1 X156.100 Y143.827 E7.70879
G1 X155.910 Y144.327 E7.73146
G1 X155.680 Y144.797 E7.75364
G1 X155.410 Y145.247 E7.77589
G1 X155.260 Y145.467 E7.78717
G1 X154.940 Y145.887 E7.80956
G1 X154.580 Y146.277 E7.83205
G1 X154.190 Y146.637 E7.85455
G1 X153.770 Y146.957 E7.87693
G1 X153.330 Y147.247 E7.89927
G1 X152.870 Y147.497 E7.92146
G1 X152.380 Y147.707 E7.94406
G1 X151.880 Y147.877 E7.96644
G1 X151.370 Y148.007 E7.98875
G1 X150.850 Y148.097 E8.01112
G1 X150.590 Y148.127 E8.02221
G1 X150.060 Y148.147 E8.04470
G1 X109.390 Y148.127 E9.76860
G1 X108.870 Y148.057 E9.79084
G1 X108.350 Y147.947 E9.81337
G1 X107.850 Y147.797 E9.83549
G1 X107.350 Y147.607 E9.85817
G1 X106.880 Y147.377 E9.88035
G1 X106.430 Y147.107 E9.90259
G1 X106.210 Y146.957 E9.91388
G1 X105.790 Y146.637 E9.93626
G1 X105.400 Y146.277 E9.95876
G1 X105.040 Y145.887 E9.98125
G1 X104.720 Y145.467 E10.00363
G1 X104.430 Y145.027 E10.02597
G1 X104.180 Y144.567 E10.04816
G1 X103.970 Y144.077 E10.07076
G1 X103.800 Y143.577 E10.09315
G1 X103.670 Y143.067 E10.11545
G1 X103.580 Y142.547 E10.13782
G1 X103.550 Y142.287 E10.14892
G1 X103.550 Y87.697 E12.46285
G1 X103.620 Y87.177 E12.48509
G1 X103.730 Y86.657 E12.50762
G1 X103.880 Y86.157 E12.52975
G1 X104.070 Y85.657 E12.55242
G1 X104.300 Y85.187 E12.57460
G1 X104.570 Y84.737 E12.59685
G1 X104.720 Y84.517 E12.60813
G1 X104.964 Y84.197 E12.62520
G1 F6000.000 E9.62520
G92 E0
G1 X114.113 Y95.341 F15000.000
G1 F6000.000 E3.00000
G1 X116.131 Y93.732 F1440.000 E3.13296
G1 X118.646 Y94.306 E3.26589
G1 X119.766 Y96.631 E3.39884
G1 X118.646 Y98.956 E3.53180
G1 X116.131 Y99.530 E3.66473
G1 X114.113 Y97.921 E3.79769
G1 X114.113 Y95.735 E3.91036
G1 X114.597 Y95.574 F15000.000
G1 X116.250 Y94.255 F1440.000 E4.01930
G1 X118.311 Y94.726 E4.12821
G1 X119.228 Y96.631 E4.23716
G1 X118.311 Y98.536 E4.34610
G1 X116.250 Y99.007 E4.45501
G1 X114.597 Y97.688 E4.56396
G1 X114.597 Y95.968 E4.65261
G1 F6000.000 E1.65261
G92 E0
G1 X122.918 Y95.341 F15000.000
G1 F6000.000 E3.00000
G1 X124.936 Y93.732 F1440.000 E3.13296
G1 X127.451 Y94.306 E3.26589
G1 X128.571 Y96.631 E3.39884
G1 X127.451 Y98.956 E3.53180
G1 X124.936 Y99.530 E3.66473
G1 X122.918 Y97.921 E3.79769
G1 X122.918 Y95.735 E3.91035
G1 X123.402 Y95.574 F15000.000
G1 X125.055 Y94.255 F1440.000 E4.01930
G1 X127.116 Y94.726 E4.12821
G1 X128.033 Y96.631 E4.23716
G1 X127.116 Y98.536 E4.34610
G1 X125.055 Y99.007 E4.45501
G1 X123.402 Y97.688 E4.56396
G1 X123.402 Y95.968 E4.65261
G1 F6000.000 E1.65261
G92 E0
G1 X124.936 Y112.101 F15000.000
G1 F6000.000 E3.00000
G1 X127.451 Y112.675 F1440.000 E3.13292
G1 X128.571 Y115.000 E3.26588
G1 X127.451 Y117.325 E3.39884
G1 X124.936 Y117.899 E3.53176
G1 X122.918 Y116.290 E3.66473
G1 X122.918 Y113.710 E3.79771
G1 X124.627 Y112.347 E3.91035
G1 X125.055 Y112.624 F15000.000
G1 X127.116 Y113.095 F1440.000 E4.01927
G1 X128.033 Y115.000 E4.12821
G1 X127.116 Y116.905 E4.23715
G1 X125.055 Y117.376 E4.34607
G1 X123.402 Y116.057 E4.45501
G1 X123.402 Y113.943 E4.56398
G1 X124.747 Y112.870 E4.65261
G1 F6000.000 E1.65261
G92 E0
G1 X119.766 Y115.000 F15000.000
G1 F6000.000 E3.00000
G1 X118.646 Y117.325 F1440.000 E3.13296
G1 X116.131 Y117.899 E3.26588
G1 X114.113 Y116.290 E3.39884
G1 X114.113 Y113.710 E3.53183
G1 X116.131 Y112.101 E3.66479
G1 X118.646 Y112.675 E3.79772
G1 X119.594 Y114.645 E3.91036
G1 X119.228 Y115.000 F15000.000
G1 X118.311 Y116.905 F1440.000 E4.01930
G1 X116.250 Y117.376 E4.12821
G1 X114.597 Y116.057 E4.23716
G1 X114.597 Y113.943 E4.34613
G1 X116.250 Y112.624 E4.45507
G1 X118.311 Y113.095 E4.56398
G1 X119.057 Y114.645 E4.65261
G1 F6000.000 E1.65261
G92 E0
G1 X116.131 Y130.470 F15000.000
G1 F6000.000 E3.00000
G1 X118.646 Y131.044 F1440.000 E3.13292
G1 X119.766 Y133.369 E3.26588
G1 X118.646 Y135.694 E3.39884
G1 X116.131 Y136.268 E3.53176
G1 X114.113 Y134.659 E3.66473
G1 X114.113 Y132.079 E3.79771
G1 X115.822 Y130.716 E3.91036
G1 X116.250 Y130.993 F15000.000
G1 X118.311 Y131.464 F1440.000 E4.01927
G1 X119.228 Y133.369 E4.12821
G1 X118.311 Y135.274 E4.23715
G1 X116.250 Y135.745 E4.34607
G1 X114.597 Y134.426 E4.45501
G1 X114.597 Y132.312 E4.56398
G1 X115.942 Y131.239 E4.65261
G1 F6000.000 E1.65261
G92 E0
G1 X122.918 Y132.079 F15000.000
G1 F6000.000 E3.00000
G1 X124.936 Y130.470 F1440.000 E3.13296
G1 X127.451 Y131.044 E3.26589
G1 X128.571 Y133.369 E3.39884
G1 X127.451 Y135.694 E3.53180
G1 X124.936 Y136.268 E3.66473
G1 X122.918 Y134.659 E3.79769
G1 X122.918 Y132.473 E3.91036
G1 X123.402 Y132.312 F15000.000
G1 X125.055 Y130.993 F1440.000 E4.01930
G1 X127.116 Y131.464 E4.12821
G1 X128.033 Y133.369 E4.23716
G1 X127.116 Y135.274 E4.34610
G1 X125.055 Y135.745 E4.45501
G1 X123.402 Y134.426 E4.56396
G1 X123.402 Y132.706 E4.65261
G1 F6000.000 E1.65261
G92 E0
G1 X149.586 Y141.279 F15000.000
G1 F6000.000 E3.00000
G1 X110.414 Y141.279 F2040.000 E5.01836
G1 X110.414 Y88.721 E7.72645
G1 X149.586 Y88.721 E9.74481
G1 X149.586 Y101.979 E10.42794
G1 X146.865 Y101.979 E10.56813
G1 X147.237 Y100.713 E10.63612
G1 X146.597 Y98.534 E10.75311
G1 X144.882 Y97.048 E10.87007
G1 X142.634 Y96.725 E10.98707
G1 X140.570 Y97.668 E11.10399
G1 X139.342 Y99.577 E11.22097
G1 X139.342 Y101.979 E11.34472
G1 X134.130 Y101.979 E11.61327
G1 X134.130 Y128.021 E12.95508
G1 X139.342 Y128.021 E13.22363
G1 X139.342 Y130.423 E13.34738
G1 X140.570 Y132.332 E13.46436
G1 X142.634 Y133.275 E13.58128
G1 X144.882 Y132.952 E13.69828
G1 X146.597 Y131.466 E13.81524
G1 X147.237 Y129.287 E13.93223
G1 X146.865 Y128.021 E14.00021
G1 X149.586 Y128.021 E14.14040
G1 X149.586 Y140.885 E14.80322
G1 X150.070 Y141.763 F15000.000
G1 X109.930 Y141.763 F2040.000 E16.87145
G1 X109.930 Y88.237 E19.62940
G1 X150.070 Y88.237 E21.69763
G1 X150.070 Y102.463 E22.43063
G1 X146.219 Y102.463 E22.62906
G1 X146.733 Y100.713 E22.72303
G1 X146.173 Y98.807 E22.82537
G1 X144.672 Y97.507 E22.92769
G1 X142.706 Y97.224 E23.03005
G1 X140.900 Y98.049 E23.13233
G1 X139.826 Y99.720 E23.23467
G1 X139.826 Y101.706 E23.33704
G1 X140.225 Y102.327 E23.37508
G1 X140.151 Y102.463 E23.38305
G1 X134.614 Y102.463 E23.66837
G1 X134.614 Y127.537 E24.96031
G1 X140.151 Y127.537 E25.24563
G1 X140.225 Y127.673 E25.25360
G1 X139.826 Y128.294 E25.29164
G1 X139.826 Y130.280 E25.39401
G1 X140.900 Y131.951 E25.49635
G1 X142.706 Y132.776 E25.59863
G1 X144.672 Y132.493 E25.70099
G1 X146.173 Y131.193 E25.80331
G1 X146.733 Y129.287 E25.90565
G1 X146.219 Y127.537 E25.99962
G1 X150.070 Y127.537 E26.19805
G1 X150.070 Y141.369 E26.91073
G1 X149.381 Y140.893 F15000.000
G1 X141.731 Y133.243 F1440.000 E27.46898
G1 X142.621 Y133.447 F15000.000
G1 X149.381 Y140.207 F1440.000 E27.96234
G1 X149.381 Y139.522 F15000.000
G1 X143.220 Y133.361 F1440.000 E28.41197
G1 X143.819 Y133.274 F15000.000
G1 X149.381 Y138.837 F1440.000 E28.81787
G1 X149.381 Y138.151 F15000.000
G1 X144.419 Y133.188 F1440.000 E29.18004
G1 X144.938 Y133.023 F15000.000
G1 X149.381 Y137.466 F1440.000 E29.50428
G1 X149.381 Y136.780 F15000.000
G1 X145.305 Y132.704 F1440.000 E29.80172
G1 X145.673 Y132.386 F15000.000
G1 X149.381 Y136.094 F1440.000 E30.07234
G1 X149.381 Y135.410 F15000.000
G1 X146.040 Y132.068 F1440.000 E30.31617
G1 X146.407 Y131.750 F15000.000
G1 X149.381 Y134.724 F1440.000 E30.53318
G1 X149.381 Y134.038 F15000.000
G1 X146.756 Y131.413 F1440.000 E30.72474
G1 X146.911 Y130.884 F15000.000
G1 X149.381 Y133.353 F1440.000 E30.90494
G1 X149.381 Y132.667 F15000.000
G1 X147.067 Y130.354 F1440.000 E31.07379
G1 X147.223 Y129.824 F15000.000
G1 X149.381 Y131.982 F1440.000 E31.23130
G1 X149.381 Y131.296 F15000.000
G1 X147.379 Y129.293 F1440.000 E31.37745
G1 X147.331 Y128.561 F15000.000
G1 X149.381 Y130.611 F1440.000 E31.52707
G1 X149.381 Y129.926 F15000.000
G1 X147.681 Y128.226 F1440.000 E31.65111
G1 X148.367 Y128.226 F15000.000
G1 X149.381 Y129.240 F1440.000 E31.72513
G1 F6000.000 E28.72513
G92 E0
G1 X140.469 Y132.666 F15000.000
G1 F6000.000 E3.00000
G1 X148.877 Y141.074 F1440.000 E3.61357
G1 X148.191 Y141.074 F15000.000
G1 X135.343 Y128.226 F1440.000 E4.55118
G1 X134.658 Y128.226 F15000.000
G1 X147.506 Y141.074 F1440.000 E5.48880
G1 X146.821 Y141.074 F15000.000
G1 X133.972 Y128.226 F1440.000 E6.42642
G1 X133.925 Y128.179 F15000.000
G1 X119.611 Y113.865 F1440.000 E7.47098
G1 X118.974 Y112.543 E7.54672
G1 X122.713 Y116.281 E7.81955
G1 X122.713 Y115.596 F15000.000
G1 X110.619 Y103.502 F1440.000 E8.70215
G1 X110.619 Y102.816 F15000.000
G1 X122.713 Y114.910 F1440.000 E9.58474
G1 X122.713 Y114.225 F15000.000
G1 X110.619 Y102.131 F1440.000 E10.46733
G1 X110.619 Y101.445 F15000.000
G1 X122.833 Y113.660 F1440.000 E11.35869
G1 X123.215 Y113.355 F15000.000
G1 X110.619 Y100.760 F1440.000 E12.27788
G1 X110.619 Y100.074 F15000.000
G1 X123.596 Y113.051 F1440.000 E13.22490
G1 X123.978 Y112.747 F15000.000
G1 X110.619 Y99.388 F1440.000 E14.19975
G1 X110.619 Y98.704 F15000.000
G1 X124.359 Y112.444 F1440.000 E15.20244
G1 X124.740 Y112.139 F15000.000
G1 X110.619 Y98.018 F1440.000 E16.23296
G1 X110.619 Y97.332 F15000.000
G1 X125.157 Y111.870 F1440.000 E17.29387
G1 X126.045 Y112.073 E17.34087
G1 X110.619 Y96.647 E18.46660
G1 X110.619 Y95.961 F15000.000
G1 X126.933 Y112.276 F1440.000 E19.65716
G1 X127.681 Y112.338 E19.69589
G1 X133.925 Y118.582 E20.15156
G1 X133.925 Y117.897 F15000.000
G1 X115.790 Y99.762 F1440.000 E21.47499
G1 X116.348 Y99.634 F15000.000
G1 X133.925 Y117.211 F1440.000 E22.75769
G1 X133.925 Y116.526 F15000.000
G1 X116.906 Y99.507 F1440.000 E23.99968
G1 X117.464 Y99.379 F15000.000
G1 X133.926 Y115.840 F1440.000 E25.20094
G1 X133.925 Y115.155 F15000.000
G1 X118.022 Y99.252 F1440.000 E26.36148
G1 X118.580 Y99.124 F15000.000
G1 X133.925 Y114.470 F1440.000 E27.48130
G1 X133.925 Y113.784 F15000.000
G1 X118.876 Y98.735 F1440.000 E28.57953
G1 X119.099 Y98.273 F15000.000
G1 X133.925 Y113.099 F1440.000 E29.66149
G1 X133.925 Y112.413 F15000.000
G1 X119.322 Y97.810 F1440.000 E30.72719
G1 X119.545 Y97.347 F15000.000
G1 X133.925 Y111.728 F1440.000 E31.77663
G1 X133.925 Y111.043 F15000.000
G1 X119.767 Y96.885 F1440.000 E32.80981
G1 X119.990 Y96.422 F15000.000
G1 X133.925 Y110.357 F1440.000 E33.82673
G1 X133.925 Y109.671 F15000.000
G1 X119.483 Y95.229 F1440.000 E34.88067
G1 X119.058 Y94.120 E34.94196
G1 X113.865 Y88.926 E35.32096
G1 X113.180 Y88.926 F15000.000
G1 X118.170 Y93.916 F1440.000 E35.68515
G1 X118.846 Y93.907 E35.72000
G1 X122.713 Y97.774 E36.00221
G1 X122.713 Y97.089 F15000.000
G1 X114.550 Y88.926 F1440.000 E36.59789
G1 X115.236 Y88.926 F15000.000
G1 X122.713 Y96.403 F1440.000 E37.14354
G1 X122.713 Y95.718 F15000.000
G1 X115.921 Y88.926 F1440.000 E37.63917
G1 X116.607 Y88.926 F15000.000
G1 X122.910 Y95.229 F1440.000 E38.09917
G1 X123.292 Y94.925 F15000.000
G1 X117.292 Y88.926 F1440.000 E38.53697
G1 X117.978 Y88.926 F15000.000
G1 X123.673 Y94.621 F1440.000 E38.95258
G1 X124.054 Y94.317 F15000.000
G1 X118.663 Y88.926 F1440.000 E39.34601
G1 X119.349 Y88.926 F15000.000
G1 X124.436 Y94.013 F1440.000 E39.71724
G1 X124.817 Y93.709 F15000.000
G1 X120.034 Y88.926 F1440.000 E40.06629
G1 X120.719 Y88.926 F15000.000
G1 X125.336 Y93.542 F1440.000 E40.40317
G1 X126.224 Y93.745 E40.45020
G1 X121.405 Y88.926 E40.80188
G1 X122.091 Y88.926 F15000.000
G1 X127.113 Y93.948 F1440.000 E41.16836
G1 X127.552 Y93.703 E41.19433
G1 X135.624 Y101.774 E41.78338
G1 X134.939 Y101.774 F15000.000
G1 X128.190 Y95.024 F1440.000 E42.27593
G1 X128.001 Y94.151 E42.32204
G1 X122.776 Y88.926 E42.70333
G1 X123.461 Y88.926 F15000.000
G1 X136.310 Y101.774 F1440.000 E43.64094
G1 X136.995 Y101.774 F15000.000
G1 X124.147 Y88.926 F1440.000 E44.57856
G1 X124.832 Y88.926 F15000.000
G1 X137.680 Y101.774 F1440.000 E45.51617
G1 X138.366 Y101.774 F15000.000
G1 X125.518 Y88.926 F1440.000 E46.45379
G1 X126.203 Y88.926 F15000.000
G1 X139.052 Y101.774 F1440.000 E47.39140
G1 X139.137 Y101.174 F15000.000
G1 X126.889 Y88.925 F1440.000 E48.28524
G1 X127.574 Y88.926 F15000.000
G1 X139.137 Y100.489 F1440.000 E49.12906
G1 X139.137 Y99.803 F15000.000
G1 X128.260 Y88.926 F1440.000 E49.92286
G1 X128.945 Y88.926 F15000.000
G1 X139.371 Y99.351 F1440.000 E50.68366
G1 X139.639 Y98.934 F15000.000
G1 X129.630 Y88.926 F1440.000 E51.41402
G1 X130.316 Y88.926 F15000.000
G1 X139.907 Y98.517 F1440.000 E52.11393
G1 X140.176 Y98.100 F15000.000
G1 X131.002 Y88.926 F1440.000 E52.78341
G1 X131.687 Y88.926 F15000.000
G1 X140.443 Y97.683 F1440.000 E53.42244
G1 X140.858 Y97.411 F15000.000
G1 X132.372 Y88.926 F1440.000 E54.04165
G1 X133.058 Y88.926 F15000.000
G1 X141.328 Y97.196 F1440.000 E54.64517
G1 X141.798 Y96.981 F15000.000
G1 X133.743 Y88.926 F1440.000 E55.23301
G1 X134.429 Y88.926 F15000.000
G1 X142.269 Y96.766 F1440.000 E55.80515
G1 X142.740 Y96.551 F15000.000
G1 X135.114 Y88.926 F1440.000 E56.36161
G1 X135.800 Y88.925 F15000.000
G1 X143.469 Y96.595 F1440.000 E56.92126
G1 X144.269 Y96.710 E56.96298
G1 X136.485 Y88.926 E57.53105
G1 X137.171 Y88.926 F15000.000
G1 X145.070 Y96.825 F1440.000 E58.10752
G1 F6000.000 E55.10752
G92 E0
G1 X146.957 Y98.712 F15000.000
G1 F6000.000 E3.00000
G1 X149.381 Y101.136 F1440.000 E3.17692
G1 X149.333 Y101.774 F15000.000
G1 X147.241 Y99.682 F1440.000 E3.32959
G1 X147.428 Y100.553 F15000.000
G1 X148.648 Y101.774 F1440.000 E3.41868
G1 X147.963 Y101.774 F15000.000
G1 X147.272 Y101.083 F1440.000 E3.46910
G1 F6000.000 E0.46910
G92 E0
G1 X149.381 Y100.451 F15000.000
G1 F6000.000 E3.00000
G1 X137.856 Y88.926 F1440.000 E3.84105
G1 X138.541 Y88.926 F15000.000
G1 X149.381 Y99.766 F1440.000 E4.63208
G1 X149.381 Y99.080 F15000.000
G1 X139.227 Y88.926 F1440.000 E5.37309
G1 X139.913 Y88.926 F15000.000
G1 X149.381 Y98.394 F1440.000 E6.06407
G1 X149.381 Y97.709 F15000.000
G1 X140.598 Y88.926 F1440.000 E6.70503
G1 X141.283 Y88.926 F15000.000
G1 X149.381 Y97.024 F1440.000 E7.29598
G1 X149.381 Y96.338 F15000.000
G1 X141.969 Y88.926 F1440.000 E7.83690
G1 X142.654 Y88.926 F15000.000
G1 X149.381 Y95.653 F1440.000 E8.32780
G1 X149.381 Y94.967 F15000.000
G1 X143.340 Y88.926 F1440.000 E8.76867
G1 X144.025 Y88.926 F15000.000
G1 X149.381 Y94.282 F1440.000 E9.15953
G1 X149.381 Y93.596 F15000.000
G1 X144.711 Y88.925 F1440.000 E9.50037
G1 X145.396 Y88.926 F15000.000
G1 X149.381 Y92.911 F1440.000 E9.79118
G1 X149.381 Y92.225 F15000.000
G1 X146.082 Y88.926 F1440.000 E10.03197
G1 X146.767 Y88.926 F15000.000
G1 X149.381 Y91.540 F1440.000 E10.22274
G1 X149.381 Y90.855 F15000.000
G1 X147.452 Y88.926 F1440.000 E10.36349
G1 X148.138 Y88.926 F15000.000
