; generated by Slic3r 0.9.3 on 2013-04-30 at 23:15:49

; layer_height = 0.25
; perimeters = 2
; solid_layers = 2
; fill_density = 0.15
; perimeter_speed = 85
; infill_speed = 60
; travel_speed = 250
; scale = 1
; nozzle_diameter = 0.35
; filament_diameter = 1.7
; extrusion_multiplier = 1.0
; single wall width = 0.39mm

M104 S185 ; set temperature
;Standard Profile for Series 1. Single Extruder
M104 S185
M301 P24.72 I0.88 D231.1
G28
G1 X120 Y115 Z15 F10000
G92 E0
G1 Y5 Z15 F5000
M109 S185
G1 F100 E50
G92 E0
G1 X50 Z0.3 F10000
; do a little dance on a toothbrush to remove extrusions..  
G90 ; use absolute coordinates
G21 ; set units to millimeters
G92 E0
M82 ; use absolute distances for extrusion
M106 S255
G1 F6000.000 E-3.00000
G92 E0
G1 Z0.250 F15000.000
G1 X68.514 Y67.270
G1 F6000.000 E3.00000
G1 X68.694 Y67.080 F2040.000 E3.01109
G1 X69.084 Y66.720 E3.03359
G1 X69.504 Y66.400 E3.05597
G1 X69.944 Y66.110 E3.07831
G1 X70.404 Y65.860 E3.10050
G1 X70.894 Y65.650 E3.12310
G1 X71.394 Y65.480 E3.14548
G1 X71.904 Y65.350 E3.16779
G1 X72.424 Y65.260 E3.19016
G1 X72.684 Y65.230 E3.20126
G1 X73.214 Y65.210 E3.22374
G1 X127.024 Y65.220 E5.50461
G1 X127.584 Y65.270 E5.52844
G1 X128.144 Y65.360 E5.55248
G1 X128.684 Y65.510 E5.57624
G1 X128.944 Y65.600 E5.58790
G1 X129.464 Y65.820 E5.61184
G1 X129.964 Y66.080 E5.63572
G1 X130.664 Y66.550 E5.67146
G1 X190.904 Y113.370 E8.90543
G1 X191.294 Y113.730 E8.92793
G1 X191.474 Y113.920 E8.93902
G1 X191.814 Y114.320 E8.96128
G1 X191.974 Y114.530 E8.97247
G1 X192.264 Y114.980 E8.99516
G1 X192.514 Y115.440 E9.01735
G1 X192.814 Y116.170 E9.05080
G1 X192.964 Y116.680 E9.07334
G1 X193.074 Y117.200 E9.09587
G1 X193.144 Y117.720 E9.11811
G1 X193.144 Y158.920 E10.86447
G1 X193.074 Y159.440 E10.88671
G1 X192.964 Y159.960 E10.90924
G1 X192.814 Y160.460 E10.93137
G1 X192.624 Y160.960 E10.95404
G1 X192.394 Y161.430 E10.97622
G1 X192.124 Y161.880 E10.99847
G1 X191.974 Y162.100 E11.00975
G1 X191.654 Y162.520 E11.03213
G1 X191.294 Y162.910 E11.05463
G1 X190.904 Y163.270 E11.07713
G1 X190.484 Y163.590 E11.09951
G1 X190.044 Y163.880 E11.12185
G1 X189.584 Y164.130 E11.14404
G1 X189.094 Y164.340 E11.16664
G1 X188.594 Y164.510 E11.18902
G1 X188.084 Y164.640 E11.21133
G1 X187.564 Y164.730 E11.23370
G1 X187.304 Y164.760 E11.24479
G1 X186.774 Y164.780 E11.26727
G1 X72.684 Y164.760 E16.10327
G1 X72.164 Y164.690 E16.12551
G1 X71.644 Y164.580 E16.14804
G1 X71.144 Y164.430 E16.17017
G1 X70.644 Y164.240 E16.19284
G1 X70.174 Y164.010 E16.21502
G1 X69.724 Y163.740 E16.23726
G1 X69.504 Y163.590 E16.24855
G1 X69.084 Y163.270 E16.27093
G1 X68.694 Y162.910 E16.29343
G1 X68.334 Y162.520 E16.31593
G1 X68.014 Y162.100 E16.33831
G1 X67.724 Y161.660 E16.36064
G1 X67.474 Y161.200 E16.38284
G1 X67.264 Y160.710 E16.40543
G1 X67.094 Y160.210 E16.42782
G1 X66.964 Y159.700 E16.45013
G1 X66.874 Y159.180 E16.47250
G1 X66.844 Y158.920 E16.48359
G1 X66.844 Y71.070 E20.20734
G1 X66.914 Y70.550 E20.22958
G1 X67.024 Y70.030 E20.25211
G1 X67.174 Y69.530 E20.27423
G1 X67.364 Y69.030 E20.29690
G1 X67.594 Y68.560 E20.31908
G1 X67.864 Y68.110 E20.34133
G1 X68.014 Y67.890 E20.35261
G1 X68.258 Y67.570 E20.36969
G1 F6000.000 E17.36969
G92 E0
G1 X116.031 Y140.869 F15000.000
G1 F6000.000 E3.00000
G1 X118.356 Y139.749 F1440.000 E3.13296
G1 X120.681 Y140.869 E3.26591
G1 X121.255 Y143.384 E3.39884
G1 X119.646 Y145.402 E3.53180
G1 X117.066 Y145.402 E3.66479
G1 X115.457 Y143.384 E3.79775
G1 X115.943 Y141.254 E3.91036
G1 X116.451 Y141.204 F15000.000
G1 X118.356 Y140.287 F1440.000 E4.01930
G1 X120.261 Y141.204 E4.12824
G1 X120.732 Y143.265 E4.23715
G1 X119.413 Y144.918 E4.34610
G1 X117.299 Y144.918 E4.45507
G1 X115.980 Y143.265 E4.56401
G1 X116.363 Y141.588 E4.65261
G1 F6000.000 E1.65261
G92 E0
G1 X118.356 Y148.554 F15000.000
G1 F6000.000 E3.00000
G1 X120.681 Y149.674 F1440.000 E3.13296
G1 X121.255 Y152.189 E3.26588
G1 X119.646 Y154.207 E3.39884
G1 X117.066 Y154.207 E3.53183
G1 X115.457 Y152.189 E3.66479
G1 X116.031 Y149.674 E3.79772
G1 X118.001 Y148.726 E3.91035
G1 X118.356 Y149.092 F15000.000
G1 X120.261 Y150.009 F1440.000 E4.01930
G1 X120.732 Y152.070 E4.12821
G1 X119.413 Y153.723 E4.23716
G1 X117.299 Y153.723 E4.34613
G1 X115.980 Y152.070 E4.45507
G1 X116.451 Y150.009 E4.56398
G1 X118.001 Y149.263 E4.65261
G1 F6000.000 E1.65261
G92 E0
G1 X102.886 Y152.189 F15000.000
G1 F6000.000 E3.00000
G1 X101.277 Y154.207 F1440.000 E3.13296
G1 X98.697 Y154.207 E3.26595
G1 X97.088 Y152.189 E3.39891
G1 X97.662 Y149.674 E3.53184
G1 X99.987 Y148.554 E3.66479
G1 X102.312 Y149.674 E3.79775
G1 X102.798 Y151.805 E3.91035
G1 X102.363 Y152.070 F15000.000
G1 X101.044 Y153.723 F1440.000 E4.01930
G1 X98.930 Y153.723 E4.12827
G1 X97.611 Y152.070 E4.23722
G1 X98.082 Y150.009 E4.34613
G1 X99.987 Y149.092 E4.45507
G1 X101.892 Y150.009 E4.56401
G1 X102.275 Y151.685 E4.65261
G1 F6000.000 E1.65261
G92 E0
G1 X101.277 Y145.402 F15000.000
G1 F6000.000 E3.00000
G1 X98.697 Y145.402 F1440.000 E3.13299
G1 X97.088 Y143.384 E3.26595
G1 X97.662 Y140.869 E3.39887
G1 X99.987 Y139.749 E3.53183
G1 X102.312 Y140.869 E3.66479
G1 X102.886 Y143.384 E3.79771
G1 X101.523 Y145.094 E3.91036
G1 X101.044 Y144.918 F15000.000
G1 X98.930 Y144.918 F1440.000 E4.01932
G1 X97.611 Y143.265 E4.12827
G1 X98.082 Y141.204 E4.23718
G1 X99.987 Y140.287 E4.34613
G1 X101.892 Y141.204 E4.45507
G1 X102.363 Y143.265 E4.56398
G1 X101.290 Y144.610 E4.65261
G1 F6000.000 E1.65261
G92 E0
G1 X84.517 Y143.384 F15000.000
G1 F6000.000 E3.00000
G1 X82.908 Y145.402 F1440.000 E3.13296
G1 X80.328 Y145.402 E3.26595
G1 X78.719 Y143.384 E3.39891
G1 X79.293 Y140.869 E3.53184
G1 X81.618 Y139.749 E3.66479
G1 X83.943 Y140.869 E3.79775
G1 X84.429 Y143.000 E3.91036
G1 X83.994 Y143.265 F15000.000
G1 X82.675 Y144.918 F1440.000 E4.01930
G1 X80.561 Y144.918 E4.12827
G1 X79.242 Y143.265 E4.23722
G1 X79.713 Y141.204 E4.34613
G1 X81.618 Y140.287 E4.45507
G1 X83.523 Y141.204 E4.56401
G1 X83.906 Y142.880 E4.65261
G1 F6000.000 E1.65261
G92 E0
G1 X81.618 Y148.554 F15000.000
G1 F6000.000 E3.00000
G1 X83.943 Y149.674 F1440.000 E3.13296
G1 X84.517 Y152.189 E3.26588
G1 X82.908 Y154.207 E3.39884
G1 X80.328 Y154.207 E3.53183
G1 X78.719 Y152.189 E3.66479
G1 X79.293 Y149.674 E3.79772
G1 X81.263 Y148.726 E3.91035
G1 X81.618 Y149.092 F15000.000
G1 X83.523 Y150.009 F1440.000 E4.01930
G1 X83.994 Y152.070 E4.12821
G1 X82.675 Y153.723 E4.23716
G1 X80.561 Y153.723 E4.34613
G1 X79.242 Y152.070 E4.45507
G1 X79.713 Y150.009 E4.56398
G1 X81.263 Y149.263 E4.65261
G1 F6000.000 E1.65261
G92 E0
G1 X126.266 Y157.906 F15000.000
G1 F6000.000 E3.00000
G1 X73.708 Y157.906 F2040.000 E5.70808
G1 X73.708 Y118.734 E7.72645
G1 X86.966 Y118.734 E8.40958
G1 X86.966 Y120.200 E8.48513
G1 X85.700 Y119.815 E8.55333
G1 X83.513 Y120.480 E8.67111
G1 X82.033 Y122.248 E8.78990
G1 X81.714 Y124.548 E8.90953
G1 X81.957 Y125.099 E8.94056
G1 X81.714 Y126.849 E9.03162
G1 X82.648 Y128.968 E9.15093
G1 X84.558 Y130.239 E9.26916
G1 X86.966 Y130.239 E9.39321
G1 X86.966 Y134.190 E9.59680
G1 X113.008 Y134.190 E10.93861
G1 X113.008 Y130.239 E11.14219
G1 X115.416 Y130.239 E11.26625
G1 X117.326 Y128.968 E11.38448
G1 X118.260 Y126.849 E11.50379
G1 X118.137 Y125.959 E11.55008
G1 X118.262 Y125.685 E11.56560
G1 X118.138 Y124.825 E11.61040
G1 X118.260 Y124.548 E11.62600
G1 X117.941 Y122.248 E11.74562
G1 X116.461 Y120.480 E11.86442
G1 X114.274 Y119.815 E11.98220
G1 X113.008 Y120.200 E12.05040
G1 X113.008 Y118.734 E12.12595
G1 X126.266 Y118.734 E12.80908
G1 X126.266 Y157.512 E14.80713
G1 X126.750 Y158.390 F15000.000
G1 X73.224 Y158.390 F2040.000 E17.56508
G1 X73.224 Y118.250 E19.63331
G1 X87.450 Y118.250 E20.36631
G1 X87.450 Y120.853 E20.50042
G1 X85.700 Y120.321 E20.59468
G1 X83.791 Y120.901 E20.69746
G1 X82.493 Y122.452 E20.80168
G1 X82.212 Y124.478 E20.90707
G1 X82.455 Y125.029 E20.93810
G1 X82.212 Y126.780 E21.02916
G1 X83.034 Y128.643 E21.13411
G1 X84.705 Y129.755 E21.23751
G1 X86.695 Y129.755 E21.34006
G1 X87.311 Y129.345 E21.37818
G1 X87.450 Y129.420 E21.38632
G1 X87.450 Y133.706 E21.60717
G1 X112.524 Y133.706 E22.89912
G1 X112.524 Y129.420 E23.11997
G1 X112.663 Y129.345 E23.12811
G1 X113.279 Y129.755 E23.16622
G1 X115.269 Y129.755 E23.26877
G1 X116.940 Y128.643 E23.37218
G1 X117.762 Y126.780 E23.47713
G1 X117.638 Y125.886 E23.52359
G1 X117.763 Y125.614 E23.53904
G1 X117.640 Y124.756 E23.58367
G1 X117.762 Y124.478 E23.59933
G1 X117.481 Y122.452 E23.70473
G1 X116.183 Y120.901 E23.80894
G1 X114.274 Y120.321 E23.91172
G1 X112.524 Y120.853 E24.00598
G1 X112.524 Y118.250 E24.14010
G1 X126.750 Y118.250 E24.87310
G1 X126.750 Y157.996 E26.92101
G1 X125.880 Y157.701 F15000.000
G1 X120.927 Y152.748 F1440.000 E27.28247
G1 X120.623 Y153.129 F15000.000
G1 X125.195 Y157.701 F1440.000 E27.61606
G1 X124.510 Y157.701 F15000.000
G1 X120.319 Y153.511 F1440.000 E27.92189
G1 X120.015 Y153.892 F15000.000
G1 X123.824 Y157.701 F1440.000 E28.19985
G1 X123.138 Y157.701 F15000.000
G1 X119.711 Y154.274 F1440.000 E28.44995
G1 X119.163 Y154.411 F15000.000
G1 X122.453 Y157.701 F1440.000 E28.69004
G1 X121.767 Y157.701 F15000.000
G1 X118.478 Y154.412 F1440.000 E28.93008
G1 X117.792 Y154.412 F15000.000
G1 X121.081 Y157.701 F1440.000 E29.17011
G1 X120.396 Y157.701 F15000.000
G1 X117.107 Y154.411 F1440.000 E29.41015
G1 F6000.000 E26.41015
G92 E0
G1 X115.225 Y152.530 F15000.000
G1 F6000.000 E3.00000
G1 X97.090 Y134.395 F1440.000 E4.32341
G1 X97.775 Y134.395 F15000.000
G1 X115.353 Y151.972 F1440.000 E5.60613
G1 X115.480 Y151.414 F15000.000
G1 X98.461 Y134.395 F1440.000 E6.84810
G1 X99.147 Y134.395 F15000.000
G1 X115.608 Y150.856 F1440.000 E8.04936
G1 X115.735 Y150.297 F15000.000
G1 X99.832 Y134.394 F1440.000 E9.20988
G1 X100.517 Y134.395 F15000.000
G1 X115.862 Y149.740 F1440.000 E10.32970
G1 X116.252 Y149.444 F15000.000
G1 X101.203 Y134.395 F1440.000 E11.42792
G1 X101.889 Y134.395 F15000.000
G1 X116.715 Y149.221 F1440.000 E12.50989
G1 X117.177 Y148.998 F15000.000
G1 X102.574 Y134.395 F1440.000 E13.57558
G1 X103.259 Y134.395 F15000.000
G1 X117.640 Y148.776 F1440.000 E14.62504
G1 X118.102 Y148.552 F15000.000
G1 X103.945 Y134.395 F1440.000 E15.65819
G1 X104.630 Y134.395 F15000.000
G1 X118.565 Y148.330 F1440.000 E16.67509
G1 F6000.000 E13.67509
G92 E0
G1 X118.584 Y145.607 F15000.000
G1 F6000.000 E3.00000
G1 X126.061 Y153.084 F1440.000 E3.54562
G1 X126.061 Y152.398 F15000.000
G1 X119.269 Y145.607 F1440.000 E4.04124
G1 X119.758 Y145.409 F15000.000
G1 X126.062 Y151.713 F1440.000 E4.50126
G1 X126.061 Y151.028 F15000.000
G1 X120.062 Y145.029 F1440.000 E4.93903
G1 X120.366 Y144.647 F15000.000
G1 X126.061 Y150.342 F1440.000 E5.35462
G1 X126.062 Y149.657 F15000.000
G1 X120.670 Y144.265 F1440.000 E5.74807
G1 X120.974 Y143.885 F15000.000
G1 X126.061 Y148.971 F1440.000 E6.11928
G1 X126.061 Y148.286 F15000.000
G1 X121.278 Y143.503 F1440.000 E6.46830
G1 X121.445 Y142.984 F15000.000
G1 X126.062 Y147.600 F1440.000 E6.80519
G1 X126.061 Y146.915 F15000.000
G1 X121.241 Y142.096 F1440.000 E7.15689
G1 X121.039 Y141.208 E7.20389
G1 X126.061 Y146.229 E7.57036
G1 X126.062 Y145.544 F15000.000
G1 X120.836 Y140.319 F1440.000 E7.95168
G1 X121.285 Y140.768 F15000.000
G1 X113.213 Y132.695 F1440.000 E8.54075
G1 X113.212 Y132.010 F15000.000
G1 X126.061 Y144.859 F1440.000 E9.47839
G1 X126.061 Y144.173 F15000.000
G1 X113.213 Y131.325 F1440.000 E10.41598
G1 X113.213 Y130.639 F15000.000
G1 X126.062 Y143.488 F1440.000 E11.35362
G1 X126.062 Y142.802 F15000.000
G1 X113.703 Y130.443 F1440.000 E12.25550
G1 X114.388 Y130.444 F15000.000
G1 X126.061 Y142.117 F1440.000 E13.10733
G1 X126.061 Y141.431 F15000.000
G1 X115.073 Y130.443 F1440.000 E13.90915
G1 X115.569 Y130.253 F15000.000
G1 X126.062 Y140.746 F1440.000 E14.67485
G1 X126.061 Y140.060 F15000.000
G1 X115.981 Y129.980 F1440.000 E15.41047
G1 X116.392 Y129.706 F15000.000
G1 X126.061 Y139.375 F1440.000 E16.11606
G1 X126.062 Y138.689 F15000.000
G1 X116.804 Y129.431 F1440.000 E16.79167
G1 X117.215 Y129.159 F15000.000
G1 X126.061 Y138.004 F1440.000 E17.43719
G1 X126.061 Y137.318 F15000.000
G1 X117.531 Y128.789 F1440.000 E18.05965
G1 X117.742 Y128.314 F15000.000
G1 X126.062 Y136.633 F1440.000 E18.66678
G1 X126.061 Y135.948 F15000.000
G1 X117.951 Y127.838 F1440.000 E19.25859
G1 X118.161 Y127.362 F15000.000
G1 X126.061 Y135.262 F1440.000 E19.83507
G1 X126.062 Y134.577 F15000.000
G1 X118.371 Y126.887 F1440.000 E20.39627
G1 X118.427 Y126.257 F15000.000
G1 X126.062 Y133.891 F1440.000 E20.95340
G1 X126.061 Y133.206 F15000.000
G1 X118.436 Y125.581 F1440.000 E21.50986
G1 X118.392 Y124.851 F15000.000
G1 X126.061 Y132.520 F1440.000 E22.06952
G1 X126.062 Y131.835 F15000.000
G1 X118.466 Y124.239 F1440.000 E22.62381
G1 X118.355 Y123.444 E22.66526
G1 X126.061 Y131.150 E23.22760
G1 X126.061 Y130.464 F15000.000
G1 X118.245 Y122.647 F1440.000 E23.79799
G1 X118.134 Y121.851 E23.83947
G1 X126.062 Y129.778 E24.41796
G1 X126.061 Y129.093 F15000.000
G1 X115.907 Y118.939 F1440.000 E25.15897
G1 X115.222 Y118.939 F15000.000
G1 X116.447 Y120.164 F1440.000 E25.24837
G1 X115.462 Y119.865 E25.30150
G1 X114.857 Y119.260 E25.34563
G1 X116.592 Y118.939 F15000.000
G1 X126.061 Y128.407 F1440.000 E26.03661
G1 X126.062 Y127.722 F15000.000
G1 X117.278 Y118.939 F1440.000 E26.67759
G1 X117.963 Y118.939 F15000.000
G1 X126.061 Y127.037 F1440.000 E27.26854
G1 X126.061 Y126.351 F15000.000
G1 X118.649 Y118.939 F1440.000 E27.80947
G1 X119.334 Y118.939 F15000.000
G1 X126.062 Y125.666 F1440.000 E28.30039
G1 X126.062 Y124.980 F15000.000
G1 X120.020 Y118.939 F1440.000 E28.74126
G1 X120.705 Y118.939 F15000.000
G1 X126.061 Y124.295 F1440.000 E29.13213
G1 X126.061 Y123.609 F15000.000
G1 X121.391 Y118.939 F1440.000 E29.47295
G1 X122.077 Y118.939 F15000.000
G1 X126.062 Y122.924 F1440.000 E29.76376
G1 X126.061 Y122.239 F15000.000
G1 X122.761 Y118.939 F1440.000 E30.00457
G1 X123.447 Y118.939 F15000.000
G1 X126.061 Y121.553 F1440.000 E30.19533
G1 X126.062 Y120.867 F15000.000
G1 X124.133 Y118.939 F1440.000 E30.33609
G1 X124.818 Y118.939 F15000.000
G1 X126.061 Y120.182 F1440.000 E30.42679
G1 F6000.000 E27.42679
G92 E0
G1 X113.213 Y133.381 F15000.000
G1 F6000.000 E3.00000
G1 X119.962 Y140.130 F1440.000 E3.49252
G1 X118.640 Y139.494 E3.56825
G1 X113.212 Y134.067 E3.96433
G1 X112.856 Y134.395 F15000.000
G1 X118.175 Y139.713 F1440.000 E4.35246
G1 X117.711 Y139.936 F15000.000
G1 X112.170 Y134.395 F1440.000 E4.75685
G1 X111.485 Y134.395 F15000.000
G1 X117.248 Y140.159 F1440.000 E5.17744
G1 X116.787 Y140.382 F15000.000
G1 X110.800 Y134.395 F1440.000 E5.61434
G1 X110.114 Y134.395 F15000.000
G1 X116.323 Y140.604 F1440.000 E6.06749
G1 X115.882 Y140.849 F15000.000
G1 X109.428 Y134.395 F1440.000 E6.53850
G1 X108.743 Y134.395 F15000.000
G1 X115.755 Y141.406 F1440.000 E7.05017
G1 X115.628 Y141.965 F15000.000
G1 X108.057 Y134.395 F1440.000 E7.60260
G1 X107.372 Y134.395 F15000.000
G1 X115.500 Y142.523 F1440.000 E8.19575
G1 X115.372 Y143.081 F15000.000
G1 X106.686 Y134.395 F1440.000 E8.82961
G1 X106.001 Y134.395 F15000.000
G1 X115.245 Y143.638 F1440.000 E9.50418
G1 F6000.000 E6.50418
G92 E0
G1 X117.213 Y145.607 F15000.000
G1 F6000.000 E3.00000
G1 X121.081 Y149.474 F1440.000 E3.28225
G1 X121.070 Y150.150 E3.31711
G1 X126.061 Y155.140 E3.68130
G1 X126.062 Y154.455 F15000.000
G1 X120.868 Y149.262 F1440.000 E4.06030
G1 X119.758 Y148.837 E4.12164
G1 X105.315 Y134.395 E5.17559
G1 F6000.000 E2.17559
G92 E0
G1 X100.174 Y139.535 F15000.000
G1 F6000.000 E3.00000
G1 X95.034 Y134.395 F1440.000 E3.37513
G1 X95.719 Y134.395 F15000.000
G1 X101.326 Y140.003 F1440.000 E3.78433
G1 X102.508 Y140.498 E3.85047
G1 X119.711 Y157.701 E5.10587
G1 X119.025 Y157.701 F15000.000
G1 X102.711 Y141.387 F1440.000 E6.29641
G1 X102.649 Y140.639 E6.33516
G1 X96.405 Y134.395 E6.79082
G1 F6000.000 E3.79082
G92 E0
G1 X94.348 Y134.395 F15000.000
G1 F6000.000 E3.00000
G1 X99.711 Y139.758 F1440.000 E3.39137
G1 X99.249 Y139.981 F15000.000
G1 X93.663 Y134.395 F1440.000 E3.79903
G1 X92.978 Y134.395 F15000.000
G1 X98.786 Y140.203 F1440.000 E4.22293
G1 X98.324 Y140.427 F15000.000
G1 X92.292 Y134.395 F1440.000 E4.66312
G1 X91.606 Y134.395 F15000.000
G1 X97.861 Y140.650 F1440.000 E5.11955
G1 X97.488 Y140.961 F15000.000
