; generated by Slic3r 0.9.3 on 2013-06-01 at 00:56:37

; layer_height = 0.25
; perimeters = 2
; solid_layers = 2
; fill_density = 0.15
; perimeter_speed = 85
; infill_speed = 60
; travel_speed = 250
; scale = 1
; nozzle_diameter = 0.35
; filament_diameter = 1.7
; extrusion_multiplier = 1.0
; single wall width = 0.39mm

M104 S185 ; set temperature
;Standard Profile for Series 1. Single Extruder
M104 S185
M301 P24.72 I0.88 D231.1
G28
G1 X120 Y115 Z15 F10000
G92 E0
G1 Y5 Z15 F5000
M109 S185
G1 F100 E50
G92 E0
G1 X50 Z0.3 F10000
; do a little dance on a toothbrush to remove extrusions..  
G90 ; use absolute coordinates
G21 ; set units to millimeters
G92 E0
M82 ; use absolute distances for extrusion
M106 S255
G1 F6000.000 E-3.00000
G92 E0
G1 Z0.250 F15000.000
G1 X98.650 Y86.631
G1 F6000.000 E3.00000
G1 X98.900 Y85.871 F2040.000 E3.03391
G1 X99.120 Y85.371 E3.05707
G1 X99.380 Y84.901 E3.07983
G1 X99.680 Y84.461 E3.10241
G1 X100.200 Y83.841 E3.13671
G1 X100.590 Y83.461 E3.15979
G1 X101.000 Y83.121 E3.18237
G1 X101.220 Y82.961 E3.19390
G1 X129.020 Y67.111 E4.55034
G1 X129.520 Y66.881 E4.57367
G1 X130.300 Y66.611 E4.60865
G1 X131.120 Y66.451 E4.64407
G1 X131.390 Y66.421 E4.65558
G1 X131.940 Y66.401 E4.67891
G1 X152.280 Y66.421 E5.54107
G1 X153.060 Y66.531 E5.57446
G1 X153.570 Y66.661 E5.59677
G1 X154.070 Y66.831 E5.61916
G1 X154.550 Y67.041 E5.64137
G1 X155.010 Y67.291 E5.66356
G1 X155.450 Y67.571 E5.68566
G1 X155.870 Y67.901 E5.70831
G1 X156.260 Y68.251 E5.73052
G1 X156.610 Y68.631 E5.75242
G1 X157.090 Y69.261 E5.78599
G1 X157.360 Y69.711 E5.80823
G1 X157.590 Y70.181 E5.83041
G1 X157.790 Y70.671 E5.85284
G1 X157.940 Y71.171 E5.87497
G1 X161.480 Y87.411 E6.57951
G1 X161.510 Y87.681 E6.59103
G1 X161.510 Y142.311 E8.90666
G1 X161.480 Y142.581 E8.91817
G1 X157.940 Y158.811 E9.62230
G1 X157.790 Y159.311 E9.64442
G1 X157.480 Y160.041 E9.67804
G1 X157.230 Y160.501 E9.70023
G1 X156.940 Y160.941 E9.72257
G1 X156.440 Y161.541 E9.75567
G1 X155.870 Y162.081 E9.78896
G1 X155.450 Y162.411 E9.81160
G1 X154.780 Y162.821 E9.84489
G1 X154.310 Y163.051 E9.86707
G1 X153.820 Y163.241 E9.88935
G1 X153.320 Y163.391 E9.91148
G1 X153.060 Y163.451 E9.92279
G1 X152.280 Y163.561 E9.95618
G1 X151.760 Y163.581 E9.97823
G1 X131.390 Y163.561 E10.84167
G1 X131.120 Y163.531 E10.85318
G1 X130.300 Y163.371 E10.88860
G1 X129.520 Y163.101 E10.92358
G1 X129.020 Y162.871 E10.94691
G1 X101.220 Y147.031 E12.30314
G1 X100.590 Y146.531 E12.33724
G1 X100.390 Y146.351 E12.34864
G1 X99.850 Y145.751 E12.38286
G1 X99.680 Y145.531 E12.39464
G1 X99.380 Y145.091 E12.41722
G1 X99.120 Y144.621 E12.43998
G1 X98.900 Y144.131 E12.46275
G1 X98.650 Y143.361 E12.49707
G1 X98.500 Y142.571 E12.53115
G1 X98.470 Y142.301 E12.54267
G1 X98.470 Y87.691 E14.85745
G1 X98.567 Y87.017 E14.88634
G1 F6000.000 E11.88634
G92 E0
G1 X124.846 Y96.631 F15000.000
G1 F6000.000 E3.00000
G1 X123.726 Y98.956 F1440.000 E3.13296
G1 X121.211 Y99.530 E3.26588
G1 X119.193 Y97.921 E3.39884
G1 X119.193 Y95.341 E3.53183
G1 X121.211 Y93.732 E3.66479
G1 X123.726 Y94.306 E3.79772
G1 X124.674 Y96.276 E3.91035
G1 X124.308 Y96.631 F15000.000
G1 X123.391 Y98.536 F1440.000 E4.01930
G1 X121.330 Y99.007 E4.12821
G1 X119.677 Y97.688 E4.23716
G1 X119.677 Y95.574 E4.34612
G1 X121.330 Y94.255 E4.45507
G1 X123.391 Y94.726 E4.56398
G1 X124.137 Y96.276 E4.65261
G1 F6000.000 E1.65261
G92 E0
G1 X127.998 Y95.341 F15000.000
G1 F6000.000 E3.00000
G1 X130.016 Y93.732 F1440.000 E3.13296
G1 X132.531 Y94.306 E3.26589
G1 X133.651 Y96.631 E3.39884
G1 X132.531 Y98.956 E3.53180
G1 X130.016 Y99.530 E3.66473
G1 X127.998 Y97.921 E3.79769
G1 X127.998 Y95.735 E3.91035
G1 X128.482 Y95.574 F15000.000
G1 X130.135 Y94.255 F1440.000 E4.01930
G1 X132.196 Y94.726 E4.12821
G1 X133.113 Y96.631 E4.23716
G1 X132.196 Y98.536 E4.34610
G1 X130.135 Y99.007 E4.45501
G1 X128.482 Y97.688 E4.56396
G1 X128.482 Y95.968 E4.65261
G1 F6000.000 E1.65261
G92 E0
G1 X130.016 Y112.101 F15000.000
G1 F6000.000 E3.00000
G1 X132.531 Y112.675 F1440.000 E3.13293
G1 X133.651 Y115.000 E3.26588
G1 X132.531 Y117.325 E3.39884
G1 X130.016 Y117.899 E3.53176
G1 X127.998 Y116.290 E3.66473
G1 X127.998 Y113.710 E3.79771
G1 X129.707 Y112.347 E3.91035
G1 X130.135 Y112.624 F15000.000
G1 X132.196 Y113.095 F1440.000 E4.01927
G1 X133.113 Y115.000 E4.12821
G1 X132.196 Y116.905 E4.23715
G1 X130.135 Y117.376 E4.34607
G1 X128.482 Y116.057 E4.45501
G1 X128.482 Y113.943 E4.56398
G1 X129.827 Y112.870 E4.65261
G1 F6000.000 E1.65261
G92 E0
G1 X124.846 Y115.000 F15000.000
G1 F6000.000 E3.00000
G1 X123.726 Y117.325 F1440.000 E3.13296
G1 X121.211 Y117.899 E3.26588
G1 X119.193 Y116.290 E3.39884
G1 X119.193 Y113.710 E3.53183
G1 X121.211 Y112.101 E3.66479
G1 X123.726 Y112.675 E3.79772
G1 X124.674 Y114.645 E3.91035
G1 X124.308 Y115.000 F15000.000
G1 X123.391 Y116.905 F1440.000 E4.01930
G1 X121.330 Y117.376 E4.12821
G1 X119.677 Y116.057 E4.23716
G1 X119.677 Y113.943 E4.34612
G1 X121.330 Y112.624 E4.45507
G1 X123.391 Y113.095 E4.56398
G1 X124.137 Y114.645 E4.65261
G1 F6000.000 E1.65261
G92 E0
G1 X121.211 Y130.470 F15000.000
G1 F6000.000 E3.00000
G1 X123.726 Y131.044 F1440.000 E3.13293
G1 X124.846 Y133.369 E3.26588
G1 X123.726 Y135.694 E3.39884
G1 X121.211 Y136.268 E3.53176
G1 X119.193 Y134.659 E3.66473
G1 X119.193 Y132.079 E3.79771
G1 X120.902 Y130.716 E3.91035
G1 X121.330 Y130.993 F15000.000
G1 X123.391 Y131.464 F1440.000 E4.01927
G1 X124.308 Y133.369 E4.12821
G1 X123.391 Y135.274 E4.23715
G1 X121.330 Y135.745 E4.34607
G1 X119.677 Y134.426 E4.45501
G1 X119.677 Y132.312 E4.56398
G1 X121.022 Y131.239 E4.65261
G1 F6000.000 E1.65261
G92 E0
G1 X127.998 Y132.079 F15000.000
G1 F6000.000 E3.00000
G1 X130.016 Y130.470 F1440.000 E3.13296
G1 X132.531 Y131.044 E3.26589
G1 X133.651 Y133.369 E3.39884
G1 X132.531 Y135.694 E3.53180
G1 X130.016 Y136.268 E3.66473
G1 X127.998 Y134.659 E3.79769
G1 X127.998 Y132.473 E3.91035
G1 X128.482 Y132.312 F15000.000
G1 X130.135 Y130.993 F1440.000 E4.01930
G1 X132.196 Y131.464 E4.12821
G1 X133.113 Y133.369 E4.23716
G1 X132.196 Y135.274 E4.34610
G1 X130.135 Y135.745 E4.45501
G1 X128.482 Y134.426 E4.56396
G1 X128.482 Y132.706 E4.65261
G1 F6000.000 E1.65261
G92 E0
G1 X105.334 Y88.721 F15000.000
G1 F6000.000 E3.00000
G1 X110.639 Y88.721 F2040.000 E3.27337
G1 X110.639 Y96.439 E3.67104
G1 X115.494 Y96.439 E3.92117
G1 X115.494 Y88.721 E4.31885
G1 X125.654 Y88.721 E4.84235
G1 X125.654 Y81.003 E5.24002
G1 X132.427 Y81.003 E5.58901
G1 X132.427 Y73.285 E5.98668
G1 X151.279 Y73.285 E6.95805
G1 X151.279 Y79.535 E7.28009
G1 X137.733 Y79.535 E7.97808
G1 X137.733 Y88.721 E8.45138
G1 X154.666 Y88.721 E9.32388
G1 X154.666 Y101.979 E10.00701
G1 X153.200 Y101.979 E10.08256
G1 X153.585 Y100.713 E10.15076
G1 X152.999 Y98.785 E10.25459
G1 X152.999 Y98.785 E10.25459
G1 X152.920 Y98.526 E10.26854
G1 X151.152 Y97.046 E10.38733
G1 X148.852 Y96.727 E10.50696
G1 X148.301 Y96.970 E10.53799
G1 X146.551 Y96.727 E10.62905
G1 X146.023 Y96.960 E10.65880
G1 X146.023 Y96.960 E10.65880
G1 X144.432 Y97.661 E10.74837
G1 X143.161 Y99.571 E10.86659
G1 X143.161 Y101.979 E10.99065
G1 X139.210 Y101.979 E11.19423
G1 X139.210 Y128.021 E12.53604
G1 X143.161 Y128.021 E12.73963
G1 X143.161 Y130.429 E12.86369
G1 X144.432 Y132.339 E12.98191
G1 X145.972 Y133.018 E13.06860
G1 X145.972 Y133.018 E13.06860
G1 X146.551 Y133.273 E13.10122
G1 X147.441 Y133.150 E13.14752
G1 X147.715 Y133.275 E13.16303
G1 X148.575 Y133.151 E13.20783
G1 X148.852 Y133.273 E13.22343
G1 X151.152 Y132.954 E13.34306
G1 X152.920 Y131.474 E13.46185
G1 X153.585 Y129.287 E13.57963
G1 X153.200 Y128.021 E13.64783
G1 X154.666 Y128.021 E13.72338
G1 X154.666 Y141.279 E14.40651
G1 X137.733 Y141.279 E15.27901
G1 X137.733 Y150.465 E15.75231
G1 X151.279 Y150.465 E16.45030
G1 X151.279 Y156.715 E16.77234
G1 X132.427 Y156.715 E17.74371
G1 X132.427 Y148.997 E18.14138
G1 X125.654 Y148.997 E18.49037
G1 X125.654 Y141.279 E18.88804
G1 X115.494 Y141.279 E19.41154
G1 X115.494 Y133.561 E19.80922
G1 X110.639 Y133.561 E20.05935
G1 X110.639 Y141.279 E20.45702
G1 X105.334 Y141.279 E20.73039
G1 X105.334 Y135.029 E21.05243
G1 X108.721 Y135.029 E21.22693
G1 X108.721 Y127.311 E21.62460
G1 X115.494 Y127.311 E21.97360
G1 X115.494 Y102.689 E23.24225
G1 X108.721 Y102.689 E23.59125
G1 X108.721 Y94.971 E23.98891
G1 X105.334 Y94.971 E24.16342
G1 X105.334 Y89.115 E24.46514
G1 X104.850 Y88.237 F15000.000
G1 X111.123 Y88.237 F2040.000 E24.78837
G1 X111.123 Y95.955 E25.18605
G1 X115.010 Y95.955 E25.38631
G1 X115.010 Y88.237 E25.78399
G1 X125.170 Y88.237 E26.30749
G1 X125.170 Y80.519 E26.70516
G1 X131.943 Y80.519 E27.05415
G1 X131.943 Y72.801 E27.45182
G1 X151.763 Y72.801 E28.47305
G1 X151.763 Y80.019 E28.84496
G1 X138.217 Y80.019 E29.54296
G1 X138.217 Y88.237 E29.96639
G1 X155.150 Y88.237 E30.83888
G1 X155.150 Y102.463 E31.57188
G1 X152.547 Y102.463 E31.70600
G1 X153.079 Y100.713 E31.80026
G1 X152.499 Y98.804 E31.90304
G1 X150.948 Y97.506 E32.00726
G1 X148.922 Y97.225 E32.11265
G1 X148.371 Y97.468 E32.14368
G1 X146.620 Y97.225 E32.23473
G1 X146.507 Y97.275 E32.24115
G1 X146.507 Y97.275 E32.24115
G1 X144.757 Y98.047 E32.33969
G1 X143.645 Y99.718 E32.44309
G1 X143.645 Y101.708 E32.54564
G1 X144.055 Y102.324 E32.58375
G1 X143.980 Y102.463 E32.59189
G1 X139.694 Y102.463 E32.81275
G1 X139.694 Y127.537 E34.10469
G1 X143.980 Y127.537 E34.32555
G1 X144.055 Y127.676 E34.33369
G1 X143.645 Y128.292 E34.37180
G1 X143.645 Y130.282 E34.47435
G1 X144.757 Y131.953 E34.57775
G1 X146.620 Y132.775 E34.68271
G1 X147.514 Y132.651 E34.72917
G1 X147.786 Y132.776 E34.74462
G1 X148.644 Y132.653 E34.78925
G1 X148.922 Y132.775 E34.80491
G1 X150.948 Y132.494 E34.91030
G1 X151.288 Y132.210 E34.93313
G1 X151.288 Y132.210 E34.93313
G1 X152.499 Y131.196 E35.01452
G1 X153.079 Y129.287 E35.11730
G1 X152.547 Y127.537 E35.21156
G1 X155.150 Y127.537 E35.34568
G1 X155.150 Y141.763 E36.07868
G1 X138.217 Y141.763 E36.95117
G1 X138.217 Y149.981 E37.37460
G1 X151.763 Y149.981 E38.07260
G1 X151.763 Y157.199 E38.44451
G1 X131.943 Y157.199 E39.46574
G1 X131.943 Y149.481 E39.86341
G1 X125.170 Y149.481 E40.21240
G1 X125.170 Y141.763 E40.61007
G1 X115.010 Y141.763 E41.13357
G1 X115.010 Y134.045 E41.53125
G1 X111.123 Y134.045 E41.73151
G1 X111.123 Y141.763 E42.12919
G1 X104.850 Y141.763 E42.45242
G1 X104.850 Y134.545 E42.82433
G1 X108.237 Y134.545 E42.99883
G1 X108.237 Y126.827 E43.39650
G1 X115.010 Y126.827 E43.74550
G1 X115.010 Y103.173 E44.96428
G1 X108.237 Y103.173 E45.31328
G1 X108.237 Y95.455 E45.71094
G1 X104.850 Y95.455 E45.88545
G1 X104.850 Y88.631 E46.23704
G1 X105.539 Y88.980 F15000.000
G1 X110.435 Y93.876 F1440.000 E46.59510
G1 X110.435 Y94.563 F15000.000
G1 X105.539 Y89.668 F1440.000 E46.95315
G1 X105.539 Y90.355 F15000.000
G1 X110.434 Y95.250 F1440.000 E47.31121
G1 X110.434 Y95.938 F15000.000
G1 X108.925 Y94.429 F1440.000 E47.42157
G1 X109.263 Y94.766 F15000.000
G1 X105.539 Y91.042 F1440.000 E47.69396
G1 X105.539 Y91.729 F15000.000
G1 X108.576 Y94.766 F1440.000 E47.91610
G1 X108.925 Y95.116 F15000.000
G1 X110.434 Y96.625 F1440.000 E48.02646
G1 X110.453 Y96.644 F15000.000
G1 X127.793 Y113.984 F1440.000 E49.29466
G1 X128.049 Y113.552 F15000.000
G1 X111.141 Y96.644 F1440.000 E50.53128
G1 X111.828 Y96.644 F15000.000
G1 X128.431 Y113.247 F1440.000 E51.74560
G1 X128.813 Y112.942 F15000.000
G1 X112.515 Y96.644 F1440.000 E52.93763
G1 X113.202 Y96.644 F15000.000
G1 X129.196 Y112.637 F1440.000 E54.10736
G1 X129.578 Y112.332 F15000.000
G1 X113.890 Y96.644 F1440.000 E55.25480
G1 X114.577 Y96.644 F15000.000
G1 X129.961 Y112.027 F1440.000 E56.37995
G1 F6000.000 E53.37995
G92 E0
G1 X132.346 Y112.352 F15000.000
G1 F6000.000 E3.00000
G1 X115.699 Y95.705 F1440.000 E4.21754
G1 X115.699 Y96.392 F15000.000
G1 X131.455 Y112.149 F1440.000 E5.36996
G1 X130.565 Y111.945 E5.41720
G1 X115.263 Y96.644 E6.53631
G1 X115.699 Y95.018 F15000.000
G1 X118.988 Y98.307 F1440.000 E6.77689
G1 X119.054 Y98.373 F15000.000
G1 X139.005 Y118.324 F1440.000 E8.23613
G1 X139.005 Y119.011 F15000.000
G1 X133.159 Y113.166 F1440.000 E8.66369
G1 X133.798 Y114.491 F15000.000
G1 X139.005 Y119.699 F1440.000 E9.04457
G1 X139.005 Y120.386 F15000.000
G1 X133.724 Y115.105 F1440.000 E9.43083
G1 X133.501 Y115.568 F15000.000
G1 X139.005 Y121.072 F1440.000 E9.83339
G1 X139.005 Y121.759 F15000.000
G1 X133.278 Y116.032 F1440.000 E10.25228
G1 X133.054 Y116.496 F15000.000
G1 X139.005 Y122.447 F1440.000 E10.68752
G1 X139.005 Y123.134 F15000.000
G1 X132.831 Y116.960 F1440.000 E11.13910
G1 X132.607 Y117.423 F15000.000
G1 X139.005 Y123.821 F1440.000 E11.60702
G1 X139.005 Y124.508 F15000.000
G1 X132.079 Y117.582 F1440.000 E12.11362
G1 X131.519 Y117.710 F15000.000
G1 X139.005 Y125.196 F1440.000 E12.66114
G1 X139.005 Y125.883 F15000.000
G1 X130.960 Y117.838 F1440.000 E13.24956
G1 X130.400 Y117.965 F15000.000
G1 X139.004 Y126.570 F1440.000 E13.87889
G1 X139.005 Y127.256 F15000.000
G1 X129.841 Y118.092 F1440.000 E14.54913
G1 F6000.000 E11.54913
G92 E0
G1 X127.793 Y116.732 F15000.000
G1 F6000.000 E3.00000
G1 X124.473 Y113.412 F1440.000 E3.24282
G1 X124.266 Y112.517 E3.29032
G1 X115.699 Y103.950 E3.91689
G1 X115.699 Y103.264 F15000.000
G1 X127.793 Y115.358 F1440.000 E4.80145
G1 X127.793 Y116.045 F15000.000
G1 X123.835 Y112.086 F1440.000 E5.09097
G1 X123.375 Y112.314 E5.11749
G1 X115.699 Y104.637 E5.67893
G1 X115.699 Y105.325 F15000.000
G1 X122.485 Y112.111 F1440.000 E6.17524
G1 X121.594 Y111.907 E6.22248
G1 X115.699 Y106.012 E6.65366
G1 X115.699 Y106.699 F15000.000
G1 X121.084 Y112.084 F1440.000 E7.04753
G1 X120.702 Y112.389 F15000.000
G1 X115.699 Y107.386 F1440.000 E7.41343
G1 X115.699 Y108.074 F15000.000
G1 X120.319 Y112.694 F1440.000 E7.75138
G1 X119.937 Y112.999 F15000.000
G1 X115.699 Y108.761 F1440.000 E8.06135
G1 X115.699 Y109.447 F15000.000
G1 X119.555 Y113.303 F1440.000 E8.34337
G1 X119.173 Y113.608 F15000.000
G1 X115.699 Y110.135 F1440.000 E8.59743
G1 X115.699 Y110.822 F15000.000
G1 X118.988 Y114.111 F1440.000 E8.83801
G1 X118.988 Y114.798 F15000.000
G1 X115.699 Y111.509 F1440.000 E9.07859
G1 X115.699 Y112.196 F15000.000
G1 X118.988 Y115.486 F1440.000 E9.31916
G1 X118.988 Y116.173 F15000.000
G1 X115.699 Y112.883 F1440.000 E9.55974
G1 X115.699 Y113.571 F15000.000
G1 X132.998 Y130.870 F1440.000 E10.82502
G1 X133.330 Y131.889 E10.88045
G1 X142.515 Y141.075 E11.55224
G1 X143.203 Y141.075 F15000.000
G1 X132.692 Y130.564 F1440.000 E12.32100
G1 X132.107 Y130.667 E12.35168
G1 X115.699 Y114.258 E13.55180
G1 X115.699 Y114.945 F15000.000
G1 X131.217 Y130.464 F1440.000 E14.68682
G1 X130.327 Y130.259 E14.73406
G1 X115.699 Y115.632 E15.80391
G1 X115.699 Y116.319 F15000.000
G1 X129.858 Y130.478 F1440.000 E16.83949
G1 X129.476 Y130.783 F15000.000
G1 X115.699 Y117.006 F1440.000 E17.84709
G1 X115.699 Y117.693 F15000.000
G1 X129.093 Y131.087 F1440.000 E18.82672
G1 X128.711 Y131.393 F15000.000
G1 X115.699 Y118.381 F1440.000 E19.77843
G1 X115.699 Y119.068 F15000.000
G1 X128.329 Y131.698 F1440.000 E20.70216
G1 X127.946 Y132.002 F15000.000
G1 X115.699 Y119.755 F1440.000 E21.59793
G1 X115.699 Y120.442 F15000.000
G1 X127.793 Y132.536 F1440.000 E22.48247
G1 X127.793 Y133.223 F15000.000
G1 X115.699 Y121.129 F1440.000 E23.36702
G1 X115.699 Y121.816 F15000.000
G1 X127.793 Y133.910 F1440.000 E24.25158
G1 X127.793 Y134.597 F15000.000
G1 X124.006 Y130.810 F1440.000 E24.52862
G1 X123.137 Y130.628 E24.57450
G1 X115.699 Y123.190 E25.11851
G1 X115.699 Y123.878 F15000.000
G1 X122.247 Y130.426 F1440.000 E25.59742
G1 X121.364 Y130.230 E25.64416
G1 X115.699 Y124.565 E26.05854
G1 X115.699 Y125.252 F15000.000
G1 X120.982 Y130.535 F1440.000 E26.44494
G1 X120.599 Y130.840 F15000.000
G1 X115.699 Y125.939 F1440.000 E26.80336
G1 X115.699 Y126.627 F15000.000
G1 X120.217 Y131.145 F1440.000 E27.13382
G1 X119.835 Y131.449 F15000.000
G1 X115.699 Y127.313 F1440.000 E27.43629
G1 X115.214 Y127.516 F15000.000
G1 X119.453 Y131.754 F1440.000 E27.74630
G1 X119.070 Y132.059 F15000.000
G1 X114.527 Y127.516 F1440.000 E28.07859
G1 X113.840 Y127.516 F15000.000
G1 X118.988 Y132.664 F1440.000 E28.45514
G1 X118.988 Y133.352 F15000.000
G1 X113.153 Y127.516 F1440.000 E28.88196
G1 X112.465 Y127.516 F15000.000
G1 X118.988 Y134.038 F1440.000 E29.35899
