; generated by Slic3r 0.9.3 on 2013-06-01 at 00:53:47

; layer_height = 0.25
; perimeters = 2
; solid_layers = 2
; fill_density = 0.15
; perimeter_speed = 85
; infill_speed = 60
; travel_speed = 250
; scale = 1
; nozzle_diameter = 0.35
; filament_diameter = 1.7
; extrusion_multiplier = 1.0
; single wall width = 0.39mm

M104 S185 ; set temperature
;Standard Profile for Series 1. Single Extruder
M104 S185
M301 P24.72 I0.88 D231.1
G28
G1 X120 Y115 Z15 F10000
G92 E0
G1 Y5 Z15 F5000
M109 S185
G1 F100 E50
G92 E0
G1 X50 Z0.3 F10000
; do a little dance on a toothbrush to remove extrusions..  
G90 ; use absolute coordinates
G21 ; set units to millimeters
G92 E0
M82 ; use absolute distances for extrusion
M106 S255
G1 F6000.000 E-3.00000
G92 E0
G1 Z0.250 F15000.000
G1 X73.280 Y37.232
G1 F6000.000 E3.00000
G1 X100.620 Y21.662 F2040.000 E4.33363
G1 X101.120 Y21.432 E4.35695
G1 X101.900 Y21.162 E4.39194
G1 X102.720 Y21.002 E4.42735
G1 X102.990 Y20.972 E4.43887
G1 X103.540 Y20.952 E4.46220
G1 X180.680 Y20.972 E7.73197
G1 X181.460 Y21.082 E7.76536
G1 X181.970 Y21.212 E7.78767
G1 X182.470 Y21.382 E7.81006
G1 X182.950 Y21.592 E7.83227
G1 X183.410 Y21.842 E7.85446
G1 X183.850 Y22.122 E7.87656
G1 X184.270 Y22.452 E7.89920
G1 X184.660 Y22.802 E7.92142
G1 X185.010 Y23.182 E7.94331
G1 X185.490 Y23.812 E7.97689
G1 X185.760 Y24.262 E7.99913
G1 X185.990 Y24.732 E8.02131
G1 X186.190 Y25.222 E8.04374
G1 X186.340 Y25.722 E8.06587
G1 X189.880 Y41.962 E8.77041
G1 X189.910 Y42.232 E8.78192
G1 X189.910 Y187.752 E14.95016
G1 X189.880 Y188.022 E14.96167
G1 X186.340 Y204.262 E15.66621
G1 X186.190 Y204.762 E15.68834
G1 X185.880 Y205.492 E15.72196
G1 X185.630 Y205.952 E15.74415
G1 X185.490 Y206.172 E15.75520
G1 X185.010 Y206.802 E15.78877
G1 X184.660 Y207.182 E15.81067
G1 X184.060 Y207.702 E15.84433
G1 X183.850 Y207.862 E15.85552
G1 X183.180 Y208.272 E15.88881
G1 X182.710 Y208.502 E15.91099
G1 X182.220 Y208.692 E15.93327
G1 X181.720 Y208.842 E15.95540
G1 X181.460 Y208.902 E15.96671
G1 X180.680 Y209.012 E16.00010
G1 X180.160 Y209.032 E16.02215
G1 X102.990 Y209.012 E19.29320
G1 X102.720 Y208.982 E19.30472
G1 X101.900 Y208.822 E19.34013
G1 X101.120 Y208.552 E19.37512
G1 X100.620 Y208.322 E19.39844
G1 X72.820 Y192.472 E20.75489
G1 X72.190 Y191.972 E20.78898
G1 X71.800 Y191.592 E20.81206
G1 X71.450 Y191.192 E20.83459
G1 X71.280 Y190.972 E20.84637
G1 X70.980 Y190.532 E20.86895
G1 X70.720 Y190.062 E20.89172
G1 X70.500 Y189.562 E20.91487
G1 X70.250 Y188.802 E20.94878
G1 X70.100 Y188.012 E20.98287
G1 X70.070 Y187.742 E20.99438
G1 X70.070 Y42.242 E27.16177
G1 X70.190 Y41.442 E27.19606
G1 X70.250 Y41.182 E27.20737
G1 X70.500 Y40.422 E27.24128
G1 X70.720 Y39.922 E27.26444
G1 X70.980 Y39.452 E27.28720
G1 X71.280 Y39.012 E27.30978
G1 X71.800 Y38.392 E27.34408
G1 X72.190 Y38.012 E27.36716
G1 X72.600 Y37.672 E27.38973
G1 X72.820 Y37.512 E27.40127
G1 X72.943 Y37.437 E27.40738
G1 F6000.000 E24.40738
G92 E0
G1 X147.593 Y49.892 F15000.000
G1 F6000.000 E3.00000
G1 X149.611 Y48.283 F1440.000 E3.13296
G1 X152.126 Y48.857 E3.26589
G1 X153.246 Y51.182 E3.39884
G1 X152.126 Y53.507 E3.53180
G1 X149.611 Y54.081 E3.66473
G1 X147.593 Y52.473 E3.79769
G1 X147.593 Y50.286 E3.91035
G1 X148.077 Y50.125 F15000.000
G1 X149.730 Y48.807 F1440.000 E4.01930
G1 X151.791 Y49.277 E4.12821
G1 X152.708 Y51.182 E4.23716
G1 X151.791 Y53.087 E4.34610
G1 X149.730 Y53.558 E4.45501
G1 X148.077 Y52.240 E4.56396
G1 X148.077 Y50.519 E4.65261
G1 F6000.000 E1.65261
G92 E0
G1 X156.398 Y49.892 F15000.000
G1 F6000.000 E3.00000
G1 X158.416 Y48.283 F1440.000 E3.13296
G1 X160.931 Y48.857 E3.26589
G1 X162.051 Y51.182 E3.39884
G1 X160.931 Y53.507 E3.53180
G1 X158.416 Y54.081 E3.66473
G1 X156.398 Y52.473 E3.79769
G1 X156.398 Y50.286 E3.91035
G1 X156.882 Y50.125 F15000.000
G1 X158.535 Y48.807 F1440.000 E4.01930
G1 X160.596 Y49.277 E4.12821
G1 X161.513 Y51.182 E4.23716
G1 X160.596 Y53.087 E4.34610
G1 X158.535 Y53.558 E4.45501
G1 X156.882 Y52.240 E4.56396
G1 X156.882 Y50.519 E4.65261
G1 F6000.000 E1.65261
G92 E0
G1 X158.416 Y66.652 F15000.000
G1 F6000.000 E3.00000
G1 X160.931 Y67.226 F1440.000 E3.13293
G1 X162.051 Y69.551 E3.26588
G1 X160.931 Y71.876 E3.39884
G1 X158.416 Y72.450 E3.53176
G1 X156.398 Y70.842 E3.66473
G1 X156.398 Y68.261 E3.79771
G1 X158.107 Y66.898 E3.91035
G1 X158.535 Y67.176 F15000.000
G1 X160.596 Y67.646 F1440.000 E4.01927
G1 X161.513 Y69.551 E4.12821
G1 X160.596 Y71.456 E4.23715
G1 X158.535 Y71.927 E4.34607
G1 X156.882 Y70.609 E4.45501
G1 X156.882 Y68.494 E4.56398
G1 X158.227 Y67.422 E4.65261
G1 F6000.000 E1.65261
G92 E0
G1 X153.246 Y69.551 F15000.000
G1 F6000.000 E3.00000
G1 X152.126 Y71.876 F1440.000 E3.13296
G1 X149.611 Y72.450 E3.26588
G1 X147.593 Y70.842 E3.39884
G1 X147.593 Y68.261 E3.53183
G1 X149.611 Y66.652 E3.66479
G1 X152.126 Y67.226 E3.79772
G1 X153.074 Y69.196 E3.91035
G1 X152.708 Y69.551 F15000.000
G1 X151.791 Y71.456 F1440.000 E4.01930
G1 X149.730 Y71.927 E4.12821
G1 X148.077 Y70.609 E4.23716
G1 X148.077 Y68.494 E4.34612
G1 X149.730 Y67.176 E4.45507
G1 X151.791 Y67.646 E4.56398
G1 X152.537 Y69.196 E4.65261
G1 F6000.000 E1.65261
G92 E0
G1 X149.611 Y85.021 F15000.000
G1 F6000.000 E3.00000
G1 X152.126 Y85.595 F1440.000 E3.13293
G1 X153.246 Y87.920 E3.26588
G1 X152.126 Y90.245 E3.39884
G1 X149.611 Y90.819 E3.53176
G1 X147.593 Y89.211 E3.66473
G1 X147.593 Y86.630 E3.79771
G1 X149.302 Y85.267 E3.91035
G1 X149.730 Y85.545 F15000.000
G1 X151.791 Y86.015 F1440.000 E4.01927
G1 X152.708 Y87.920 E4.12821
G1 X151.791 Y89.825 E4.23715
G1 X149.730 Y90.296 E4.34607
G1 X148.077 Y88.978 E4.45501
G1 X148.077 Y86.863 E4.56398
G1 X149.422 Y85.791 E4.65261
G1 F6000.000 E1.65261
G92 E0
G1 X156.398 Y86.630 F15000.000
G1 F6000.000 E3.00000
G1 X158.416 Y85.021 F1440.000 E3.13296
G1 X160.931 Y85.595 E3.26589
G1 X162.051 Y87.920 E3.39884
G1 X160.931 Y90.245 E3.53180
G1 X158.416 Y90.819 E3.66473
G1 X156.398 Y89.211 E3.79769
G1 X156.398 Y87.024 E3.91035
G1 X156.882 Y86.863 F15000.000
G1 X158.535 Y85.545 F1440.000 E4.01930
G1 X160.596 Y86.015 E4.12821
G1 X161.513 Y87.920 E4.23716
G1 X160.596 Y89.825 E4.34610
G1 X158.535 Y90.296 E4.45501
G1 X156.882 Y88.978 E4.56396
G1 X156.882 Y87.257 E4.65261
G1 F6000.000 E1.65261
G92 E0
G1 X179.679 Y111.266 F15000.000
G1 F6000.000 E3.00000
G1 X160.827 Y111.266 F2040.000 E3.97137
G1 X160.827 Y103.548 E4.36903
G1 X154.054 Y103.548 E4.71803
G1 X154.054 Y95.830 E5.11570
G1 X143.894 Y95.830 E5.63920
G1 X143.894 Y88.112 E6.03688
G1 X139.039 Y88.112 E6.28701
G1 X139.039 Y95.830 E6.68468
G1 X133.734 Y95.830 E6.95805
G1 X133.734 Y89.580 E7.28009
G1 X137.121 Y89.580 E7.45459
G1 X137.121 Y81.862 E7.85226
G1 X143.894 Y81.862 E8.20126
G1 X143.894 Y57.240 E9.46991
G1 X137.121 Y57.240 E9.81890
G1 X137.121 Y49.522 E10.21657
G1 X133.734 Y49.522 E10.39107
G1 X133.734 Y43.272 E10.71312
G1 X139.039 Y43.272 E10.98648
G1 X139.039 Y50.990 E11.38416
G1 X143.894 Y50.990 E11.63429
G1 X143.894 Y43.272 E12.03197
G1 X154.054 Y43.272 E12.55546
G1 X154.054 Y35.554 E12.95313
G1 X160.827 Y35.554 E13.30213
G1 X160.827 Y27.836 E13.69980
G1 X179.679 Y27.836 E14.67117
G1 X179.679 Y34.086 E14.99320
G1 X166.133 Y34.086 E15.69120
G1 X166.133 Y43.272 E16.16450
G1 X183.066 Y43.272 E17.03699
G1 X183.066 Y56.530 E17.72013
G1 X181.600 Y56.530 E17.79567
G1 X181.985 Y55.264 E17.86387
G1 X181.399 Y53.336 E17.96771
G1 X181.399 Y53.336 E17.96771
G1 X181.320 Y53.077 E17.98165
G1 X179.552 Y51.597 E18.10045
G1 X177.252 Y51.278 E18.22008
G1 X176.701 Y51.521 E18.25111
G1 X174.951 Y51.278 E18.34216
G1 X174.423 Y51.511 E18.37191
G1 X174.423 Y51.511 E18.37191
G1 X172.832 Y52.212 E18.46148
G1 X171.561 Y54.123 E18.57970
G1 X171.561 Y56.530 E18.70376
G1 X167.610 Y56.530 E18.90734
G1 X167.610 Y82.572 E20.24916
G1 X171.561 Y82.572 E20.45274
G1 X171.561 Y84.980 E20.57680
G1 X172.832 Y86.890 E20.69502
G1 X174.372 Y87.569 E20.78172
G1 X174.372 Y87.569 E20.78172
G1 X174.951 Y87.825 E20.81434
G1 X175.841 Y87.701 E20.86063
G1 X176.115 Y87.826 E20.87615
G1 X176.975 Y87.702 E20.92094
G1 X177.252 Y87.825 E20.93654
G1 X179.552 Y87.505 E21.05617
G1 X181.320 Y86.026 E21.17497
G1 X181.985 Y83.839 E21.29275
G1 X181.600 Y82.572 E21.36095
G1 X183.066 Y82.572 E21.43650
G1 X183.066 Y95.830 E22.11963
G1 X166.133 Y95.830 E22.99213
G1 X166.133 Y105.016 E23.46542
G1 X179.679 Y105.016 E24.16342
G1 X179.679 Y110.872 E24.46514
G1 X180.163 Y111.750 F15000.000
G1 X160.343 Y111.750 F2040.000 E25.48637
G1 X160.343 Y104.032 E25.88404
G1 X153.570 Y104.032 E26.23304
G1 X153.570 Y96.314 E26.63071
G1 X143.410 Y96.314 E27.15420
G1 X143.410 Y88.596 E27.55188
G1 X139.523 Y88.596 E27.75215
G1 X139.523 Y96.314 E28.14982
G1 X133.250 Y96.314 E28.47305
G1 X133.250 Y89.096 E28.84496
G1 X136.637 Y89.096 E29.01947
G1 X136.637 Y81.378 E29.41713
G1 X143.410 Y81.378 E29.76613
G1 X143.410 Y57.724 E30.98491
G1 X136.637 Y57.724 E31.33391
G1 X136.637 Y50.006 E31.73158
G1 X133.250 Y50.006 E31.90608
G1 X133.250 Y42.788 E32.27799
G1 X139.523 Y42.788 E32.60122
G1 X139.523 Y50.506 E32.99890
G1 X143.410 Y50.506 E33.19916
G1 X143.410 Y42.788 E33.59684
G1 X153.570 Y42.788 E34.12034
G1 X153.570 Y35.070 E34.51801
G1 X160.343 Y35.070 E34.86700
G1 X160.343 Y27.352 E35.26467
G1 X180.163 Y27.352 E36.28590
G1 X180.163 Y34.570 E36.65781
G1 X166.617 Y34.570 E37.35581
G1 X166.617 Y42.788 E37.77924
G1 X183.550 Y42.788 E38.65173
G1 X183.550 Y57.014 E39.38473
G1 X180.947 Y57.014 E39.51885
G1 X181.479 Y55.264 E39.61311
G1 X180.899 Y53.355 E39.71589
G1 X179.348 Y52.057 E39.82011
G1 X177.322 Y51.776 E39.92550
G1 X176.771 Y52.019 E39.95653
G1 X175.020 Y51.776 E40.04758
G1 X174.907 Y51.826 E40.05400
G1 X174.907 Y51.826 E40.05400
G1 X173.157 Y52.598 E40.15254
G1 X172.045 Y54.269 E40.25594
G1 X172.045 Y56.259 E40.35849
G1 X172.455 Y56.875 E40.39661
G1 X172.380 Y57.014 E40.40475
G1 X168.094 Y57.014 E40.62560
G1 X168.094 Y82.088 E41.91754
G1 X172.380 Y82.088 E42.13840
G1 X172.455 Y82.227 E42.14654
G1 X172.045 Y82.843 E42.18465
G1 X172.045 Y84.834 E42.28720
G1 X173.157 Y86.504 E42.39060
G1 X175.020 Y87.326 E42.49556
G1 X175.914 Y87.202 E42.54202
G1 X176.186 Y87.327 E42.55747
G1 X177.044 Y87.204 E42.60210
G1 X177.322 Y87.326 E42.61776
G1 X179.348 Y87.045 E42.72315
G1 X179.688 Y86.761 E42.74598
G1 X179.688 Y86.761 E42.74599
G1 X180.899 Y85.747 E42.82737
G1 X181.479 Y83.839 E42.93015
G1 X180.947 Y82.088 E43.02441
G1 X183.550 Y82.088 E43.15853
G1 X183.550 Y96.314 E43.89153
G1 X166.617 Y96.314 E44.76402
G1 X166.617 Y104.532 E45.18745
G1 X180.163 Y104.532 E45.88545
G1 X180.163 Y111.356 E46.23704
G1 X179.475 Y111.056 F15000.000
G1 X173.639 Y105.220 F1440.000 E46.66384
G1 X172.953 Y105.221 F15000.000
G1 X178.793 Y111.061 F1440.000 E47.09096
G1 X178.105 Y111.061 F15000.000
G1 X172.265 Y105.221 F1440.000 E47.51808
G1 X171.578 Y105.221 F15000.000
G1 X177.418 Y111.061 F1440.000 E47.94519
G1 X176.731 Y111.061 F15000.000
G1 X170.891 Y105.221 F1440.000 E48.37231
G1 X170.204 Y105.221 F15000.000
G1 X176.044 Y111.062 F1440.000 E48.79948
G1 X175.357 Y111.062 F15000.000
G1 X169.516 Y105.221 F1440.000 E49.22665
G1 X168.830 Y105.220 F15000.000
G1 X174.670 Y111.061 F1440.000 E49.65382
G1 X173.983 Y111.061 F15000.000
G1 X168.142 Y105.220 F1440.000 E50.08099
G1 X167.455 Y105.220 F15000.000
G1 X173.296 Y111.061 F1440.000 E50.50815
G1 X172.608 Y111.061 F15000.000
G1 X166.768 Y105.221 F1440.000 E50.93527
G1 X166.081 Y105.221 F15000.000
G1 X171.921 Y111.061 F1440.000 E51.36239
G1 X171.234 Y111.061 F15000.000
G1 X165.394 Y105.221 F1440.000 E51.78951
G1 X165.928 Y105.068 F15000.000
G1 X151.420 Y90.560 F1440.000 E52.85057
G1 X151.979 Y90.432 F15000.000
G1 X165.928 Y104.381 F1440.000 E53.87078
G1 X165.928 Y103.694 F15000.000
G1 X152.324 Y90.090 F1440.000 E54.86575
G1 X152.548 Y89.626 F15000.000
G1 X165.928 Y103.006 F1440.000 E55.84438
G1 X165.928 Y102.319 F15000.000
G1 X152.771 Y89.162 F1440.000 E56.80666
G1 X152.994 Y88.699 F15000.000
G1 X165.928 Y101.632 F1440.000 E57.75260
G1 X165.928 Y100.945 F15000.000
G1 X153.217 Y88.235 F1440.000 E58.68220
G1 X153.441 Y87.771 F15000.000
G1 X165.928 Y100.258 F1440.000 E59.59546
G1 X165.928 Y99.570 F15000.000
G1 X153.044 Y86.687 F1440.000 E60.53773
G1 X152.427 Y85.383 F15000.000
G1 X144.099 Y77.054 F1440.000 E61.14689
G1 X144.099 Y76.367 F15000.000
G1 X156.193 Y88.462 F1440.000 E62.03150
G1 X156.193 Y87.775 F15000.000
G1 X144.099 Y75.680 F1440.000 E62.91605
G1 X144.099 Y74.993 F15000.000
G1 X156.193 Y87.087 F1440.000 E63.80060
G1 X156.346 Y86.554 F15000.000
G1 X144.099 Y74.306 F1440.000 E64.69638
G1 X144.099 Y73.619 F15000.000
G1 X156.728 Y86.249 F1440.000 E65.62008
G1 X157.111 Y85.944 F15000.000
G1 X144.099 Y72.932 F1440.000 E66.57177
G1 X144.099 Y72.245 F15000.000
G1 X157.493 Y85.639 F1440.000 E67.55143
G1 X157.876 Y85.334 F15000.000
G1 X144.099 Y71.557 F1440.000 E68.55907
G1 X144.099 Y70.870 F15000.000
G1 X158.258 Y85.030 F1440.000 E69.59469
G1 X158.727 Y84.811 F15000.000
G1 X144.099 Y70.183 F1440.000 E70.66455
G1 X144.099 Y69.496 F15000.000
G1 X159.617 Y85.014 F1440.000 E71.79951
G1 F6000.000 E68.79951
G92 E0
G1 X162.288 Y87.685 F15000.000
G1 F6000.000 E3.00000
G1 X170.228 Y95.625 F1440.000 E3.58072
G1 X169.542 Y95.626 F15000.000
G1 X162.065 Y88.149 F1440.000 E4.12756
G1 X161.841 Y88.613 F15000.000
G1 X168.854 Y95.626 F1440.000 E4.64047
G1 X168.167 Y95.626 F15000.000
G1 X161.618 Y89.076 F1440.000 E5.11946
G1 X161.394 Y89.540 F15000.000
G1 X167.480 Y95.626 F1440.000 E5.56453
G1 X166.792 Y95.626 F15000.000
G1 X161.171 Y90.004 F1440.000 E5.97566
G1 X160.888 Y90.409 F15000.000
G1 X166.105 Y95.626 F1440.000 E6.35722
G1 X165.928 Y96.135 F15000.000
G1 X160.329 Y90.537 F1440.000 E6.76670
G1 X159.770 Y90.664 F15000.000
G1 X165.928 Y96.822 F1440.000 E7.21709
G1 X165.928 Y97.509 F15000.000
G1 X159.210 Y90.791 F1440.000 E7.70844
G1 X158.651 Y90.919 F15000.000
G1 X165.928 Y98.197 F1440.000 E8.24070
G1 X165.928 Y98.884 F15000.000
G1 X158.092 Y91.047 F1440.000 E8.81386
G1 F6000.000 E5.81386
G92 E0
G1 X156.193 Y89.149 F15000.000
G1 F6000.000 E3.00000
G1 X152.406 Y85.361 F1440.000 E3.27703
G1 X151.537 Y85.180 F15000.000
G1 X144.099 Y77.742 F1440.000 E3.82108
G1 X144.099 Y78.429 F15000.000
G1 X150.646 Y84.976 F1440.000 E4.29997
G1 X149.764 Y84.781 E4.34671
G1 X144.099 Y79.116 E4.76105
G1 X144.099 Y79.803 F15000.000
G1 X149.381 Y85.086 F1440.000 E5.14742
G1 X149.000 Y85.391 F15000.000
G1 X144.099 Y80.490 F1440.000 E5.50585
G1 X144.099 Y81.177 F15000.000
G1 X148.618 Y85.696 F1440.000 E5.83631
G1 X148.235 Y86.000 F15000.000
G1 X144.099 Y81.865 F1440.000 E6.13879
G1 X143.614 Y82.067 F15000.000
G1 X147.852 Y86.305 F1440.000 E6.44877
G1 X147.470 Y86.610 F15000.000
G1 X142.927 Y82.067 F1440.000 E6.78104
G1 X142.240 Y82.067 F15000.000
G1 X147.388 Y87.215 F1440.000 E7.15758
G1 X147.388 Y87.902 F15000.000
G1 X141.552 Y82.067 F1440.000 E7.58438
G1 X140.866 Y82.068 F15000.000
G1 X147.388 Y88.590 F1440.000 E8.06141
G1 X147.388 Y89.277 F15000.000
G1 X140.178 Y82.068 F1440.000 E8.58870
G1 X139.492 Y82.067 F15000.000
G1 X153.050 Y95.625 F1440.000 E9.58031
G1 X152.363 Y95.626 F15000.000
G1 X144.099 Y87.362 F1440.000 E10.18471
G1 X143.958 Y87.907 F15000.000
G1 X138.117 Y82.067 F1440.000 E10.61188
G1 X138.804 Y82.067 F15000.000
G1 X144.644 Y87.907 F1440.000 E11.03900
G1 X144.099 Y88.048 F15000.000
G1 X151.676 Y95.626 F1440.000 E11.59318
G1 X150.988 Y95.626 F15000.000
G1 X144.099 Y88.736 F1440.000 E12.09710
G1 X144.099 Y89.423 F15000.000
G1 X150.301 Y95.626 F1440.000 E12.55075
G1 X149.614 Y95.626 F15000.000
G1 X144.099 Y90.110 F1440.000 E12.95413
G1 X144.099 Y90.798 F15000.000
G1 X148.927 Y95.626 F1440.000 E13.30724
G1 X148.239 Y95.626 F15000.000
G1 X144.099 Y91.485 F1440.000 E13.61008
G1 X144.099 Y92.171 F15000.000
G1 X147.553 Y95.625 F1440.000 E13.86265
G1 X146.865 Y95.625 F15000.000
G1 X144.099 Y92.859 F1440.000 E14.06495
G1 X144.099 Y93.546 F15000.000
G1 X146.179 Y95.626 F1440.000 E14.21704
G1 X145.491 Y95.626 F15000.000
G1 X144.099 Y94.233 F1440.000 E14.31891
G1 X144.099 Y94.920 F15000.000
G1 X144.804 Y95.626 F1440.000 E14.37051
G1 F6000.000 E11.37051
G92 E0
G1 X138.835 Y95.153 F15000.000
G1 F6000.000 E3.00000
G1 X133.939 Y90.257 F1440.000 E3.35807
G1 X134.154 Y89.785 F15000.000
G1 X138.835 Y94.466 F1440.000 E3.70043
