; generated by Slic3r 0.9.3 on 2013-04-30 at 19:12:44

; layer_height = 0.25
; perimeters = 2
; solid_layers = 2
; fill_density = 0.15
; perimeter_speed = 85
; infill_speed = 60
; travel_speed = 250
; scale = 1
; nozzle_diameter = 0.35
; filament_diameter = 1.7
; extrusion_multiplier = 1.0
; single wall width = 0.39mm

M104 S185 ; set temperature
;Standard Profile for Series 1. Single Extruder
M104 S185
M301 P24.72 I0.88 D231.1
G28
G1 X120 Y115 Z15 F10000
G92 E0
G1 Y5 Z15 F5000
M109 S185
G1 F100 E50
G92 E0
G1 X50 Z0.3 F10000
; do a little dance on a toothbrush to remove extrusions..  
G90 ; use absolute coordinates
G21 ; set units to millimeters
G92 E0
M82 ; use absolute distances for extrusion
M106 S255
G1 F6000.000 E-3.00000
G92 E0
G1 Z0.250 F15000.000
G1 X58.580 Y53.884
G1 F6000.000 E3.00000
G1 X58.760 Y53.694 F2040.000 E3.01109
G1 X59.150 Y53.334 E3.03359
G1 X59.570 Y53.014 E3.05597
G1 X60.010 Y52.724 E3.07831
G1 X60.470 Y52.474 E3.10050
G1 X60.960 Y52.264 E3.12310
G1 X61.460 Y52.094 E3.14548
G1 X61.970 Y51.964 E3.16779
G1 X62.490 Y51.874 E3.19016
G1 X62.750 Y51.844 E3.20126
G1 X63.280 Y51.824 E3.22374
G1 X197.230 Y51.844 E8.90155
G1 X197.750 Y51.914 E8.92379
G1 X198.270 Y52.024 E8.94632
G1 X198.770 Y52.174 E8.96845
G1 X199.270 Y52.364 E8.99112
G1 X199.740 Y52.594 E9.01330
G1 X200.190 Y52.864 E9.03554
G1 X200.410 Y53.014 E9.04683
G1 X200.830 Y53.334 E9.06921
G1 X201.220 Y53.694 E9.09171
G1 X201.580 Y54.084 E9.11420
G1 X201.900 Y54.504 E9.13659
G1 X202.190 Y54.944 E9.15892
G1 X202.440 Y55.404 E9.18111
G1 X202.650 Y55.894 E9.20371
G1 X202.820 Y56.394 E9.22610
G1 X202.950 Y56.904 E9.24841
G1 X203.040 Y57.424 E9.27077
G1 X203.070 Y57.684 E9.28187
G1 X203.080 Y112.024 E11.58521
G1 X203.030 Y112.584 E11.60904
G1 X202.940 Y113.144 E11.63308
G1 X202.790 Y113.684 E11.65684
G1 X202.700 Y113.944 E11.66850
G1 X202.480 Y114.464 E11.69243
G1 X202.220 Y114.964 E11.71632
G1 X201.750 Y115.664 E11.75206
G1 X154.950 Y175.904 E14.98551
G1 X154.400 Y176.474 E15.01908
G1 X154.000 Y176.814 E15.04134
G1 X153.790 Y176.974 E15.05253
G1 X153.340 Y177.264 E15.07522
G1 X152.880 Y177.514 E15.09741
G1 X152.400 Y177.724 E15.11962
G1 X151.900 Y177.894 E15.14200
G1 X151.380 Y178.024 E15.16472
G1 X150.860 Y178.114 E15.18709
G1 X150.600 Y178.144 E15.19819
G1 X150.070 Y178.164 E15.22067
G1 X109.400 Y178.144 E16.94457
G1 X108.880 Y178.074 E16.96681
G1 X108.360 Y177.964 E16.98934
G1 X107.850 Y177.814 E17.01187
G1 X107.360 Y177.624 E17.03415
G1 X106.890 Y177.394 E17.05633
G1 X106.430 Y177.124 E17.07894
G1 X106.210 Y176.974 E17.09022
G1 X106.000 Y176.814 E17.10141
G1 X105.600 Y176.474 E17.12367
G1 X105.410 Y176.294 E17.13476
G1 X105.050 Y175.904 E17.15726
G1 X58.230 Y115.664 E20.39123
G1 X57.760 Y114.964 E20.42697
G1 X57.500 Y114.464 E20.45085
G1 X57.280 Y113.944 E20.47479
G1 X57.110 Y113.414 E20.49838
G1 X57.040 Y113.144 E20.51020
G1 X56.950 Y112.584 E20.53425
G1 X56.900 Y112.024 E20.55808
G1 X56.910 Y57.684 E22.86142
G1 X56.980 Y57.164 E22.88366
G1 X57.090 Y56.644 E22.90619
G1 X57.240 Y56.144 E22.92831
G1 X57.430 Y55.644 E22.95098
G1 X57.660 Y55.174 E22.97316
G1 X57.930 Y54.724 E22.99541
G1 X58.080 Y54.504 E23.00670
G1 X58.324 Y54.184 E23.02377
G1 F6000.000 E20.02377
G92 E0
G1 X114.113 Y65.328 F15000.000
G1 F6000.000 E3.00000
G1 X116.131 Y63.719 F1440.000 E3.13296
G1 X118.646 Y64.293 E3.26589
G1 X119.766 Y66.618 E3.39884
G1 X118.646 Y68.943 E3.53180
G1 X116.131 Y69.517 E3.66473
G1 X114.113 Y67.908 E3.79769
G1 X114.113 Y65.722 E3.91036
G1 X114.597 Y65.561 F15000.000
G1 X116.250 Y64.242 F1440.000 E4.01930
G1 X118.311 Y64.713 E4.12821
G1 X119.228 Y66.618 E4.23716
G1 X118.311 Y68.523 E4.34610
G1 X116.250 Y68.994 E4.45501
G1 X114.597 Y67.675 E4.56396
G1 X114.597 Y65.955 E4.65261
G1 F6000.000 E1.65261
G92 E0
G1 X122.918 Y65.328 F15000.000
G1 F6000.000 E3.00000
G1 X124.936 Y63.719 F1440.000 E3.13296
G1 X127.451 Y64.293 E3.26589
G1 X128.571 Y66.618 E3.39884
G1 X127.451 Y68.943 E3.53180
G1 X124.936 Y69.517 E3.66473
G1 X122.918 Y67.908 E3.79769
G1 X122.918 Y65.722 E3.91035
G1 X123.402 Y65.561 F15000.000
G1 X125.055 Y64.242 F1440.000 E4.01930
G1 X127.116 Y64.713 E4.12821
G1 X128.033 Y66.618 E4.23716
G1 X127.116 Y68.523 E4.34610
G1 X125.055 Y68.994 E4.45501
G1 X123.402 Y67.675 E4.56396
G1 X123.402 Y65.955 E4.65261
G1 F6000.000 E1.65261
G92 E0
G1 X124.936 Y82.088 F15000.000
G1 F6000.000 E3.00000
G1 X127.451 Y82.662 F1440.000 E3.13292
G1 X128.571 Y84.987 E3.26588
G1 X127.451 Y87.312 E3.39884
G1 X124.936 Y87.886 E3.53176
G1 X122.918 Y86.277 E3.66473
G1 X122.918 Y83.697 E3.79771
G1 X124.627 Y82.334 E3.91035
G1 X125.055 Y82.611 F15000.000
G1 X127.116 Y83.082 F1440.000 E4.01927
G1 X128.033 Y84.987 E4.12821
G1 X127.116 Y86.892 E4.23715
G1 X125.055 Y87.363 E4.34607
G1 X123.402 Y86.044 E4.45501
G1 X123.402 Y83.930 E4.56398
G1 X124.747 Y82.857 E4.65261
G1 F6000.000 E1.65261
G92 E0
G1 X119.766 Y84.987 F15000.000
G1 F6000.000 E3.00000
G1 X118.646 Y87.312 F1440.000 E3.13296
G1 X116.131 Y87.886 E3.26588
G1 X114.113 Y86.277 E3.39884
G1 X114.113 Y83.697 E3.53183
G1 X116.131 Y82.088 E3.66479
G1 X118.646 Y82.662 E3.79772
G1 X119.594 Y84.632 E3.91036
G1 X119.228 Y84.987 F15000.000
G1 X118.311 Y86.892 F1440.000 E4.01930
G1 X116.250 Y87.363 E4.12821
G1 X114.597 Y86.044 E4.23716
G1 X114.597 Y83.930 E4.34613
G1 X116.250 Y82.611 E4.45507
G1 X118.311 Y83.082 E4.56398
G1 X119.057 Y84.632 E4.65261
G1 F6000.000 E1.65261
G92 E0
G1 X116.131 Y100.457 F15000.000
G1 F6000.000 E3.00000
G1 X118.646 Y101.031 F1440.000 E3.13292
G1 X119.766 Y103.356 E3.26588
G1 X118.646 Y105.681 E3.39884
G1 X116.131 Y106.255 E3.53176
G1 X114.113 Y104.646 E3.66473
G1 X114.113 Y102.066 E3.79771
G1 X115.822 Y100.703 E3.91036
G1 X116.250 Y100.980 F15000.000
G1 X118.311 Y101.451 F1440.000 E4.01927
G1 X119.228 Y103.356 E4.12821
G1 X118.311 Y105.261 E4.23715
G1 X116.250 Y105.732 E4.34607
G1 X114.597 Y104.413 E4.45501
G1 X114.597 Y102.299 E4.56398
G1 X115.942 Y101.226 E4.65261
G1 F6000.000 E1.65261
G92 E0
G1 X122.918 Y102.066 F15000.000
G1 F6000.000 E3.00000
G1 X124.936 Y100.457 F1440.000 E3.13296
G1 X127.451 Y101.031 E3.26589
G1 X128.571 Y103.356 E3.39884
G1 X127.451 Y105.681 E3.53180
G1 X124.936 Y106.255 E3.66473
G1 X122.918 Y104.646 E3.79769
G1 X122.918 Y102.460 E3.91036
G1 X123.402 Y102.299 F15000.000
G1 X125.055 Y100.980 F1440.000 E4.01930
G1 X127.116 Y101.451 E4.12821
G1 X128.033 Y103.356 E4.23716
G1 X127.116 Y105.261 E4.34610
G1 X125.055 Y105.732 E4.45501
G1 X123.402 Y104.413 E4.56396
G1 X123.402 Y102.693 E4.65261
G1 F6000.000 E1.65261
G92 E0
G1 X110.414 Y58.708 F15000.000
G1 F6000.000 E3.00000
G1 X149.586 Y58.708 F2040.000 E5.01836
G1 X149.586 Y71.966 E5.70150
G1 X146.865 Y71.966 E5.84169
G1 X147.237 Y70.700 E5.90968
G1 X146.597 Y68.521 E6.02666
G1 X144.882 Y67.035 E6.14362
G1 X142.634 Y66.712 E6.26062
G1 X140.570 Y67.655 E6.37754
G1 X139.342 Y69.564 E6.49452
G1 X139.342 Y71.966 E6.61827
G1 X134.130 Y71.966 E6.88682
G1 X134.130 Y98.008 E8.22864
G1 X139.342 Y98.008 E8.49719
G1 X139.342 Y100.410 E8.62094
G1 X140.570 Y102.319 E8.73791
G1 X142.634 Y103.262 E8.85483
G1 X144.882 Y102.939 E8.97183
G1 X146.597 Y101.453 E9.08879
G1 X147.237 Y99.274 E9.20578
G1 X146.865 Y98.008 E9.27377
G1 X149.586 Y98.008 E9.41396
G1 X149.586 Y111.266 E10.09709
G1 X110.414 Y111.266 E12.11545
G1 X110.414 Y59.102 E14.80322
G1 X109.930 Y58.224 F15000.000
G1 X150.070 Y58.224 F2040.000 E16.87145
G1 X150.070 Y72.450 E17.60445
G1 X146.219 Y72.450 E17.80288
G1 X146.733 Y70.700 E17.89685
G1 X146.173 Y68.794 E17.99919
G1 X144.672 Y67.494 E18.10151
G1 X142.706 Y67.211 E18.20387
G1 X140.900 Y68.036 E18.30615
G1 X139.826 Y69.707 E18.40849
G1 X139.826 Y71.693 E18.51086
G1 X140.225 Y72.314 E18.54890
G1 X140.151 Y72.450 E18.55687
G1 X134.614 Y72.450 E18.84219
G1 X134.614 Y97.524 E20.13413
G1 X140.151 Y97.524 E20.41945
G1 X140.225 Y97.660 E20.42742
G1 X139.826 Y98.281 E20.46546
G1 X139.826 Y100.267 E20.56783
G1 X140.900 Y101.938 E20.67017
G1 X142.706 Y102.763 E20.77245
G1 X144.672 Y102.480 E20.87481
G1 X146.173 Y101.180 E20.97713
G1 X146.733 Y99.274 E21.07947
G1 X146.219 Y97.524 E21.17344
G1 X150.070 Y97.524 E21.37187
G1 X150.070 Y111.750 E22.10487
G1 X109.930 Y111.750 E24.17310
G1 X109.930 Y58.618 E26.91073
G1 X110.619 Y59.094 F15000.000
G1 X115.572 Y64.047 F1440.000 E27.27218
G1 X115.190 Y64.351 F15000.000
G1 X110.619 Y59.780 F1440.000 E27.60580
G1 X110.619 Y60.465 F15000.000
G1 X114.809 Y64.655 F1440.000 E27.91159
G1 X114.428 Y64.959 F15000.000
G1 X110.619 Y61.150 F1440.000 E28.18955
G1 X110.619 Y61.836 F15000.000
G1 X114.046 Y65.263 F1440.000 E28.43967
G1 X113.909 Y65.810 F15000.000
G1 X110.619 Y62.521 F1440.000 E28.67971
G1 X110.619 Y63.207 F15000.000
G1 X113.908 Y66.496 F1440.000 E28.91975
G1 X113.908 Y67.182 F15000.000
G1 X110.619 Y63.892 F1440.000 E29.15979
G1 X110.619 Y64.578 F15000.000
G1 X113.908 Y67.867 F1440.000 E29.39983
G1 F6000.000 E26.39983
G92 E0
G1 X115.790 Y69.749 F15000.000
G1 F6000.000 E3.00000
G1 X133.925 Y87.885 F1440.000 E4.32345
G1 X133.925 Y88.569 F15000.000
G1 X127.681 Y82.325 F1440.000 E4.77913
G1 X126.933 Y82.263 E4.81784
G1 X110.619 Y65.949 E6.00840
G1 X110.619 Y66.634 F15000.000
G1 X126.044 Y82.060 F1440.000 E7.13411
G1 X125.157 Y81.857 E7.18109
G1 X110.619 Y67.319 E8.24201
G1 X110.619 Y68.005 F15000.000
G1 X124.741 Y82.127 F1440.000 E9.27255
G1 X124.359 Y82.431 F15000.000
G1 X110.619 Y68.690 F1440.000 E10.27525
G1 X110.619 Y69.375 F15000.000
G1 X123.978 Y82.734 F1440.000 E11.25009
G1 X123.596 Y83.039 F15000.000
G1 X110.619 Y70.061 F1440.000 E12.19714
G1 X110.619 Y70.747 F15000.000
G1 X123.215 Y83.343 F1440.000 E13.11634
G1 X122.833 Y83.646 F15000.000
G1 X110.619 Y71.432 F1440.000 E14.00769
G1 X110.619 Y72.117 F15000.000
G1 X122.713 Y84.212 F1440.000 E14.89028
G1 X122.713 Y84.898 F15000.000
G1 X110.619 Y72.803 F1440.000 E15.77288
G1 X110.619 Y73.489 F15000.000
G1 X122.713 Y85.583 F1440.000 E16.65546
G1 X122.713 Y86.268 F15000.000
G1 X118.974 Y82.529 F1440.000 E16.92831
G1 X119.611 Y83.852 E17.00408
G1 X133.925 Y98.166 E18.04864
G1 X133.972 Y98.213 F15000.000
G1 X146.821 Y111.061 F1440.000 E18.98628
G1 X147.506 Y111.061 F15000.000
G1 X134.658 Y98.213 F1440.000 E19.92387
G1 X135.343 Y98.213 F15000.000
G1 X148.191 Y111.061 F1440.000 E20.86146
G1 X148.877 Y111.061 F15000.000
G1 X140.469 Y102.653 F1440.000 E21.47504
G1 X140.022 Y102.206 F15000.000
G1 X136.028 Y98.213 F1440.000 E21.76647
G1 X136.714 Y98.213 F15000.000
G1 X139.137 Y100.636 F1440.000 E21.94330
G1 X139.137 Y99.950 F15000.000
G1 X137.400 Y98.213 F1440.000 E22.07007
G1 X138.085 Y98.213 F15000.000
G1 X139.137 Y99.265 F1440.000 E22.14689
G1 F6000.000 E19.14689
G92 E0
G1 X141.731 Y103.230 F15000.000
G1 F6000.000 E3.00000
G1 X149.381 Y110.880 F1440.000 E3.55826
G1 X149.382 Y110.194 F15000.000
G1 X142.621 Y103.433 F1440.000 E4.05167
G1 X143.220 Y103.348 F15000.000
G1 X149.381 Y109.509 F1440.000 E4.50131
G1 X149.381 Y108.823 F15000.000
G1 X143.819 Y103.261 F1440.000 E4.90719
G1 X144.419 Y103.175 F15000.000
G1 X149.381 Y108.137 F1440.000 E5.26932
G1 X149.381 Y107.453 F15000.000
G1 X144.938 Y103.010 F1440.000 E5.59357
G1 X145.306 Y102.692 F15000.000
G1 X149.381 Y106.767 F1440.000 E5.89099
G1 X149.381 Y106.081 F15000.000
G1 X145.673 Y102.373 F1440.000 E6.16158
G1 X146.040 Y102.055 F15000.000
G1 X149.381 Y105.397 F1440.000 E6.40543
G1 X149.381 Y104.711 F15000.000
G1 X146.407 Y101.737 F1440.000 E6.62245
G1 X146.757 Y101.400 F15000.000
G1 X149.381 Y104.025 F1440.000 E6.81399
G1 X149.381 Y103.340 F15000.000
G1 X146.911 Y100.871 F1440.000 E6.99422
G1 X147.067 Y100.340 F15000.000
G1 X149.381 Y102.655 F1440.000 E7.16310
G1 X149.381 Y101.969 F15000.000
G1 X147.223 Y99.811 F1440.000 E7.32057
G1 X147.379 Y99.280 F15000.000
G1 X149.382 Y101.283 F1440.000 E7.46674
G1 X149.381 Y100.598 F15000.000
G1 X147.331 Y98.548 F1440.000 E7.61637
G1 X147.681 Y98.213 F15000.000
G1 X149.381 Y99.912 F1440.000 E7.74041
G1 X149.381 Y99.227 F15000.000
G1 X148.367 Y98.213 F1440.000 E7.81439
G1 F6000.000 E4.81439
G92 E0
G1 X146.135 Y111.061 F15000.000
G1 F6000.000 E3.00000
G1 X119.945 Y84.872 F1440.000 E4.91121
G1 X119.722 Y85.333 F15000.000
G1 X145.450 Y111.061 F1440.000 E6.78867
G1 X144.764 Y111.061 F15000.000
G1 X119.500 Y85.797 F1440.000 E8.63238
G1 X119.276 Y86.259 F15000.000
G1 X144.079 Y111.061 F1440.000 E10.44235
G1 X143.393 Y111.061 F15000.000
G1 X119.054 Y86.722 F1440.000 E12.21852
G1 X118.831 Y87.185 F15000.000
G1 X142.708 Y111.061 F1440.000 E13.96094
G1 X142.022 Y111.061 F15000.000
G1 X118.467 Y87.506 F1440.000 E15.67988
G1 X117.910 Y87.634 F15000.000
G1 X141.337 Y111.061 F1440.000 E17.38948
G1 X140.652 Y111.061 F15000.000
G1 X117.351 Y87.761 F1440.000 E19.08985
G1 X116.794 Y87.889 F15000.000
G1 X139.966 Y111.061 F1440.000 E20.78087
G1 X139.280 Y111.061 F15000.000
G1 X116.235 Y88.016 F1440.000 E22.46261
G1 X115.398 Y87.864 F15000.000
G1 X138.595 Y111.061 F1440.000 E24.15539
G1 X137.910 Y111.061 F15000.000
G1 X127.810 Y100.961 F1440.000 E24.89245
G1 X127.643 Y100.794 F15000.000
G1 X110.619 Y83.770 F1440.000 E26.13477
G1 X110.619 Y83.085 F15000.000
G1 X113.908 Y86.374 F1440.000 E26.37482
G1 X113.908 Y85.689 F15000.000
G1 X110.619 Y82.400 F1440.000 E26.61484
G1 X110.619 Y81.714 F15000.000
G1 X113.908 Y85.004 F1440.000 E26.85491
G1 X113.908 Y84.318 F15000.000
G1 X110.619 Y81.028 F1440.000 E27.09494
G1 X110.619 Y80.343 F15000.000
G1 X113.970 Y83.693 F1440.000 E27.33945
G1 X114.351 Y83.390 F15000.000
G1 X110.619 Y79.658 F1440.000 E27.61178
G1 X110.619 Y78.972 F15000.000
G1 X114.732 Y83.085 F1440.000 E27.91195
G1 X115.114 Y82.781 F15000.000
G1 X110.619 Y78.286 F1440.000 E28.23995
G1 X110.619 Y77.601 F15000.000
G1 X115.495 Y82.477 F1440.000 E28.59579
G1 X115.876 Y82.173 F15000.000
G1 X110.619 Y76.916 F1440.000 E28.97945
G1 X110.619 Y76.230 F15000.000
G1 X116.258 Y81.869 F1440.000 E29.39095
G1 X117.102 Y82.029 F15000.000
G1 X110.619 Y75.545 F1440.000 E29.86411
G1 X110.619 Y74.860 F15000.000
G1 X117.991 Y82.232 F1440.000 E30.40212
G1 X118.879 Y82.434 E30.44912
G1 X110.619 Y74.174 E31.05192
G1 F6000.000 E28.05192
G92 E0
G1 X116.348 Y69.621 F15000.000
G1 F6000.000 E3.00000
G1 X133.925 Y87.199 F1440.000 E4.28271
G1 X133.925 Y86.513 F15000.000
G1 X116.906 Y69.494 F1440.000 E5.52469
G1 X117.464 Y69.366 F15000.000
G1 X133.925 Y85.827 F1440.000 E6.72592
G1 X133.925 Y85.142 F15000.000
G1 X118.022 Y69.239 F1440.000 E7.88647
G1 X118.580 Y69.111 F15000.000
G1 X133.925 Y84.456 F1440.000 E9.00629
G1 X133.925 Y83.771 F15000.000
G1 X118.876 Y68.722 F1440.000 E10.10449
G1 X119.099 Y68.260 F15000.000
G1 X133.925 Y83.086 F1440.000 E11.18646
G1 X133.925 Y82.400 F15000.000
G1 X119.322 Y67.797 F1440.000 E12.25216
G1 X119.545 Y67.334 F15000.000
G1 X133.925 Y81.714 F1440.000 E13.30159
G1 X133.925 Y81.030 F15000.000
G1 X119.767 Y66.872 F1440.000 E14.33478
G1 X119.990 Y66.409 F15000.000
G1 X133.925 Y80.344 F1440.000 E15.35170
G1 X133.925 Y79.658 F15000.000
G1 X119.483 Y65.216 F1440.000 E16.40563
G1 X119.058 Y64.107 E16.46692
G1 X113.865 Y58.913 E16.84593
G1 X113.180 Y58.913 F15000.000
G1 X118.170 Y63.903 F1440.000 E17.21013
G1 X118.846 Y63.894 E17.24497
G1 X122.713 Y67.761 E17.52718
G1 X122.713 Y67.076 F15000.000
G1 X114.550 Y58.913 F1440.000 E18.12286
G1 X115.236 Y58.913 F15000.000
G1 X122.713 Y66.390 F1440.000 E18.66851
G1 X122.713 Y65.705 F15000.000
G1 X115.921 Y58.913 F1440.000 E19.16414
G1 X116.607 Y58.913 F15000.000
G1 X122.910 Y65.216 F1440.000 E19.62414
G1 X123.292 Y64.912 F15000.000
G1 X117.292 Y58.913 F1440.000 E20.06194
G1 X117.978 Y58.913 F15000.000
G1 X123.673 Y64.608 F1440.000 E20.47755
G1 X124.054 Y64.304 F15000.000
G1 X118.663 Y58.913 F1440.000 E20.87097
G1 X119.349 Y58.913 F15000.000
G1 X124.436 Y64.000 F1440.000 E21.24221
G1 X124.817 Y63.696 F15000.000
G1 X120.034 Y58.913 F1440.000 E21.59125
G1 X120.719 Y58.913 F15000.000
G1 X125.336 Y63.529 F1440.000 E21.92813
G1 X126.224 Y63.732 E21.97515
G1 X121.405 Y58.913 E22.32684
G1 X122.091 Y58.913 F15000.000
G1 X127.113 Y63.935 F1440.000 E22.69332
G1 X127.552 Y63.690 E22.71929
G1 X135.624 Y71.762 E23.30836
G1 X136.310 Y71.761 F15000.000
G1 X123.461 Y58.913 F1440.000 E24.24597
G1 X122.776 Y58.913 F15000.000
G1 X128.001 Y64.138 F1440.000 E24.62726
