; generated by Slic3r 0.9.3 on 2013-04-30 at 23:37:17

; layer_height = 0.25
; perimeters = 2
; solid_layers = 2
; fill_density = 0.15
; perimeter_speed = 85
; infill_speed = 60
; travel_speed = 250
; scale = 1
; nozzle_diameter = 0.35
; filament_diameter = 1.7
; extrusion_multiplier = 1.0
; single wall width = 0.39mm

M104 S185 ; set temperature
;Standard Profile for Series 1. Single Extruder
M104 S185
M301 P24.72 I0.88 D231.1
G28
G1 X120 Y115 Z15 F10000
G92 E0
G1 Y5 Z15 F5000
M109 S185
G1 F100 E50
G92 E0
G1 X50 Z0.3 F10000
; do a little dance on a toothbrush to remove extrusions..  
G90 ; use absolute coordinates
G21 ; set units to millimeters
G92 E0
M82 ; use absolute distances for extrusion
M106 S255
G1 F6000.000 E-3.00000
G92 E0
G1 Z0.250 F15000.000
G1 X98.527 Y67.270
G1 F6000.000 E3.00000
G1 X98.707 Y67.080 F2040.000 E3.01109
G1 X99.097 Y66.720 E3.03359
G1 X99.517 Y66.400 E3.05597
G1 X99.957 Y66.110 E3.07831
G1 X100.417 Y65.860 E3.10050
G1 X100.907 Y65.650 E3.12310
G1 X101.407 Y65.480 E3.14548
G1 X101.917 Y65.350 E3.16779
G1 X102.437 Y65.260 E3.19016
G1 X102.697 Y65.230 E3.20126
G1 X103.227 Y65.210 E3.22374
G1 X157.287 Y65.230 E5.51521
G1 X157.807 Y65.300 E5.53745
G1 X158.327 Y65.410 E5.55998
G1 X158.827 Y65.560 E5.58210
G1 X159.327 Y65.750 E5.60478
G1 X159.797 Y65.980 E5.62696
G1 X160.247 Y66.250 E5.64920
G1 X160.467 Y66.400 E5.66049
G1 X160.887 Y66.720 E5.68287
G1 X161.277 Y67.080 E5.70537
G1 X161.637 Y67.470 E5.72786
G1 X161.957 Y67.890 E5.75024
G1 X162.247 Y68.330 E5.77258
G1 X162.497 Y68.790 E5.79477
G1 X162.707 Y69.280 E5.81737
G1 X162.877 Y69.780 E5.83976
G1 X163.007 Y70.290 E5.86206
G1 X163.097 Y70.810 E5.88443
G1 X163.127 Y71.070 E5.89553
G1 X163.127 Y158.920 E9.61927
G1 X163.057 Y159.440 E9.64151
G1 X162.947 Y159.960 E9.66404
G1 X162.797 Y160.460 E9.68617
G1 X162.607 Y160.960 E9.70884
G1 X162.377 Y161.430 E9.73102
G1 X162.107 Y161.880 E9.75327
G1 X161.957 Y162.100 E9.76455
G1 X161.637 Y162.520 E9.78693
G1 X161.277 Y162.910 E9.80943
G1 X160.887 Y163.270 E9.83193
G1 X160.467 Y163.590 E9.85431
G1 X160.027 Y163.880 E9.87665
G1 X159.567 Y164.130 E9.89884
G1 X159.077 Y164.340 E9.92144
G1 X158.577 Y164.510 E9.94382
G1 X158.067 Y164.640 E9.96613
G1 X157.547 Y164.730 E9.98850
G1 X157.287 Y164.760 E9.99959
G1 X156.757 Y164.780 E10.02207
G1 X102.697 Y164.760 E12.31355
G1 X102.177 Y164.690 E12.33579
G1 X101.657 Y164.580 E12.35832
G1 X101.157 Y164.430 E12.38044
G1 X100.657 Y164.240 E12.40311
G1 X100.187 Y164.010 E12.42529
G1 X99.737 Y163.740 E12.44754
G1 X99.517 Y163.590 E12.45883
G1 X99.097 Y163.270 E12.48121
G1 X98.707 Y162.910 E12.50370
G1 X98.347 Y162.520 E12.52620
G1 X98.027 Y162.100 E12.54858
G1 X97.737 Y161.660 E12.57092
G1 X97.487 Y161.200 E12.59311
G1 X97.277 Y160.710 E12.61571
G1 X97.107 Y160.210 E12.63809
G1 X96.977 Y159.700 E12.66040
G1 X96.887 Y159.180 E12.68277
G1 X96.857 Y158.920 E12.69387
G1 X96.857 Y71.070 E16.41761
G1 X96.927 Y70.550 E16.43985
G1 X97.037 Y70.030 E16.46238
G1 X97.187 Y69.530 E16.48451
G1 X97.377 Y69.030 E16.50718
G1 X97.607 Y68.560 E16.52936
G1 X97.877 Y68.110 E16.55160
G1 X98.027 Y67.890 E16.56289
G1 X98.271 Y67.570 E16.57996
G1 F6000.000 E13.57996
G92 E0
G1 X146.044 Y140.869 F15000.000
G1 F6000.000 E3.00000
G1 X148.369 Y139.749 F1440.000 E3.13296
G1 X150.694 Y140.869 E3.26591
G1 X151.268 Y143.384 E3.39884
G1 X149.659 Y145.402 E3.53180
G1 X147.079 Y145.402 E3.66479
G1 X145.470 Y143.384 E3.79775
G1 X145.956 Y141.254 E3.91036
G1 X146.464 Y141.204 F15000.000
G1 X148.369 Y140.287 F1440.000 E4.01930
G1 X150.274 Y141.204 E4.12824
G1 X150.745 Y143.265 E4.23715
G1 X149.426 Y144.918 E4.34610
G1 X147.312 Y144.918 E4.45507
G1 X145.993 Y143.265 E4.56401
G1 X146.376 Y141.588 E4.65261
G1 F6000.000 E1.65261
G92 E0
G1 X148.369 Y148.554 F15000.000
G1 F6000.000 E3.00000
G1 X150.694 Y149.674 F1440.000 E3.13296
G1 X151.268 Y152.189 E3.26588
G1 X149.659 Y154.207 E3.39884
G1 X147.079 Y154.207 E3.53183
G1 X145.470 Y152.189 E3.66479
G1 X146.044 Y149.674 E3.79772
G1 X148.014 Y148.726 E3.91035
G1 X148.369 Y149.092 F15000.000
G1 X150.274 Y150.009 F1440.000 E4.01930
G1 X150.745 Y152.070 E4.12821
G1 X149.426 Y153.723 E4.23716
G1 X147.312 Y153.723 E4.34613
G1 X145.993 Y152.070 E4.45507
G1 X146.464 Y150.009 E4.56398
G1 X148.014 Y149.263 E4.65261
G1 F6000.000 E1.65261
G92 E0
G1 X132.899 Y152.189 F15000.000
G1 F6000.000 E3.00000
G1 X131.290 Y154.207 F1440.000 E3.13296
G1 X128.710 Y154.207 E3.26595
G1 X127.101 Y152.189 E3.39891
G1 X127.675 Y149.674 E3.53184
G1 X130.000 Y148.554 E3.66479
G1 X132.325 Y149.674 E3.79775
G1 X132.811 Y151.805 E3.91035
G1 X132.376 Y152.070 F15000.000
G1 X131.057 Y153.723 F1440.000 E4.01930
G1 X128.943 Y153.723 E4.12827
G1 X127.624 Y152.070 E4.23722
G1 X128.095 Y150.009 E4.34613
G1 X130.000 Y149.092 E4.45507
G1 X131.905 Y150.009 E4.56401
G1 X132.288 Y151.685 E4.65261
G1 F6000.000 E1.65261
G92 E0
G1 X131.290 Y145.402 F15000.000
G1 F6000.000 E3.00000
G1 X128.710 Y145.402 F1440.000 E3.13299
G1 X127.101 Y143.384 E3.26595
G1 X127.675 Y140.869 E3.39887
G1 X130.000 Y139.749 E3.53183
G1 X132.325 Y140.869 E3.66479
G1 X132.899 Y143.384 E3.79771
G1 X131.536 Y145.094 E3.91036
G1 X131.057 Y144.918 F15000.000
G1 X128.943 Y144.918 F1440.000 E4.01932
G1 X127.624 Y143.265 E4.12827
G1 X128.095 Y141.204 E4.23718
G1 X130.000 Y140.287 E4.34613
G1 X131.905 Y141.204 E4.45507
G1 X132.376 Y143.265 E4.56398
G1 X131.303 Y144.610 E4.65261
G1 F6000.000 E1.65261
G92 E0
G1 X114.530 Y143.384 F15000.000
G1 F6000.000 E3.00000
G1 X112.921 Y145.402 F1440.000 E3.13296
G1 X110.341 Y145.402 E3.26595
G1 X108.732 Y143.384 E3.39891
G1 X109.306 Y140.869 E3.53184
G1 X111.631 Y139.749 E3.66479
G1 X113.956 Y140.869 E3.79775
G1 X114.442 Y143.000 E3.91036
G1 X114.007 Y143.265 F15000.000
G1 X112.688 Y144.918 F1440.000 E4.01930
G1 X110.574 Y144.918 E4.12827
G1 X109.255 Y143.265 E4.23722
G1 X109.726 Y141.204 E4.34613
G1 X111.631 Y140.287 E4.45507
G1 X113.536 Y141.204 E4.56401
G1 X113.919 Y142.880 E4.65261
G1 F6000.000 E1.65261
G92 E0
G1 X111.631 Y148.554 F15000.000
G1 F6000.000 E3.00000
G1 X113.956 Y149.674 F1440.000 E3.13296
G1 X114.530 Y152.189 E3.26588
G1 X112.921 Y154.207 E3.39884
G1 X110.341 Y154.207 E3.53183
G1 X108.732 Y152.189 E3.66479
G1 X109.306 Y149.674 E3.79772
G1 X111.276 Y148.726 E3.91035
G1 X111.631 Y149.092 F15000.000
G1 X113.536 Y150.009 F1440.000 E4.01930
G1 X114.007 Y152.070 E4.12821
G1 X112.688 Y153.723 E4.23716
G1 X110.574 Y153.723 E4.34613
G1 X109.255 Y152.070 E4.45507
G1 X109.726 Y150.009 E4.56398
G1 X111.276 Y149.263 E4.65261
G1 F6000.000 E1.65261
G92 E0
G1 X156.279 Y157.906 F15000.000
G1 F6000.000 E3.00000
G1 X103.721 Y157.906 F2040.000 E5.70808
G1 X103.721 Y118.734 E7.72645
G1 X116.979 Y118.734 E8.40958
G1 X116.979 Y120.200 E8.48513
G1 X115.713 Y119.815 E8.55333
G1 X113.526 Y120.480 E8.67111
G1 X112.046 Y122.248 E8.78990
G1 X111.727 Y124.548 E8.90953
G1 X111.970 Y125.099 E8.94056
G1 X111.727 Y126.849 E9.03162
G1 X112.661 Y128.968 E9.15093
G1 X114.571 Y130.239 E9.26916
G1 X116.979 Y130.239 E9.39321
G1 X116.979 Y134.190 E9.59680
G1 X143.021 Y134.190 E10.93861
G1 X143.021 Y130.239 E11.14219
G1 X145.429 Y130.239 E11.26625
G1 X147.339 Y128.968 E11.38448
G1 X148.273 Y126.849 E11.50379
G1 X148.150 Y125.959 E11.55008
G1 X148.275 Y125.685 E11.56560
G1 X148.151 Y124.825 E11.61040
G1 X148.273 Y124.548 E11.62600
G1 X147.954 Y122.248 E11.74562
G1 X146.474 Y120.480 E11.86442
G1 X144.287 Y119.815 E11.98220
G1 X143.021 Y120.200 E12.05040
G1 X143.021 Y118.734 E12.12595
G1 X156.279 Y118.734 E12.80908
G1 X156.279 Y157.512 E14.80713
G1 X156.763 Y158.390 F15000.000
G1 X103.237 Y158.390 F2040.000 E17.56508
G1 X103.237 Y118.250 E19.63331
G1 X117.463 Y118.250 E20.36631
G1 X117.463 Y120.853 E20.50042
G1 X115.713 Y120.321 E20.59468
G1 X113.804 Y120.901 E20.69746
G1 X112.506 Y122.452 E20.80168
G1 X112.225 Y124.478 E20.90707
G1 X112.468 Y125.029 E20.93810
G1 X112.225 Y126.780 E21.02916
G1 X113.047 Y128.643 E21.13411
G1 X114.718 Y129.755 E21.23751
G1 X116.708 Y129.755 E21.34006
G1 X117.324 Y129.345 E21.37818
G1 X117.463 Y129.420 E21.38632
G1 X117.463 Y133.706 E21.60717
G1 X142.537 Y133.706 E22.89912
G1 X142.537 Y129.420 E23.11997
G1 X142.676 Y129.345 E23.12811
G1 X143.292 Y129.755 E23.16622
G1 X145.282 Y129.755 E23.26877
G1 X146.953 Y128.643 E23.37218
G1 X147.775 Y126.780 E23.47713
G1 X147.651 Y125.886 E23.52359
G1 X147.776 Y125.614 E23.53904
G1 X147.653 Y124.756 E23.58367
G1 X147.775 Y124.478 E23.59933
G1 X147.494 Y122.452 E23.70473
G1 X146.196 Y120.901 E23.80894
G1 X144.287 Y120.321 E23.91172
G1 X142.537 Y120.853 E24.00598
G1 X142.537 Y118.250 E24.14010
G1 X156.763 Y118.250 E24.87310
G1 X156.763 Y157.996 E26.92101
G1 X155.893 Y157.701 F15000.000
G1 X150.940 Y152.748 F1440.000 E27.28247
G1 X150.636 Y153.129 F15000.000
G1 X155.208 Y157.701 F1440.000 E27.61611
G1 X154.522 Y157.701 F15000.000
G1 X150.332 Y153.511 F1440.000 E27.92189
G1 X150.027 Y153.892 F15000.000
G1 X153.836 Y157.701 F1440.000 E28.19985
G1 X153.152 Y157.701 F15000.000
G1 X149.724 Y154.273 F1440.000 E28.45000
G1 X149.177 Y154.412 F15000.000
G1 X152.466 Y157.701 F1440.000 E28.69004
G1 X151.780 Y157.701 F15000.000
G1 X148.491 Y154.412 F1440.000 E28.93008
G1 X147.805 Y154.412 F15000.000
G1 X151.094 Y157.701 F1440.000 E29.17011
G1 X150.410 Y157.701 F15000.000
G1 X147.120 Y154.412 F1440.000 E29.41015
G1 F6000.000 E26.41015
G92 E0
G1 X145.239 Y152.530 F15000.000
G1 F6000.000 E3.00000
G1 X127.103 Y134.395 F1440.000 E4.32345
G1 X127.788 Y134.395 F15000.000
G1 X145.365 Y151.972 F1440.000 E5.60614
G1 X145.493 Y151.414 F15000.000
G1 X128.474 Y134.395 F1440.000 E6.84814
G1 X129.160 Y134.395 F15000.000
G1 X145.621 Y150.856 F1440.000 E8.04939
G1 X145.749 Y150.298 F15000.000
G1 X129.845 Y134.394 F1440.000 E9.20994
G1 X130.530 Y134.395 F15000.000
G1 X145.875 Y149.740 F1440.000 E10.32975
G1 X146.265 Y149.444 F15000.000
G1 X131.216 Y134.395 F1440.000 E11.42795
G1 X131.902 Y134.395 F15000.000
G1 X146.728 Y149.221 F1440.000 E12.50991
G1 X147.190 Y148.999 F15000.000
G1 X132.587 Y134.395 F1440.000 E13.57563
G1 X133.272 Y134.395 F15000.000
G1 X147.653 Y148.775 F1440.000 E14.62506
G1 X148.116 Y148.553 F15000.000
G1 X133.958 Y134.395 F1440.000 E15.65825
G1 X134.643 Y134.395 F15000.000
G1 X148.578 Y148.330 F1440.000 E16.67515
G1 F6000.000 E13.67515
G92 E0
G1 X148.597 Y145.607 F15000.000
G1 F6000.000 E3.00000
G1 X156.074 Y153.084 F1440.000 E3.54567
G1 X156.074 Y153.770 F15000.000
G1 X147.911 Y145.607 F1440.000 E4.14135
G1 X147.227 Y145.607 F15000.000
G1 X151.094 Y149.474 F1440.000 E4.42355
G1 X151.083 Y150.149 E4.45841
G1 X156.074 Y155.141 E4.82265
G1 X156.074 Y155.826 F15000.000
G1 X151.286 Y151.038 F1440.000 E5.17203
G1 X151.490 Y151.926 E5.21905
G1 X156.074 Y156.511 E5.55362
G1 X156.074 Y157.197 F15000.000
G1 X151.244 Y152.367 F1440.000 E5.90610
G1 F6000.000 E2.90610
G92 E0
G1 X156.074 Y152.399 F15000.000
G1 F6000.000 E3.00000
G1 X149.283 Y145.607 F1440.000 E3.49562
G1 X149.771 Y145.410 F15000.000
G1 X156.074 Y151.713 F1440.000 E3.95558
G1 X156.074 Y151.027 F15000.000
G1 X150.075 Y145.029 F1440.000 E4.39336
G1 X150.379 Y144.647 F15000.000
G1 X156.074 Y150.342 F1440.000 E4.80900
G1 X156.074 Y149.656 F15000.000
G1 X150.684 Y144.266 F1440.000 E5.20239
G1 X150.987 Y143.884 F15000.000
G1 X156.074 Y148.971 F1440.000 E5.57360
G1 X156.074 Y148.286 F15000.000
G1 X151.291 Y143.503 F1440.000 E5.92267
G1 F6000.000 E2.92267
G92 E0
G1 X156.074 Y143.488 F15000.000
G1 F6000.000 E3.00000
G1 X143.226 Y130.639 F1440.000 E3.93762
G1 X143.716 Y130.443 F15000.000
G1 X156.074 Y142.802 F1440.000 E4.83948
G1 X156.074 Y142.117 F15000.000
G1 X144.401 Y130.444 F1440.000 E5.69131
G1 X145.087 Y130.444 F15000.000
G1 X156.074 Y141.431 F1440.000 E6.49314
G1 X156.074 Y140.745 F15000.000
G1 X145.582 Y130.253 F1440.000 E7.25882
G1 X145.993 Y129.980 F15000.000
G1 X156.074 Y140.060 F1440.000 E7.99444
G1 X156.074 Y139.375 F15000.000
G1 X146.405 Y129.706 F1440.000 E8.70007
G1 X146.817 Y129.432 F15000.000
G1 X156.074 Y138.689 F1440.000 E9.37564
G1 X156.074 Y138.004 F15000.000
G1 X147.228 Y129.158 F1440.000 E10.02116
G1 X147.545 Y128.789 F15000.000
G1 X156.074 Y137.319 F1440.000 E10.64362
G1 X156.074 Y136.633 F15000.000
G1 X147.755 Y128.313 F1440.000 E11.25077
G1 X147.964 Y127.838 F15000.000
G1 X156.074 Y135.948 F1440.000 E11.84258
G1 X156.074 Y135.263 F15000.000
G1 X148.174 Y127.362 F1440.000 E12.41911
G1 X148.384 Y126.886 F15000.000
G1 X156.074 Y134.577 F1440.000 E12.98031
G1 X156.074 Y133.891 F15000.000
G1 X148.440 Y126.256 F1440.000 E13.53745
G1 X148.448 Y125.580 F15000.000
G1 X156.074 Y133.206 F1440.000 E14.09393
G1 X156.074 Y132.520 F15000.000
G1 X148.405 Y124.851 F1440.000 E14.65359
G1 X148.479 Y124.239 F15000.000
G1 X156.074 Y131.835 F1440.000 E15.20786
G1 X156.074 Y131.150 F15000.000
G1 X148.368 Y123.444 F1440.000 E15.77019
G1 X148.258 Y122.648 E15.81167
G1 X156.074 Y130.464 E16.38206
G1 X156.074 Y129.778 F15000.000
G1 X148.148 Y121.851 F1440.000 E16.96052
G1 F6000.000 E13.96052
G92 E0
G1 X146.460 Y120.164 F15000.000
G1 F6000.000 E3.00000
G1 X145.235 Y118.939 F1440.000 E3.08940
G1 X144.870 Y119.260 F15000.000
G1 X145.475 Y119.865 F1440.000 E3.13354
G1 X145.920 Y118.939 F15000.000
G1 X156.074 Y129.093 F1440.000 E3.87455
G1 X156.074 Y128.408 F15000.000
G1 X146.605 Y118.939 F1440.000 E4.56553
G1 X147.291 Y118.939 F15000.000
G1 X156.074 Y127.722 F1440.000 E5.20649
G1 X156.074 Y127.037 F15000.000
G1 X147.976 Y118.939 F1440.000 E5.79743
G1 X148.662 Y118.939 F15000.000
G1 X156.074 Y126.351 F1440.000 E6.33835
G1 X156.074 Y125.666 F15000.000
G1 X149.347 Y118.939 F1440.000 E6.82925
G1 X150.033 Y118.938 F15000.000
G1 X156.075 Y124.980 F1440.000 E7.27013
G1 X156.074 Y124.295 F15000.000
G1 X150.718 Y118.939 F1440.000 E7.66099
G1 X151.404 Y118.939 F15000.000
G1 X156.074 Y123.609 F1440.000 E8.00183
G1 X156.074 Y122.924 F15000.000
G1 X152.089 Y118.939 F1440.000 E8.29264
G1 X152.774 Y118.939 F15000.000
G1 X156.074 Y122.239 F1440.000 E8.53343
G1 X156.074 Y121.553 F15000.000
G1 X153.460 Y118.939 F1440.000 E8.72420
G1 X154.146 Y118.939 F15000.000
G1 X156.074 Y120.867 F1440.000 E8.86494
G1 X156.074 Y120.182 F15000.000
G1 X154.831 Y118.939 F1440.000 E8.95567
G1 F6000.000 E5.95567
G92 E0
G1 X143.226 Y131.325 F15000.000
G1 F6000.000 E3.00000
G1 X156.074 Y144.174 F1440.000 E3.93764
G1 X156.074 Y144.859 F15000.000
G1 X143.226 Y132.011 F1440.000 E4.87524
G1 X143.226 Y132.696 F15000.000
G1 X151.298 Y140.767 F1440.000 E5.46429
G1 X151.052 Y141.207 E5.49030
G1 X156.074 Y146.230 E5.85682
G1 X156.074 Y146.915 F15000.000
G1 X151.255 Y142.096 F1440.000 E6.20847
G1 X151.458 Y142.984 E6.25544
G1 X156.074 Y147.600 E6.59234
G1 F6000.000 E3.59234
G92 E0
G1 X156.074 Y145.544 F15000.000
G1 F6000.000 E3.00000
G1 X150.850 Y140.319 F1440.000 E3.38127
G1 X149.975 Y140.131 E3.42743
G1 X143.226 Y133.381 E3.91998
G1 X143.226 Y134.067 F15000.000
G1 X148.653 Y139.494 F1440.000 E4.31603
G1 X148.187 Y139.713 F15000.000
G1 X142.869 Y134.395 F1440.000 E4.70414
G1 X142.183 Y134.395 F15000.000
G1 X147.724 Y139.936 F1440.000 E5.10852
G1 X147.262 Y140.159 F15000.000
G1 X141.498 Y134.395 F1440.000 E5.52915
G1 X140.813 Y134.395 F15000.000
G1 X146.799 Y140.381 F1440.000 E5.96605
G1 X146.337 Y140.604 F15000.000
G1 X140.127 Y134.395 F1440.000 E6.41921
G1 X139.441 Y134.395 F15000.000
G1 X145.895 Y140.849 F1440.000 E6.89018
G1 X145.768 Y141.406 F15000.000
G1 X138.756 Y134.394 F1440.000 E7.40187
G1 X138.071 Y134.395 F15000.000
G1 X145.640 Y141.965 F1440.000 E7.95429
G1 X145.513 Y142.523 F15000.000
G1 X137.385 Y134.395 F1440.000 E8.54744
G1 X136.699 Y134.395 F15000.000
G1 X145.385 Y143.081 F1440.000 E9.18129
G1 X145.258 Y143.639 F15000.000
G1 X136.014 Y134.395 F1440.000 E9.85587
G1 X135.329 Y134.395 F15000.000
G1 X149.771 Y148.838 F1440.000 E10.90984
G1 X150.881 Y149.261 E10.97113
G1 X156.074 Y154.455 E11.35013
G1 F6000.000 E8.35013
G92 E0
G1 X149.724 Y157.701 F15000.000
G1 F6000.000 E3.00000
G1 X132.521 Y140.499 F1440.000 E4.25538
G1 X132.662 Y140.639 F15000.000
G1 X126.418 Y134.395 F1440.000 E4.71105
G1 X125.732 Y134.395 F15000.000
G1 X131.339 Y140.002 F1440.000 E5.12024
G1 X130.188 Y139.535 E5.18437
G1 X125.047 Y134.395 E5.55951
G1 X124.361 Y134.395 F15000.000
