; generated by Slic3r 0.9.3 on 2012-12-13 at 22:18:43

; layer_height = 0.25
; perimeters = 2
; solid_layers = 3
; fill_density = 0
; perimeter_speed = 60
; infill_speed = 90
; travel_speed = 250
; scale = 1
; nozzle_diameter = 0.35
; filament_diameter = 1.7
; extrusion_multiplier = 1.0
; single wall width = 0.75mm

M104 S185 ; set temperature
;Standard Profile for Series 1. Single Extruder
M104 S185
M301 P24.72 I0.88 D231.1
G28
G1 X120 Y115 Z15 F10000
G92 E0
G1 Y5 Z15 F5000
M109 S185
G1 F100 E50
G92 E0
G1 X50 Z0.3 F10000
; do a little dance on a toothbrush to remove extrusions..  
G90 ; use absolute coordinates
G21 ; set units to millimeters
G92 E0 ; reset extrusion distance
M82 ; use absolute distances for extrusion
M106 S255 ; enable fan
G1 F6000.000 E-3.00000 ; retract
G92 E0 ; reset extrusion distance
G1 Z0.250 F15000.000 ; move to next layer (0)
G1 X116.417 Y99.052 ; move to first skirt point
G1 F6000.000 E3.00000 ; compensate retraction
G1 X117.707 Y97.842 F1080.000 E3.13565 ; skirt
G1 X118.847 Y96.912 E3.24849 ; skirt
G1 X120.087 Y96.032 E3.36511 ; skirt
G1 X121.337 Y95.272 E3.47731 ; skirt
G1 X122.637 Y94.582 E3.59019 ; skirt
G1 X123.767 Y94.062 E3.68560 ; skirt
G1 X125.417 Y93.452 E3.82052 ; skirt
G1 X126.817 Y93.032 E3.93262 ; skirt
G1 X128.297 Y92.692 E4.04909 ; skirt
G1 X129.907 Y92.432 E4.17417 ; skirt
G1 X132.557 Y92.272 E4.37779 ; skirt
G1 X134.207 Y92.332 E4.50443 ; skirt
G1 X135.447 Y92.452 E4.59997 ; skirt
G1 X137.187 Y92.742 E4.73527 ; skirt
G1 X139.797 Y93.452 E4.94272 ; skirt
G1 X141.437 Y94.062 E5.07692 ; skirt
G1 X142.607 Y94.602 E5.17576 ; skirt
G1 X144.077 Y95.382 E5.30339 ; skirt
G1 X145.337 Y96.172 E5.41745 ; skirt
G1 X146.357 Y96.902 E5.51366 ; skirt
G1 X147.687 Y98.002 E5.64603 ; skirt
G1 X148.777 Y99.032 E5.76105 ; skirt
G1 X149.777 Y100.112 E5.87394 ; skirt
G1 X150.737 Y101.292 E5.99061 ; skirt
G1 X151.667 Y102.612 E6.11445 ; skirt
G1 X152.367 Y103.762 E6.21771 ; skirt
G1 X153.047 Y105.052 E6.32955 ; skirt
G1 X153.567 Y106.192 E6.42566 ; skirt
G1 X154.177 Y107.822 E6.55914 ; skirt
G1 X154.607 Y109.252 E6.67367 ; skirt
G1 X154.887 Y110.462 E6.76892 ; skirt
G1 X155.077 Y111.622 E6.85908 ; skirt
G1 X155.087 Y111.632 E6.86016 ; skirt
G1 X155.287 Y113.412 E6.99754 ; skirt
G1 X155.347 Y115.162 E7.13184 ; skirt
G1 X155.157 Y118.012 E7.35091 ; skirt
G1 X154.887 Y119.572 E7.47234 ; skirt
G1 X154.537 Y121.032 E7.58749 ; skirt
G1 X154.057 Y122.572 E7.71121 ; skirt
G1 X153.567 Y123.832 E7.81490 ; skirt
G1 X152.907 Y125.272 E7.93639 ; skirt
G1 X152.237 Y126.492 E8.04314 ; skirt
G1 X151.447 Y127.742 E8.15656 ; skirt
G1 X150.567 Y128.962 E8.27193 ; skirt
G1 X149.627 Y130.092 E8.38466 ; skirt
G1 X148.597 Y131.182 E8.49968 ; skirt
G1 X147.517 Y132.182 E8.61257 ; skirt
G1 X146.337 Y133.142 E8.72924 ; skirt
G1 X144.337 Y134.482 E8.91388 ; skirt
G1 X144.327 Y134.492 E8.91497 ; skirt
G1 X142.547 Y135.472 E9.07081 ; skirt
G1 X141.167 Y136.092 E9.18685 ; skirt
G1 X138.367 Y137.012 E9.41289 ; skirt
G1 X136.947 Y137.332 E9.52453 ; skirt
G1 X135.437 Y137.582 E9.64192 ; skirt
G1 X133.947 Y137.722 E9.75671 ; skirt
G1 X132.687 Y137.752 E9.85337 ; skirt
G1 X131.007 Y137.702 E9.98228 ; skirt
G1 X129.497 Y137.542 E10.09874 ; skirt
G1 X128.057 Y137.292 E10.21084 ; skirt
G1 X126.847 Y137.012 E10.30609 ; skirt
G1 X125.727 Y136.672 E10.39587 ; skirt
G1 X125.727 Y136.682 E10.39663 ; skirt
G1 X125.427 Y136.592 E10.42065 ; skirt
G1 X123.797 Y135.972 E10.55441 ; skirt
G1 X122.447 Y135.362 E10.66803 ; skirt
G1 X121.257 Y134.722 E10.77166 ; skirt
G1 X120.077 Y133.992 E10.87808 ; skirt
G1 X118.667 Y132.982 E11.01111 ; skirt
G1 X117.947 Y132.392 E11.08250 ; skirt
G1 X117.927 Y132.372 E11.08467 ; skirt
G1 X116.437 Y131.002 E11.23992 ; skirt
G1 X115.437 Y129.922 E11.35280 ; skirt
G1 X114.487 Y128.762 E11.46780 ; skirt
G1 X113.677 Y127.632 E11.57443 ; skirt
G1 X112.857 Y126.282 E11.69558 ; skirt
G1 X112.157 Y124.952 E11.81085 ; skirt
G1 X111.557 Y123.612 E11.92346 ; skirt
G1 X111.037 Y122.212 E12.03800 ; skirt
G1 X110.607 Y120.772 E12.15327 ; skirt
G1 X110.327 Y119.552 E12.24927 ; skirt
G1 X110.057 Y117.902 E12.37750 ; skirt
G1 X109.957 Y116.972 E12.44924 ; skirt
G1 X109.947 Y116.932 E12.45241 ; skirt
G1 X109.917 Y116.622 E12.47629 ; skirt
G1 X109.867 Y114.892 E12.60903 ; skirt
G1 X109.927 Y113.392 E12.72417 ; skirt
G1 X110.057 Y112.112 E12.82285 ; skirt
G1 X110.327 Y110.462 E12.95108 ; skirt
G1 X110.607 Y109.252 E13.04634 ; skirt
G1 X111.117 Y107.582 E13.18026 ; skirt
G1 X111.637 Y106.222 E13.29194 ; skirt
G1 X112.147 Y105.082 E13.38772 ; skirt
G1 X112.977 Y103.542 E13.52190 ; skirt
G1 X113.767 Y102.292 E13.63531 ; skirt
G1 X114.637 Y101.082 E13.74961 ; skirt
G1 X115.909 Y99.604 E13.89919 ; skirt
G1 F6000.000 E10.89919 ; retract
G92 E0 ; reset extrusion distance
G1 X150.552 Y118.588 F15000.000 ; move to first perimeter point
G1 F6000.000 E3.00000 ; compensate retraction
G1 X150.280 Y119.755 F1080.000 E3.09189 ; perimeter
G1 X149.933 Y120.900 E3.18367 ; perimeter
G1 X149.790 Y121.280 E3.21479 ; perimeter
G1 X149.790 Y121.280 E3.21479 ; perimeter
G1 X149.560 Y121.891 E3.26484 ; perimeter
G1 X149.560 Y121.891 E3.26484 ; perimeter
G1 X149.511 Y122.021 E3.27550 ; perimeter
G1 X149.018 Y123.110 E3.36724 ; perimeter
G1 X148.453 Y124.167 E3.45912 ; perimeter
G1 X147.821 Y125.184 E3.55093 ; perimeter
G1 X147.123 Y126.157 E3.64274 ; perimeter
G1 X146.364 Y127.082 E3.73454 ; perimeter
G1 X145.545 Y127.956 E3.82640 ; perimeter
G1 X144.672 Y128.774 E3.91817 ; perimeter
G1 X143.747 Y129.533 E4.00997 ; perimeter
G1 X142.774 Y130.230 E4.10177 ; perimeter
G1 X141.757 Y130.863 E4.19359 ; perimeter
G1 X140.702 Y131.427 E4.28539 ; perimeter
G1 X139.611 Y131.921 E4.37722 ; perimeter
G1 X138.290 Y132.418 E4.48549 ; perimeter
G1 X138.290 Y132.403 E4.48662 ; perimeter
G1 X137.345 Y132.690 E4.56237 ; perimeter
G1 X136.315 Y132.930 E4.64346 ; perimeter
G1 X136.315 Y132.930 E4.64346 ; perimeter
G1 X136.180 Y132.962 E4.65413 ; perimeter
G1 X134.999 Y133.157 E4.74593 ; perimeter
G1 X133.808 Y133.274 E4.83769 ; perimeter
G1 X132.611 Y133.313 E4.92954 ; perimeter
G1 X132.230 Y133.301 E4.95879 ; perimeter
G1 X132.230 Y133.301 E4.95879 ; perimeter
G1 X131.415 Y133.274 E5.02137 ; perimeter
G1 X130.223 Y133.157 E5.11317 ; perimeter
G1 X129.042 Y132.962 E5.20498 ; perimeter
G1 X128.719 Y132.886 E5.23046 ; perimeter
G1 X128.719 Y132.886 E5.23046 ; perimeter
G1 X127.710 Y132.651 E5.30991 ; perimeter
G1 X127.710 Y132.639 E5.31080 ; perimeter
G1 X126.731 Y132.342 E5.38927 ; perimeter
G1 X125.611 Y131.921 E5.48108 ; perimeter
G1 X124.520 Y131.427 E5.57289 ; perimeter
G1 X123.465 Y130.863 E5.66469 ; perimeter
G1 X122.451 Y130.232 E5.75621 ; perimeter
G1 X121.475 Y129.533 E5.84831 ; perimeter
G1 X120.550 Y128.774 E5.94012 ; perimeter
G1 X119.676 Y127.956 E6.03192 ; perimeter
G1 X118.858 Y127.082 E6.12374 ; perimeter
G1 X118.172 Y126.246 E6.20664 ; perimeter
G1 X118.172 Y126.246 E6.20664 ; perimeter
G1 X118.099 Y126.156 E6.21555 ; perimeter
G1 X117.402 Y125.184 E6.30730 ; perimeter
G1 X116.923 Y124.414 E6.37685 ; perimeter
G1 X116.923 Y124.414 E6.37685 ; perimeter
G1 X116.606 Y123.904 E6.42290 ; perimeter
G1 X116.617 Y123.883 E6.42475 ; perimeter
G1 X116.260 Y123.214 E6.48297 ; perimeter
G1 X116.260 Y123.214 E6.48297 ; perimeter
G1 X116.205 Y123.111 E6.49187 ; perimeter
G1 X115.711 Y122.020 E6.58374 ; perimeter
G1 X115.289 Y120.901 E6.67549 ; perimeter
G1 X114.832 Y119.392 E6.79637 ; perimeter
G1 X114.857 Y119.392 E6.79833 ; perimeter
G1 X114.670 Y118.589 E6.86157 ; perimeter
G1 X114.475 Y117.408 E6.95338 ; perimeter
G1 X114.358 Y116.217 E7.04516 ; perimeter
G1 X114.318 Y115.021 E7.13700 ; perimeter
G1 X114.358 Y113.824 E7.22880 ; perimeter
G1 X114.475 Y112.633 E7.32060 ; perimeter
G1 X114.670 Y111.453 E7.41235 ; perimeter
G1 X114.942 Y110.286 E7.50424 ; perimeter
G1 X115.289 Y109.141 E7.59604 ; perimeter
G1 X115.432 Y108.761 E7.62715 ; perimeter
G1 X115.432 Y108.761 E7.62715 ; perimeter
G1 X115.711 Y108.020 E7.68785 ; perimeter
G1 X116.205 Y106.930 E7.77965 ; perimeter
G1 X116.769 Y105.874 E7.87147 ; perimeter
G1 X117.401 Y104.858 E7.96328 ; perimeter
G1 X118.018 Y103.998 E8.04443 ; perimeter
G1 X118.018 Y103.998 E8.04443 ; perimeter
G1 X118.099 Y103.885 E8.05510 ; perimeter
G1 X118.858 Y102.960 E8.14689 ; perimeter
G1 X119.676 Y102.086 E8.23872 ; perimeter
G1 X120.550 Y101.268 E8.33052 ; perimeter
G1 X121.118 Y100.801 E8.38689 ; perimeter
G1 X121.118 Y100.801 E8.38689 ; perimeter
G1 X121.475 Y100.508 E8.42232 ; perimeter
G1 X122.448 Y99.811 E8.51413 ; perimeter
G1 X123.579 Y99.108 E8.61626 ; perimeter
G1 X123.588 Y99.113 E8.61706 ; perimeter
G1 X124.521 Y98.615 E8.69816 ; perimeter
G1 X125.611 Y98.120 E8.78997 ; perimeter
G1 X126.731 Y97.699 E8.88176 ; perimeter
G1 X127.598 Y97.436 E8.95125 ; perimeter
G1 X127.598 Y97.436 E8.95125 ; perimeter
G1 X127.877 Y97.351 E8.97358 ; perimeter
G1 X128.907 Y97.111 E9.05472 ; perimeter
G1 X128.907 Y97.111 E9.05472 ; perimeter
G1 X129.042 Y97.080 E9.06538 ; perimeter
G1 X130.223 Y96.885 E9.15713 ; perimeter
G1 X131.414 Y96.767 E9.24895 ; perimeter
G1 X132.610 Y96.728 E9.34074 ; perimeter
G1 X133.291 Y96.750 E9.39302 ; perimeter
G1 X133.291 Y96.750 E9.39302 ; perimeter
G1 X133.883 Y96.770 E9.43841 ; perimeter
G1 X133.883 Y96.775 E9.43879 ; perimeter
G1 X134.999 Y96.885 E9.52478 ; perimeter
G1 X136.180 Y97.080 E9.61659 ; perimeter
G1 X137.346 Y97.351 E9.70842 ; perimeter
G1 X137.754 Y97.475 E9.74117 ; perimeter
G1 X137.754 Y97.475 E9.74118 ; perimeter
G1 X138.609 Y97.735 E9.80965 ; perimeter
G1 X138.609 Y97.743 E9.81031 ; perimeter
G1 X139.611 Y98.121 E9.89248 ; perimeter
G1 X140.012 Y98.302 E9.92621 ; perimeter
G1 X140.012 Y98.302 E9.92621 ; perimeter
G1 X140.064 Y98.326 E9.93060 ; perimeter
G1 X140.064 Y98.325 E9.93062 ; perimeter
G1 X140.701 Y98.615 E9.98430 ; perimeter
G1 X141.757 Y99.179 E10.07612 ; perimeter
G1 X142.774 Y99.811 E10.16795 ; perimeter
G1 X143.747 Y100.509 E10.25980 ; perimeter
G1 X144.672 Y101.268 E10.35154 ; perimeter
G1 X145.546 Y102.086 E10.44335 ; perimeter
G1 X146.364 Y102.960 E10.53517 ; perimeter
G1 X147.123 Y103.885 E10.62698 ; perimeter
G1 X147.820 Y104.857 E10.71873 ; perimeter
G1 X148.453 Y105.874 E10.81059 ; perimeter
G1 X149.017 Y106.930 E10.90240 ; perimeter
G1 X149.391 Y107.755 E10.97190 ; perimeter
G1 X149.391 Y107.755 E10.97190 ; perimeter
G1 X149.511 Y108.020 E10.99421 ; perimeter
G1 X149.932 Y109.138 E11.08583 ; perimeter
G1 X150.280 Y110.286 E11.17783 ; perimeter
G1 X150.552 Y111.452 E11.26964 ; perimeter
G1 X150.747 Y112.634 E11.36148 ; perimeter
G1 X150.864 Y113.824 E11.45326 ; perimeter
G1 X150.904 Y115.021 E11.54507 ; perimeter
G1 X150.858 Y116.428 E11.65302 ; perimeter
G1 X150.844 Y116.428 E11.65409 ; perimeter
G1 X150.747 Y117.408 E11.72963 ; perimeter
G1 X150.674 Y117.849 E11.76390 ; perimeter
G1 X151.360 Y118.134 F15000.000 ; move to first perimeter point
G1 X151.360 Y118.134 F1080.000 E11.76391 ; perimeter
G1 X151.261 Y118.734 E11.81056 ; perimeter
G1 X151.261 Y118.734 E11.81058 ; perimeter
G1 X151.123 Y119.324 E11.85703 ; perimeter
G1 X151.123 Y119.324 E11.85703 ; perimeter
G1 X150.979 Y119.942 E11.90575 ; perimeter
G1 X150.585 Y121.244 E12.01003 ; perimeter
G1 X150.576 Y121.244 E12.01065 ; perimeter
G1 X150.290 Y122.003 E12.07292 ; perimeter
G1 X150.290 Y122.003 E12.07292 ; perimeter
G1 X150.180 Y122.298 E12.09705 ; perimeter
G1 X149.634 Y123.503 E12.19853 ; perimeter
G1 X149.628 Y123.503 E12.19899 ; perimeter
G1 X149.079 Y124.529 E12.28818 ; perimeter
G1 X148.422 Y125.586 E12.38362 ; perimeter
G1 X147.697 Y126.597 E12.47906 ; perimeter
G1 X146.908 Y127.559 E12.57450 ; perimeter
G1 X146.521 Y127.973 E12.61798 ; perimeter
G1 X146.521 Y127.973 E12.61798 ; perimeter
G1 X146.057 Y128.467 E12.66995 ; perimeter
G1 X145.149 Y129.318 E12.76539 ; perimeter
G1 X144.633 Y129.741 E12.81661 ; perimeter
G1 X144.633 Y129.742 E12.81661 ; perimeter
G1 X144.187 Y130.107 E12.86083 ; perimeter
G1 X143.176 Y130.832 E12.95627 ; perimeter
G1 X142.119 Y131.489 E13.05171 ; perimeter
G1 X141.022 Y132.076 E13.14715 ; perimeter
G1 X139.888 Y132.589 E13.24260 ; perimeter
G1 X139.887 Y132.590 E13.24266 ; perimeter
G1 X139.645 Y132.699 E13.26307 ; perimeter
G1 X139.645 Y132.681 E13.26449 ; perimeter
G1 X138.724 Y133.028 E13.34000 ; perimeter
G1 X137.834 Y133.297 E13.41131 ; perimeter
G1 X137.834 Y133.297 E13.41131 ; perimeter
G1 X137.533 Y133.389 E13.43545 ; perimeter
G1 X136.321 Y133.671 E13.53089 ; perimeter
G1 X135.093 Y133.874 E13.62632 ; perimeter
G1 X134.506 Y133.932 E13.67157 ; perimeter
G1 X134.506 Y133.932 E13.67157 ; perimeter
G1 X133.605 Y134.021 E13.74101 ; perimeter
G1 X133.605 Y134.004 E13.74228 ; perimeter
G1 X132.611 Y134.037 E13.81855 ; perimeter
G1 X131.507 Y134.001 E13.90328 ; perimeter
G1 X131.507 Y134.001 E13.90328 ; perimeter
G1 X131.367 Y133.996 E13.91400 ; perimeter
G1 X130.129 Y133.874 E14.00944 ; perimeter
G1 X128.901 Y133.671 E14.10488 ; perimeter
G1 X127.996 Y133.460 E14.17619 ; perimeter
G1 X127.996 Y133.460 E14.17619 ; perimeter
G1 X127.689 Y133.389 E14.20032 ; perimeter
G1 X126.632 Y133.068 E14.28504 ; perimeter
G1 X126.632 Y133.068 E14.28504 ; perimeter
G1 X126.498 Y133.028 E14.29576 ; perimeter
G1 X125.628 Y132.700 E14.36707 ; perimeter
G1 X125.628 Y132.700 E14.36707 ; perimeter
G1 X125.334 Y132.589 E14.39120 ; perimeter
G1 X124.200 Y132.076 E14.48664 ; perimeter
G1 X123.103 Y131.489 E14.58208 ; perimeter
G1 X122.046 Y130.832 E14.67752 ; perimeter
G1 X121.290 Y130.290 E14.74883 ; perimeter
G1 X121.290 Y130.290 E14.74883 ; perimeter
G1 X121.035 Y130.107 E14.77296 ; perimeter
G1 X120.073 Y129.318 E14.86840 ; perimeter
G1 X119.165 Y128.467 E14.96384 ; perimeter
G1 X118.314 Y127.559 E15.05928 ; perimeter
G1 X117.524 Y126.597 E15.15473 ; perimeter
G1 X116.716 Y125.469 E15.26114 ; perimeter
G1 X116.721 Y125.459 E15.26198 ; perimeter
G1 X116.143 Y124.529 E15.34604 ; perimeter
G1 X115.556 Y123.431 E15.44148 ; perimeter
G1 X115.172 Y122.584 E15.51279 ; perimeter
G1 X115.172 Y122.584 E15.51279 ; perimeter
G1 X115.042 Y122.298 E15.53692 ; perimeter
G1 X114.604 Y121.133 E15.63236 ; perimeter
G1 X114.243 Y119.942 E15.72780 ; perimeter
G1 X114.032 Y119.037 E15.79911 ; perimeter
G1 X114.032 Y119.037 E15.79911 ; perimeter
G1 X113.960 Y118.731 E15.82324 ; perimeter
G1 X113.758 Y117.503 E15.91868 ; perimeter
G1 X113.636 Y116.264 E16.01412 ; perimeter
G1 X113.599 Y115.160 E16.09885 ; perimeter
G1 X113.599 Y115.160 E16.09885 ; perimeter
G1 X113.595 Y115.021 E16.10956 ; perimeter
G1 X113.636 Y113.777 E16.20500 ; perimeter
G1 X113.758 Y112.539 E16.30044 ; perimeter
G1 X113.961 Y111.307 E16.39615 ; perimeter
G1 X113.961 Y111.307 E16.39618 ; perimeter
G1 X114.243 Y110.099 E16.49134 ; perimeter
G1 X114.604 Y108.908 E16.58678 ; perimeter
G1 X114.932 Y108.038 E16.65809 ; perimeter
G1 X114.932 Y108.038 E16.65809 ; perimeter
G1 X115.042 Y107.744 E16.68222 ; perimeter
G1 X115.556 Y106.610 E16.77766 ; perimeter
G1 X116.143 Y105.513 E16.87310 ; perimeter
G1 X116.800 Y104.456 E16.96855 ; perimeter
G1 X117.525 Y103.444 E17.06399 ; perimeter
G1 X118.314 Y102.483 E17.15942 ; perimeter
G1 X119.165 Y101.574 E17.25487 ; perimeter
G1 X120.073 Y100.724 E17.35031 ; perimeter
G1 X121.035 Y99.934 E17.44575 ; perimeter
G1 X122.046 Y99.209 E17.54118 ; perimeter
G1 X123.103 Y98.552 E17.63663 ; perimeter
G1 X123.923 Y98.114 E17.70794 ; perimeter
G1 X123.923 Y98.114 E17.70794 ; perimeter
G1 X124.200 Y97.966 E17.73207 ; perimeter
G1 X125.334 Y97.452 E17.82752 ; perimeter
G1 X126.498 Y97.014 E17.92295 ; perimeter
G1 X127.689 Y96.653 E18.01839 ; perimeter
G1 X128.901 Y96.370 E18.11383 ; perimeter
G1 X130.255 Y96.146 E18.21904 ; perimeter
G1 X130.255 Y96.155 E18.21969 ; perimeter
G1 X131.466 Y96.035 E18.31305 ; perimeter
G1 X131.466 Y96.042 E18.31355 ; perimeter
G1 X132.684 Y96.002 E18.40701 ; perimeter
G1 X132.684 Y96.007 E18.40738 ; perimeter
G1 X133.855 Y96.045 E18.49723 ; perimeter
G1 X135.093 Y96.167 E18.59267 ; perimeter
G1 X136.321 Y96.370 E18.68811 ; perimeter
G1 X136.914 Y96.508 E18.73484 ; perimeter
G1 X136.914 Y96.508 E18.73484 ; perimeter
G1 X137.533 Y96.653 E18.78355 ; perimeter
