; generated by Slic3r 0.9.3 on 2012-12-13 at 22:31:03

; layer_height = 0.25
; perimeters = 4
; solid_layers = 2
; fill_density = 0
; perimeter_speed = 60
; infill_speed = 90
; travel_speed = 250
; scale = 1
; nozzle_diameter = 0.35
; filament_diameter = 1.7
; extrusion_multiplier = 1.0
; single wall width = 0.75mm

M104 S185 ; set temperature
;Standard Profile for Series 1. Single Extruder
M104 S185
M301 P24.72 I0.88 D231.1
G28
G1 X120 Y115 Z15 F10000
G92 E0
G1 Y5 Z15 F5000
M109 S185
G1 F100 E50
G92 E0
G1 X50 Z0.3 F10000
; do a little dance on a toothbrush to remove extrusions..  
G90 ; use absolute coordinates
G21 ; set units to millimeters
G92 E0 ; reset extrusion distance
M82 ; use absolute distances for extrusion
M106 S255 ; enable fan
G1 F6000.000 E-3.00000 ; retract
G92 E0 ; reset extrusion distance
G1 Z0.250 F15000.000 ; move to next layer (0)
G1 X121.924 Y105.846 ; move to first skirt point
G1 F6000.000 E3.00000 ; compensate retraction
G1 X122.764 Y105.046 F1080.000 E3.08897 ; skirt
G1 X123.904 Y104.176 E3.19896 ; skirt
G1 X124.844 Y103.596 E3.28367 ; skirt
G1 X125.574 Y103.206 E3.34715 ; skirt
G1 X126.134 Y102.946 E3.39450 ; skirt
G1 X127.194 Y102.556 E3.48113 ; skirt
G1 X128.854 Y102.116 E3.61284 ; skirt
G1 X129.304 Y102.036 E3.64790 ; skirt
G1 X130.754 Y101.906 E3.75956 ; skirt
G1 X131.354 Y101.886 E3.80560 ; skirt
G1 X132.274 Y101.926 E3.87623 ; skirt
G1 X132.884 Y101.986 E3.92324 ; skirt
G1 X133.984 Y102.166 E4.00873 ; skirt
G1 X134.584 Y102.306 E4.05598 ; skirt
G1 X135.924 Y102.726 E4.16369 ; skirt
G1 X137.024 Y103.206 E4.25574 ; skirt
G1 X137.944 Y103.706 E4.33605 ; skirt
G1 X138.694 Y104.176 E4.40393 ; skirt
G1 X140.114 Y105.276 E4.54170 ; skirt
G1 X140.504 Y105.636 E4.58240 ; skirt
G1 X141.624 Y106.906 E4.71227 ; skirt
G1 X142.504 Y108.156 E4.82952 ; skirt
G1 X142.684 Y108.476 E4.85768 ; skirt
G1 X142.724 Y108.566 E4.86523 ; skirt
G1 X143.124 Y109.336 E4.93178 ; skirt
G1 X143.764 Y110.926 E5.06324 ; skirt
G1 X144.044 Y111.866 E5.13847 ; skirt
G1 X144.144 Y112.316 E5.17382 ; skirt
G1 X144.324 Y113.406 E5.25856 ; skirt
G1 X144.404 Y114.216 E5.32098 ; skirt
G1 X144.414 Y115.346 E5.40765 ; skirt
G1 X144.324 Y116.596 E5.50377 ; skirt
G1 X144.144 Y117.686 E5.58851 ; skirt
G1 X144.004 Y118.286 E5.63576 ; skirt
G1 X143.754 Y119.116 E5.70224 ; skirt
G1 X143.384 Y120.096 E5.78259 ; skirt
G1 X143.054 Y120.826 E5.84403 ; skirt
G1 X142.604 Y121.656 E5.91644 ; skirt
G1 X142.134 Y122.406 E5.98433 ; skirt
G1 X141.624 Y123.106 E6.05075 ; skirt
G1 X141.234 Y123.576 E6.09759 ; skirt
G1 X140.484 Y124.366 E6.18114 ; skirt
G1 X139.844 Y124.956 E6.24790 ; skirt
G1 X138.694 Y125.836 E6.35897 ; skirt
G1 X137.434 Y126.606 E6.47222 ; skirt
G1 X136.124 Y127.216 E6.58305 ; skirt
G1 X135.594 Y127.416 E6.62650 ; skirt
G1 X133.984 Y127.846 E6.75431 ; skirt
G1 X133.054 Y128.006 E6.82669 ; skirt
G1 X132.274 Y128.086 E6.88683 ; skirt
G1 X131.274 Y128.126 E6.96358 ; skirt
G1 X130.324 Y128.086 E7.03651 ; skirt
G1 X129.714 Y128.026 E7.08352 ; skirt
G1 X128.604 Y127.836 E7.16989 ; skirt
G1 X127.784 Y127.636 E7.23463 ; skirt
G1 X126.424 Y127.186 E7.34450 ; skirt
G1 X125.414 Y126.726 E7.42962 ; skirt
G1 X124.784 Y126.386 E7.48453 ; skirt
G1 X123.904 Y125.836 E7.56412 ; skirt
G1 X122.934 Y125.106 E7.65723 ; skirt
G1 X122.904 Y125.076 E7.66048 ; skirt
G1 X121.944 Y124.186 E7.76089 ; skirt
G1 X121.134 Y123.276 E7.85432 ; skirt
G1 X121.094 Y123.236 E7.85866 ; skirt
G1 X120.474 Y122.406 E7.93812 ; skirt
G1 X119.854 Y121.426 E8.02706 ; skirt
G1 X119.604 Y120.966 E8.06722 ; skirt
G1 X118.934 Y119.366 E8.20026 ; skirt
G1 X118.824 Y119.056 E8.22549 ; skirt
G1 X118.464 Y117.686 E8.33413 ; skirt
G1 X118.294 Y116.606 E8.41798 ; skirt
G1 X118.254 Y116.206 E8.44881 ; skirt
G1 X118.244 Y116.176 E8.45124 ; skirt
G1 X118.194 Y114.886 E8.55025 ; skirt
G1 X118.274 Y113.496 E8.65704 ; skirt
G1 X118.464 Y112.326 E8.74795 ; skirt
G1 X118.604 Y111.726 E8.79520 ; skirt
G1 X118.764 Y111.176 E8.83914 ; skirt
G1 X118.774 Y111.116 E8.84380 ; skirt
G1 X118.834 Y110.916 E8.85982 ; skirt
G1 X119.224 Y109.896 E8.94357 ; skirt
G1 X119.604 Y109.076 E9.01289 ; skirt
G1 X120.474 Y107.606 E9.14390 ; skirt
G1 X120.994 Y106.906 E9.21078 ; skirt
G1 X121.418 Y106.400 E9.26144 ; skirt
G1 F6000.000 E6.26144 ; retract
G92 E0 ; reset extrusion distance
G1 X136.735 Y119.772 F15000.000 ; move to first perimeter point
G1 F6000.000 E3.00000 ; compensate retraction
G1 X136.411 Y120.117 F1080.000 E3.03625 ; perimeter
G1 X136.067 Y120.440 E3.07249 ; perimeter
G1 X135.701 Y120.739 E3.10872 ; perimeter
G1 X135.317 Y121.014 E3.14495 ; perimeter
G1 X134.916 Y121.264 E3.18119 ; perimeter
G1 X134.627 Y121.418 E3.20633 ; perimeter
G1 X134.627 Y121.418 E3.20633 ; perimeter
G1 X134.499 Y121.487 E3.21744 ; perimeter
G1 X134.069 Y121.682 E3.25371 ; perimeter
G1 X133.628 Y121.848 E3.28980 ; perimeter
G1 X133.174 Y121.985 E3.32620 ; perimeter
G1 X132.714 Y122.093 E3.36242 ; perimeter
G1 X132.248 Y122.170 E3.39863 ; perimeter
G1 X131.778 Y122.216 E3.43488 ; perimeter
G1 X131.306 Y122.231 E3.47110 ; perimeter
G1 X130.833 Y122.216 E3.50738 ; perimeter
G1 X130.432 Y122.176 E3.53833 ; perimeter
G1 X130.432 Y122.176 E3.53833 ; perimeter
G1 X130.363 Y122.170 E3.54362 ; perimeter
G1 X129.986 Y122.107 E3.57290 ; perimeter
G1 X129.986 Y122.114 E3.57336 ; perimeter
G1 X129.436 Y121.985 E3.61667 ; perimeter
G1 X128.985 Y121.848 E3.65288 ; perimeter
G1 X128.542 Y121.682 E3.68915 ; perimeter
G1 X128.111 Y121.486 E3.72549 ; perimeter
G1 X127.695 Y121.264 E3.76162 ; perimeter
G1 X127.295 Y121.015 E3.79779 ; perimeter
G1 X126.910 Y120.739 E3.83412 ; perimeter
G1 X126.544 Y120.439 E3.87036 ; perimeter
G1 X126.200 Y120.117 E3.90659 ; perimeter
G1 X125.876 Y119.771 E3.94285 ; perimeter
G1 X125.577 Y119.406 E3.97909 ; perimeter
G1 X125.301 Y119.022 E4.01533 ; perimeter
G1 X125.052 Y118.621 E4.05156 ; perimeter
G1 X124.830 Y118.205 E4.08770 ; perimeter
G1 X124.634 Y117.774 E4.12405 ; perimeter
G1 X124.468 Y117.332 E4.16029 ; perimeter
G1 X124.330 Y116.879 E4.19656 ; perimeter
G1 X124.223 Y116.419 E4.23278 ; perimeter
G1 X124.146 Y115.953 E4.26903 ; perimeter
G1 X124.100 Y115.482 E4.30529 ; perimeter
G1 X124.084 Y115.010 E4.34154 ; perimeter
G1 X124.100 Y114.538 E4.37772 ; perimeter
G1 X124.146 Y114.068 E4.41398 ; perimeter
G1 X124.223 Y113.602 E4.45020 ; perimeter
G1 X124.331 Y113.141 E4.48648 ; perimeter
G1 X124.468 Y112.689 E4.52270 ; perimeter
G1 X124.634 Y112.247 E4.55896 ; perimeter
G1 X124.769 Y111.949 E4.58408 ; perimeter
G1 X124.769 Y111.949 E4.58408 ; perimeter
G1 X124.829 Y111.817 E4.59517 ; perimeter
G1 X125.052 Y111.400 E4.63142 ; perimeter
G1 X125.301 Y110.999 E4.66766 ; perimeter
G1 X125.577 Y110.614 E4.70394 ; perimeter
G1 X125.876 Y110.249 E4.74015 ; perimeter
G1 X126.200 Y109.904 E4.77642 ; perimeter
G1 X126.438 Y109.680 E4.80152 ; perimeter
G1 X126.438 Y109.680 E4.80152 ; perimeter
G1 X126.544 Y109.581 E4.81266 ; perimeter
G1 X126.910 Y109.282 E4.84889 ; perimeter
G1 X127.293 Y109.006 E4.88511 ; perimeter
G1 X127.694 Y108.757 E4.92133 ; perimeter
G1 X128.112 Y108.534 E4.95761 ; perimeter
G1 X128.542 Y108.339 E4.99389 ; perimeter
G1 X128.984 Y108.173 E5.03005 ; perimeter
G1 X129.437 Y108.035 E5.06635 ; perimeter
G1 X129.897 Y107.928 E5.10258 ; perimeter
G1 X130.363 Y107.851 E5.13881 ; perimeter
G1 X131.086 Y107.780 E5.19456 ; perimeter
G1 X131.086 Y107.796 E5.19583 ; perimeter
G1 X131.305 Y107.789 E5.21264 ; perimeter
G1 X131.778 Y107.805 E5.24892 ; perimeter
G1 X132.248 Y107.851 E5.28513 ; perimeter
G1 X132.714 Y107.928 E5.32137 ; perimeter
G1 X133.175 Y108.036 E5.35769 ; perimeter
G1 X133.626 Y108.172 E5.39383 ; perimeter
G1 X134.069 Y108.339 E5.43013 ; perimeter
G1 X134.499 Y108.534 E5.46634 ; perimeter
G1 X134.916 Y108.757 E5.50259 ; perimeter
G1 X135.317 Y109.006 E5.53886 ; perimeter
G1 X135.702 Y109.282 E5.57511 ; perimeter
G1 X135.955 Y109.489 E5.60022 ; perimeter
G1 X135.955 Y109.489 E5.60022 ; perimeter
G1 X136.067 Y109.581 E5.61131 ; perimeter
G1 X136.412 Y109.904 E5.64759 ; perimeter
G1 X136.735 Y110.249 E5.68382 ; perimeter
G1 X137.034 Y110.615 E5.72007 ; perimeter
G1 X137.309 Y110.998 E5.75627 ; perimeter
G1 X137.376 Y111.106 E5.76601 ; perimeter
G1 X137.376 Y111.106 E5.76602 ; perimeter
G1 X137.748 Y111.703 E5.81991 ; perimeter
G1 X137.734 Y111.727 E5.82204 ; perimeter
G1 X137.782 Y111.817 E5.82982 ; perimeter
G1 X137.782 Y111.817 E5.82983 ; perimeter
G1 X137.998 Y112.221 E5.86496 ; perimeter
G1 X137.965 Y112.221 E5.86748 ; perimeter
G1 X137.977 Y112.247 E5.86972 ; perimeter
G1 X138.143 Y112.689 E5.90593 ; perimeter
G1 X138.280 Y113.141 E5.94216 ; perimeter
G1 X138.388 Y113.602 E5.97842 ; perimeter
G1 X138.465 Y114.068 E6.01467 ; perimeter
G1 X138.511 Y114.538 E6.05089 ; perimeter
G1 X138.527 Y115.010 E6.08712 ; perimeter
G1 X138.511 Y115.482 E6.12336 ; perimeter
G1 X138.474 Y115.856 E6.15214 ; perimeter
G1 X138.481 Y115.856 E6.15263 ; perimeter
G1 X138.388 Y116.419 E6.19641 ; perimeter
G1 X138.280 Y116.879 E6.23268 ; perimeter
G1 X138.143 Y117.331 E6.26891 ; perimeter
G1 X137.977 Y117.774 E6.30516 ; perimeter
G1 X137.782 Y118.204 E6.34138 ; perimeter
G1 X137.559 Y118.621 E6.37762 ; perimeter
G1 X137.309 Y119.022 E6.41390 ; perimeter
G1 X137.196 Y119.181 E6.42885 ; perimeter
G1 X137.707 Y119.710 F15000.000 ; move to first perimeter point
G1 X137.608 Y119.847 F1080.000 E6.44180 ; perimeter
G1 X137.279 Y120.249 E6.48167 ; perimeter
G1 X136.923 Y120.628 E6.52155 ; perimeter
G1 X136.544 Y120.983 E6.56142 ; perimeter
G1 X136.142 Y121.313 E6.60128 ; perimeter
G1 X135.719 Y121.616 E6.64114 ; perimeter
G1 X135.278 Y121.891 E6.68102 ; perimeter
G1 X134.819 Y122.136 E6.72090 ; perimeter
G1 X134.345 Y122.350 E6.76080 ; perimeter
G1 X133.861 Y122.533 E6.80051 ; perimeter
G1 X133.361 Y122.684 E6.84055 ; perimeter
G1 X133.020 Y122.764 E6.86746 ; perimeter
G1 X133.020 Y122.764 E6.86746 ; perimeter
G1 X132.855 Y122.802 E6.88040 ; perimeter
G1 X132.343 Y122.887 E6.92025 ; perimeter
G1 X131.825 Y122.938 E6.96012 ; perimeter
G1 X131.306 Y122.955 E6.99998 ; perimeter
G1 X130.786 Y122.938 E7.03989 ; perimeter
G1 X130.269 Y122.887 E7.07976 ; perimeter
G1 X129.756 Y122.802 E7.11963 ; perimeter
G1 X129.249 Y122.684 E7.15952 ; perimeter
G1 X128.752 Y122.533 E7.19935 ; perimeter
G1 X128.265 Y122.350 E7.23926 ; perimeter
G1 X127.790 Y122.135 E7.27924 ; perimeter
G1 X127.333 Y121.891 E7.31899 ; perimeter
G1 X126.892 Y121.616 E7.35888 ; perimeter
G1 X126.606 Y121.411 E7.38582 ; perimeter
G1 X126.606 Y121.411 E7.38582 ; perimeter
G1 X126.469 Y121.313 E7.39875 ; perimeter
G1 X126.067 Y120.983 E7.43863 ; perimeter
G1 X125.688 Y120.628 E7.47849 ; perimeter
G1 X125.332 Y120.249 E7.51837 ; perimeter
G1 X125.003 Y119.847 E7.55824 ; perimeter
G1 X124.700 Y119.424 E7.59812 ; perimeter
G1 X124.514 Y119.126 E7.62506 ; perimeter
G1 X124.514 Y119.126 E7.62506 ; perimeter
G1 X124.425 Y118.983 E7.63798 ; perimeter
G1 X124.180 Y118.524 E7.67788 ; perimeter
G1 X124.035 Y118.204 E7.70482 ; perimeter
G1 X124.035 Y118.204 E7.70482 ; perimeter
G1 X123.966 Y118.051 E7.71774 ; perimeter
G1 X123.783 Y117.564 E7.75761 ; perimeter
G1 X123.632 Y117.066 E7.79751 ; perimeter
G1 X123.514 Y116.560 E7.83736 ; perimeter
G1 X123.429 Y116.047 E7.87724 ; perimeter
G1 X123.387 Y115.622 E7.91000 ; perimeter
G1 X123.387 Y115.622 E7.91000 ; perimeter
G1 X123.378 Y115.530 E7.91711 ; perimeter
G1 X123.361 Y115.010 E7.95702 ; perimeter
G1 X123.378 Y114.491 E7.99682 ; perimeter
G1 X123.422 Y114.047 E8.03103 ; perimeter
G1 X123.417 Y114.047 E8.03141 ; perimeter
G1 X123.513 Y113.461 E8.07700 ; perimeter
G1 X123.632 Y112.954 E8.11690 ; perimeter
G1 X123.636 Y112.939 E8.11808 ; perimeter
G1 X123.636 Y112.939 E8.11809 ; perimeter
G1 X123.782 Y112.457 E8.15677 ; perimeter
G1 X123.966 Y111.970 E8.19666 ; perimeter
G1 X124.180 Y111.497 E8.23651 ; perimeter
G1 X124.425 Y111.038 E8.27638 ; perimeter
G1 X124.700 Y110.596 E8.31628 ; perimeter
G1 X124.904 Y110.311 E8.34321 ; perimeter
G1 X124.904 Y110.311 E8.34321 ; perimeter
G1 X125.003 Y110.174 E8.35616 ; perimeter
G1 X125.430 Y109.653 E8.40785 ; perimeter
G1 X125.444 Y109.653 E8.40891 ; perimeter
G1 X125.688 Y109.393 E8.43626 ; perimeter
G1 X126.067 Y109.037 E8.47614 ; perimeter
G1 X126.469 Y108.707 E8.51600 ; perimeter
G1 X126.891 Y108.405 E8.55585 ; perimeter
G1 X127.333 Y108.130 E8.59570 ; perimeter
G1 X127.792 Y107.885 E8.63562 ; perimeter
G1 X128.265 Y107.670 E8.67552 ; perimeter
G1 X128.751 Y107.488 E8.71532 ; perimeter
G1 X129.249 Y107.336 E8.75525 ; perimeter
G1 X129.756 Y107.218 E8.79511 ; perimeter
G1 X130.268 Y107.134 E8.83498 ; perimeter
G1 X130.786 Y107.083 E8.87485 ; perimeter
G1 X131.305 Y107.066 E8.91470 ; perimeter
G1 X131.778 Y107.081 E8.95097 ; perimeter
G1 X131.778 Y107.078 E8.95121 ; perimeter
G1 X132.342 Y107.134 E8.99472 ; perimeter
G1 X132.419 Y107.146 E9.00065 ; perimeter
G1 X132.419 Y107.146 E9.00066 ; perimeter
G1 X132.855 Y107.218 E9.03460 ; perimeter
G1 X133.362 Y107.337 E9.07455 ; perimeter
G1 X133.859 Y107.487 E9.11432 ; perimeter
G1 X134.346 Y107.670 E9.15425 ; perimeter
G1 X134.819 Y107.885 E9.19410 ; perimeter
G1 X135.328 Y108.157 E9.23832 ; perimeter
G1 X135.328 Y108.161 E9.23865 ; perimeter
G1 X135.719 Y108.405 E9.27405 ; perimeter
G1 X136.142 Y108.708 E9.31393 ; perimeter
G1 X136.544 Y109.037 E9.35376 ; perimeter
G1 X136.923 Y109.393 E9.39367 ; perimeter
G1 X137.279 Y109.772 E9.43353 ; perimeter
G1 X137.393 Y109.912 E9.44736 ; perimeter
G1 X137.393 Y109.912 E9.44736 ; perimeter
G1 X137.550 Y110.102 E9.46631 ; perimeter
G1 X137.550 Y110.102 E9.46631 ; perimeter
G1 X137.608 Y110.174 E9.47340 ; perimeter
G1 X137.911 Y110.596 E9.51324 ; perimeter
G1 X138.186 Y111.038 E9.55314 ; perimeter
G1 X138.431 Y111.497 E9.59302 ; perimeter
G1 X138.645 Y111.970 E9.63291 ; perimeter
G1 X138.828 Y112.457 E9.67276 ; perimeter
G1 X138.979 Y112.954 E9.71262 ; perimeter
G1 X139.097 Y113.460 E9.75251 ; perimeter
G1 X139.182 Y113.973 E9.79239 ; perimeter
G1 X139.233 Y114.490 E9.83224 ; perimeter
G1 X139.250 Y115.010 E9.87210 ; perimeter
G1 X139.233 Y115.530 E9.91198 ; perimeter
G1 X139.182 Y116.047 E9.95186 ; perimeter
G1 X139.098 Y116.560 E9.99173 ; perimeter
G1 X138.979 Y117.067 E10.03163 ; perimeter
G1 X138.829 Y117.564 E10.07149 ; perimeter
G1 X138.645 Y118.051 E10.11138 ; perimeter
G1 X138.500 Y118.371 E10.13832 ; perimeter
G1 X138.500 Y118.371 E10.13832 ; perimeter
G1 X138.431 Y118.524 E10.15123 ; perimeter
G1 X138.186 Y118.982 E10.19110 ; perimeter
G1 X138.122 Y119.085 E10.20041 ; perimeter
G1 X138.799 Y119.366 F15000.000 ; move to first perimeter point
G1 X138.513 Y119.826 F1080.000 E10.24199 ; perimeter
G1 X138.182 Y120.287 E10.28549 ; perimeter
G1 X137.888 Y120.646 E10.32110 ; perimeter
G1 X137.891 Y120.653 E10.32166 ; perimeter
G1 X137.435 Y121.140 E10.37282 ; perimeter
G1 X137.021 Y121.527 E10.41632 ; perimeter
G1 X136.582 Y121.887 E10.45982 ; perimeter
G1 X136.121 Y122.218 E10.50332 ; perimeter
G1 X135.640 Y122.517 E10.54682 ; perimeter
G1 X135.139 Y122.785 E10.59033 ; perimeter
G1 X134.623 Y123.019 E10.63385 ; perimeter
G1 X134.092 Y123.218 E10.67734 ; perimeter
G1 X133.733 Y123.327 E10.70610 ; perimeter
G1 X133.733 Y123.327 E10.70610 ; perimeter
G1 X133.588 Y123.371 E10.71776 ; perimeter
G1 X133.588 Y123.371 E10.71776 ; perimeter
G1 X133.549 Y123.383 E10.72085 ; perimeter
G1 X132.592 Y123.606 E10.79620 ; perimeter
G1 X132.592 Y123.579 E10.79831 ; perimeter
G1 X132.199 Y123.644 E10.82889 ; perimeter
G1 X132.199 Y123.628 E10.83011 ; perimeter
G1 X131.667 Y123.680 E10.87112 ; perimeter
G1 X131.667 Y123.667 E10.87216 ; perimeter
G1 X131.306 Y123.679 E10.89984 ; perimeter
G1 X130.739 Y123.660 E10.94338 ; perimeter
G1 X130.174 Y123.604 E10.98689 ; perimeter
G1 X129.615 Y123.512 E11.03038 ; perimeter
G1 X129.062 Y123.383 E11.07390 ; perimeter
G1 X128.520 Y123.219 E11.11737 ; perimeter
G1 X127.988 Y123.019 E11.16091 ; perimeter
G1 X127.602 Y122.844 E11.19346 ; perimeter
G1 X127.602 Y122.854 E11.19428 ; perimeter
G1 X126.971 Y122.517 E11.24909 ; perimeter
G1 X126.490 Y122.218 E11.29260 ; perimeter
G1 X126.029 Y121.887 E11.33610 ; perimeter
