; generated by Slic3r 0.9.3 on 2012-12-13 at 21:57:59

; layer_height = 0.25
; perimeters = 2
; solid_layers = 2
; fill_density = 0.15
; perimeter_speed = 85
; infill_speed = 60
; travel_speed = 250
; scale = 1
; nozzle_diameter = 0.35
; filament_diameter = 1.7
; extrusion_multiplier = 1.0
; single wall width = 0.39mm

M104 S185 ; set temperature
;Standard Profile for Series 1. Single Extruder
M104 S185
M301 P24.72 I0.88 D231.1
G28
G1 X120 Y115 Z15 F10000
G92 E0
G1 Y5 Z15 F5000
M109 S185
G1 F100 E50
G92 E0
G1 X50 Z0.3 F10000
; do a little dance on a toothbrush to remove extrusions..  
G90 ; use absolute coordinates
G21 ; set units to millimeters
G92 E0
M82 ; use absolute distances for extrusion
M106 S255
G1 F6000.000 E-3.00000
G92 E0
G1 Z0.250 F15000.000
G1 X114.367 Y97.152
G1 F6000.000 E3.00000
G1 X115.937 Y95.682 F2040.000 E3.09117
G1 X118.227 Y93.922 E3.21359
G1 X120.017 Y92.812 E3.30287
G1 X121.487 Y92.042 E3.37321
G1 X123.047 Y91.342 E3.44568
G1 X125.747 Y90.422 E3.56659
G1 X127.847 Y89.932 E3.65800
G1 X130.697 Y89.552 E3.77987
G1 X132.507 Y89.482 E3.85665
G1 X134.487 Y89.552 E3.94063
G1 X136.247 Y89.742 E4.01566
G1 X138.987 Y90.292 E4.13412
G1 X140.347 Y90.692 E4.19421
G1 X140.357 Y90.702 E4.19481
G1 X142.177 Y91.352 E4.27673
G1 X144.057 Y92.202 E4.36418
G1 X144.887 Y92.642 E4.40400
G1 X144.917 Y92.662 E4.40553
G1 X146.957 Y93.902 E4.50672
G1 X148.297 Y94.882 E4.57709
G1 X149.617 Y95.982 E4.64992
G1 X151.697 Y98.062 E4.77461
G1 X152.987 Y99.642 E4.86107
G1 X154.587 Y102.032 E4.98298
G1 X155.607 Y103.942 E5.07476
G1 X156.267 Y105.442 E5.14423
G1 X156.837 Y106.982 E5.21383
G1 X157.327 Y108.632 E5.28679
G1 X157.727 Y110.452 E5.36578
G1 X157.947 Y111.902 E5.42794
G1 X158.097 Y113.562 E5.49859
G1 X158.137 Y115.212 E5.56855
G1 X158.067 Y116.882 E5.63940
G1 X157.897 Y118.462 E5.70676
G1 X157.607 Y120.182 E5.78070
G1 X157.197 Y121.872 E5.85441
G1 X156.707 Y123.422 E5.92331
G1 X156.117 Y124.952 E5.99282
G1 X155.397 Y126.532 E6.06642
G1 X154.947 Y127.362 E6.10644
G1 X154.937 Y127.362 E6.10686
G1 X154.607 Y127.972 E6.13626
G1 X153.717 Y129.372 E6.20658
G1 X152.077 Y131.532 E6.32154
G1 X150.497 Y133.222 E6.41960
G1 X148.247 Y135.192 E6.54636
G1 X146.957 Y136.132 E6.61402
G1 X145.177 Y137.232 E6.70272
G1 X142.577 Y138.512 E6.82555
G1 X140.597 Y139.262 E6.91530
G1 X139.037 Y139.722 E6.98424
G1 X137.367 Y140.102 E7.05684
G1 X135.717 Y140.352 E7.12758
G1 X133.917 Y140.512 E7.20417
G1 X132.777 Y140.542 E7.25251
G1 X130.747 Y140.472 E7.33861
G1 X129.807 Y140.382 E7.37864
G1 X129.797 Y140.382 E7.37906
G1 X127.387 Y140.012 E7.48241
G1 X126.167 Y139.722 E7.53556
G1 X124.917 Y139.342 E7.59094
G1 X124.917 Y139.352 E7.59137
G1 X123.047 Y138.692 E7.67542
G1 X121.117 Y137.812 E7.76533
G1 X118.647 Y136.392 E7.88610
G1 X116.937 Y135.172 E7.97514
G1 X115.777 Y134.212 E8.03896
G1 X114.377 Y132.892 E8.12052
G1 X112.217 Y130.392 E8.26057
G1 X111.247 Y129.002 E8.33241
G1 X110.397 Y127.602 E8.40184
G1 X109.627 Y126.132 E8.47218
G1 X108.937 Y124.592 E8.54371
G1 X108.357 Y123.012 E8.61505
G1 X107.887 Y121.402 E8.68614
G1 X107.487 Y119.582 E8.76513
G1 X107.267 Y118.132 E8.82729
G1 X107.117 Y116.472 E8.89794
G1 X107.077 Y114.812 E8.96833
G1 X107.147 Y113.142 E9.03918
G1 X107.327 Y111.452 E9.11122
G1 X107.887 Y108.632 E9.23308
G1 X108.497 Y106.612 E9.32253
G1 X109.107 Y105.042 E9.39392
G1 X109.827 Y103.502 E9.46598
G1 X110.607 Y102.062 E9.53540
G1 X111.487 Y100.662 E9.60549
G1 X112.477 Y99.302 E9.67679
G1 X114.100 Y97.442 E9.78142
G1 F6000.000 E6.78142
G92 E0
G1 X128.971 Y96.722 F15000.000
G1 F6000.000 E3.00000
G1 X130.176 Y96.523 F2040.000 E3.06290
G1 X131.355 Y96.407 E3.12396
G1 X131.355 Y96.407 E3.12397
G1 X131.391 Y96.404 E3.12581
G1 X132.610 Y96.364 E3.18868
G1 X133.831 Y96.404 E3.25162
G1 X135.046 Y96.523 E3.31450
G1 X136.251 Y96.722 E3.37743
G1 X137.440 Y96.999 E3.44035
G1 X138.608 Y97.354 E3.50325
G1 X139.751 Y97.784 E3.56616
G1 X140.303 Y98.034 E3.59738
G1 X140.303 Y98.034 E3.59738
G1 X140.384 Y98.071 E3.60196
G1 X140.384 Y98.070 E3.60196
G1 X140.863 Y98.288 E3.62907
G1 X141.551 Y98.655 E3.66926
G1 X141.551 Y98.655 E3.66926
G1 X141.940 Y98.863 E3.69198
G1 X142.719 Y99.348 E3.73928
G1 X142.719 Y99.348 E3.73928
G1 X142.976 Y99.508 E3.75489
G1 X143.969 Y100.219 E3.81780
G1 X144.912 Y100.994 E3.88070
G1 X145.804 Y101.828 E3.94361
G1 X146.638 Y102.719 E4.00651
G1 X147.413 Y103.663 E4.06942
G1 X148.124 Y104.655 E4.13233
G1 X148.768 Y105.692 E4.19523
G1 X149.344 Y106.769 E4.25814
G1 X149.848 Y107.881 E4.32105
G1 X150.278 Y109.024 E4.38395
G1 X150.632 Y110.192 E4.44686
G1 X150.910 Y111.381 E4.50977
G1 X151.108 Y112.585 E4.57268
G1 X151.228 Y113.801 E4.63558
G1 X151.251 Y114.484 E4.67082
G1 X151.251 Y114.484 E4.67082
G1 X151.268 Y115.021 E4.69849
G1 X151.225 Y116.324 E4.76567
G1 X151.220 Y116.324 E4.76596
G1 X151.108 Y117.456 E4.82456
G1 X150.901 Y118.714 E4.89026
G1 X150.897 Y118.714 E4.89045
G1 X150.632 Y119.850 E4.95054
G1 X150.278 Y121.018 E5.01344
G1 X150.073 Y121.564 E5.04348
G1 X150.073 Y121.564 E5.04348
G1 X149.848 Y122.160 E5.07635
G1 X149.469 Y122.997 E5.12365
G1 X149.469 Y122.997 E5.12365
G1 X149.344 Y123.272 E5.13925
G1 X149.098 Y123.732 E5.16613
G1 X149.098 Y123.732 E5.16613
G1 X148.769 Y124.349 E5.20216
G1 X148.284 Y125.129 E5.24946
G1 X148.284 Y125.129 E5.24946
G1 X148.203 Y125.258 E5.25730
G1 X148.203 Y125.258 E5.25730
G1 X148.124 Y125.386 E5.26507
G1 X147.589 Y126.132 E5.31237
G1 X147.589 Y126.132 E5.31237
G1 X147.412 Y126.379 E5.32800
G1 X146.638 Y127.322 E5.39088
G1 X145.804 Y128.213 E5.45379
G1 X145.133 Y128.841 E5.50109
G1 X145.133 Y128.841 E5.50109
G1 X144.912 Y129.048 E5.51670
G1 X143.969 Y129.822 E5.57960
G1 X142.976 Y130.533 E5.64251
G1 X141.940 Y131.178 E5.70542
G1 X141.130 Y131.611 E5.75272
G1 X141.130 Y131.611 E5.75272
G1 X140.863 Y131.754 E5.76832
G1 X139.751 Y132.258 E5.83124
G1 X138.749 Y132.634 E5.88636
G1 X138.749 Y132.634 E5.88636
G1 X138.608 Y132.688 E5.89413
G1 X137.440 Y133.042 E5.95704
G1 X136.251 Y133.319 E6.01995
G1 X135.046 Y133.518 E6.08285
G1 X133.867 Y133.634 E6.14391
G1 X133.867 Y133.634 E6.14391
G1 X133.832 Y133.638 E6.14573
G1 X132.611 Y133.678 E6.20866
G1 X131.943 Y133.656 E6.24309
G1 X131.943 Y133.656 E6.24309
G1 X131.391 Y133.638 E6.27158
G1 X130.176 Y133.518 E6.33449
G1 X129.097 Y133.340 E6.39080
G1 X129.097 Y133.340 E6.39080
G1 X128.971 Y133.319 E6.39739
G1 X127.782 Y133.042 E6.46030
G1 X127.216 Y132.870 E6.49079
G1 X127.216 Y132.870 E6.49080
G1 X126.614 Y132.688 E6.52321
G1 X126.068 Y132.482 E6.55325
G1 X126.068 Y132.482 E6.55325
G1 X125.471 Y132.258 E6.58612
G1 X124.760 Y131.935 E6.62635
G1 X124.760 Y131.935 E6.62636
G1 X124.359 Y131.754 E6.64903
G1 X123.283 Y131.178 E6.71193
G1 X122.517 Y130.702 E6.75836
G1 X122.517 Y130.702 E6.75836
G1 X122.246 Y130.533 E6.77484
G1 X121.499 Y129.999 E6.82214
G1 X121.499 Y129.999 E6.82214
G1 X121.253 Y129.822 E6.83774
G1 X120.310 Y129.048 E6.90065
G1 X119.418 Y128.213 E6.96355
G1 X118.584 Y127.322 E7.02646
G1 X117.809 Y126.378 E7.08937
G1 X117.098 Y125.386 E7.15228
G1 X116.454 Y124.349 E7.21518
G1 X115.878 Y123.272 E7.27809
G1 X115.374 Y122.160 E7.34100
G1 X114.944 Y121.018 E7.40390
G1 X114.590 Y119.849 E7.46681
G1 X114.312 Y118.660 E7.52972
G1 X114.114 Y117.456 E7.59262
G1 X113.994 Y116.241 E7.65553
G1 X113.971 Y115.557 E7.69077
G1 X113.971 Y115.557 E7.69077
G1 X113.954 Y115.021 E7.71844
G1 X113.994 Y113.801 E7.78134
G1 X114.114 Y112.586 E7.84425
G1 X114.312 Y111.381 E7.90715
G1 X114.590 Y110.192 E7.97007
G1 X114.944 Y109.024 E8.03297
G1 X115.321 Y108.022 E8.08810
G1 X115.321 Y108.022 E8.08810
G1 X115.374 Y107.881 E8.09588
G1 X115.878 Y106.769 E8.15878
G1 X116.382 Y105.825 E8.21391
G1 X116.382 Y105.825 E8.21391
G1 X116.453 Y105.692 E8.22169
G1 X117.098 Y104.655 E8.28460
G1 X117.809 Y103.663 E8.34751
G1 X118.392 Y102.953 E8.39481
G1 X118.392 Y102.953 E8.39481
G1 X118.584 Y102.719 E8.41041
G1 X119.418 Y101.828 E8.47332
G1 X120.310 Y100.994 E8.53623
G1 X121.253 Y100.219 E8.59913
G1 X122.246 Y99.508 E8.66203
G1 X123.032 Y99.019 E8.70973
G1 X123.032 Y99.019 E8.70973
G1 X123.282 Y98.863 E8.72494
G1 X124.359 Y98.288 E8.78785
G1 X125.472 Y97.784 E8.85080
G1 X126.614 Y97.354 E8.91366
G1 X127.782 Y96.999 E8.97657
G1 X128.587 Y96.812 E9.01916
G1 X128.566 Y96.320 F15000.000
G1 X128.877 Y96.247 F2040.000 E9.03558
G1 X130.089 Y96.047 E9.09888
G1 X130.089 Y96.047 E9.09888
G1 X130.113 Y96.043 E9.10012
G1 X131.359 Y95.920 E9.16466
G1 X132.051 Y95.898 E9.20031
G1 X132.051 Y95.898 E9.20031
G1 X132.702 Y95.876 E9.23391
G1 X132.702 Y95.882 E9.23422
G1 X133.863 Y95.920 E9.29405
G1 X135.169 Y96.049 E9.36166
G1 X135.169 Y96.053 E9.36187
G1 X136.345 Y96.247 E9.42330
G1 X137.096 Y96.422 E9.46302
G1 X137.096 Y96.422 E9.46302
G1 X137.565 Y96.532 E9.48784
G1 X138.764 Y96.895 E9.55238
G1 X139.936 Y97.337 E9.61692
G1 X140.787 Y97.722 E9.66504
G1 X140.787 Y97.722 E9.66504
G1 X141.077 Y97.853 E9.68146
G1 X142.035 Y98.365 E9.73741
G1 X142.035 Y98.365 E9.73741
G1 X142.182 Y98.444 E9.74600
G1 X143.245 Y99.105 E9.81054
G1 X144.263 Y99.835 E9.87508
G1 X144.858 Y100.323 E9.91471
G1 X144.858 Y100.323 E9.91471
G1 X145.232 Y100.630 E9.93962
G1 X146.146 Y101.486 E10.00416
G1 X147.069 Y102.472 E10.07376
G1 X147.065 Y102.476 E10.07409
G1 X147.797 Y103.368 E10.13355
G1 X148.526 Y104.386 E10.19809
G1 X149.188 Y105.450 E10.26263
G1 X149.628 Y106.274 E10.31074
G1 X149.628 Y106.274 E10.31074
G1 X149.778 Y106.555 E10.32717
G1 X150.169 Y107.418 E10.37600
G1 X150.169 Y107.418 E10.37600
G1 X150.295 Y107.696 E10.39171
G1 X150.736 Y108.868 E10.45624
G1 X151.100 Y110.067 E10.52078
G1 X151.312 Y110.976 E10.56890
G1 X151.312 Y110.976 E10.56890
G1 X151.423 Y111.453 E10.59415
G1 X151.412 Y111.453 E10.59473
G1 X151.588 Y112.522 E10.65056
G1 X151.711 Y113.769 E10.71510
G1 X151.752 Y115.021 E10.77964
G1 X151.711 Y116.273 E10.84418
G1 X151.598 Y117.427 E10.90397
G1 X151.597 Y117.427 E10.90397
G1 X151.588 Y117.519 E10.90872
G1 X151.484 Y118.150 E10.94165
G1 X151.484 Y118.150 E10.94165
G1 X151.384 Y118.755 E10.97325
G1 X151.209 Y119.506 E11.01297
G1 X151.209 Y119.506 E11.01297
G1 X151.100 Y119.975 E11.03780
G1 X150.736 Y121.173 E11.10233
G1 X150.407 Y122.047 E11.15045
G1 X150.407 Y122.047 E11.15045
G1 X150.295 Y122.346 E11.16687
G1 X149.778 Y123.487 E11.23141
G1 X149.188 Y124.591 E11.29595
G1 X148.526 Y125.655 E11.36049
G1 X147.894 Y126.538 E11.41644
G1 X147.894 Y126.538 E11.41644
G1 X147.797 Y126.673 E11.42503
G1 X147.002 Y127.641 E11.48957
G1 X146.146 Y128.556 E11.55411
G1 X145.232 Y129.412 E11.61865
G1 X144.263 Y130.206 E11.68319
G1 X143.245 Y130.936 E11.74772
G1 X142.182 Y131.597 E11.81226
G1 X141.077 Y132.188 E11.87680
G1 X139.936 Y132.705 E11.94134
G1 X138.764 Y133.146 E12.00588
G1 X137.565 Y133.510 E12.07042
G1 X136.345 Y133.794 E12.13496
G1 X135.133 Y133.994 E12.19826
G1 X135.133 Y133.994 E12.19826
G1 X135.109 Y133.998 E12.19950
G1 X133.754 Y134.132 E12.26965
G1 X133.754 Y134.124 E12.27002
G1 X132.611 Y134.162 E12.32897
G1 X131.359 Y134.121 E12.39351
G1 X130.113 Y133.998 E12.45805
G1 X128.877 Y133.794 E12.52259
G1 X127.657 Y133.510 E12.58713
G1 X126.458 Y133.146 E12.65167
G1 X125.584 Y132.817 E12.69978
G1 X125.584 Y132.817 E12.69978
G1 X125.286 Y132.705 E12.71621
G1 X124.276 Y132.247 E12.77334
G1 X124.276 Y132.247 E12.77334
G1 X124.145 Y132.188 E12.78075
G1 X123.040 Y131.598 E12.84528
G1 X121.977 Y130.936 E12.90982
G1 X120.959 Y130.206 E12.97436
G1 X119.990 Y129.412 E13.03890
G1 X119.076 Y128.556 E13.10344
G1 X118.220 Y127.641 E13.16798
G1 X117.425 Y126.673 E13.23252
G1 X116.696 Y125.655 E13.29706
G1 X116.034 Y124.591 E13.36160
G1 X115.791 Y124.136 E13.38822
G1 X115.791 Y124.136 E13.38822
G1 X115.444 Y123.487 E13.42613
G1 X115.053 Y122.623 E13.47497
G1 X115.053 Y122.623 E13.47497
G1 X114.927 Y122.346 E13.49068
G1 X114.486 Y121.173 E13.55521
G1 X114.122 Y119.975 E13.61975
G1 X113.910 Y119.065 E13.66787
G1 X113.910 Y119.065 E13.66787
G1 X113.799 Y118.588 E13.69311
G1 X113.810 Y118.588 E13.69370
G1 X113.634 Y117.519 E13.74953
G1 X113.511 Y116.273 E13.81407
G1 X113.470 Y115.021 E13.87861
G1 X113.511 Y113.769 E13.94315
G1 X113.634 Y112.522 E14.00768
G1 X113.738 Y111.892 E14.04062
G1 X113.738 Y111.892 E14.04062
G1 X113.838 Y111.286 E14.07222
G1 X114.013 Y110.536 E14.11194
G1 X114.013 Y110.536 E14.11194
G1 X114.122 Y110.067 E14.13676
G1 X114.486 Y108.868 E14.20130
G1 X114.927 Y107.696 E14.26584
G1 X115.444 Y106.555 E14.33038
G1 X115.687 Y106.099 E14.35701
G1 X115.687 Y106.099 E14.35701
G1 X116.034 Y105.450 E14.39492
G1 X116.696 Y104.386 E14.45946
G1 X117.425 Y103.368 E14.52400
G1 X118.220 Y102.400 E14.58854
G1 X119.076 Y101.486 E14.65308
G1 X119.990 Y100.630 E14.71762
G1 X120.959 Y99.835 E14.78216
G1 X121.977 Y99.105 E14.84669
G1 X123.020 Y98.457 E14.90997
G1 X123.020 Y98.457 E14.90997
G1 X123.040 Y98.444 E14.91124
G1 X124.145 Y97.854 E14.97577
G1 X124.849 Y97.535 E15.01558
G1 X124.849 Y97.535 E15.01558
G1 X125.286 Y97.336 E15.04032
G1 X126.458 Y96.895 E15.10485
G1 X127.657 Y96.532 E15.16939
G1 X128.182 Y96.409 E15.19719
G1 X128.601 Y96.961 F15000.000
G1 X150.670 Y119.030 F1440.000 E16.80746
G1 X150.540 Y119.587 F15000.000
G1 X128.045 Y97.091 F1440.000 E18.44883
G1 X127.497 Y97.228 F15000.000
G1 X150.404 Y120.134 F1440.000 E20.12020
G1 X150.244 Y120.661 F15000.000
G1 X126.971 Y97.388 F1440.000 E21.81831
G1 X126.448 Y97.549 F15000.000
G1 X150.083 Y121.184 F1440.000 E23.54279
G1 X149.895 Y121.682 F15000.000
G1 X125.950 Y97.737 F1440.000 E25.28994
G1 X125.452 Y97.924 F15000.000
G1 X149.707 Y122.180 F1440.000 E27.05974
G1 X149.498 Y122.655 F15000.000
G1 X124.977 Y98.134 F1440.000 E28.84893
G1 X124.505 Y98.348 F15000.000
G1 X149.284 Y123.127 F1440.000 E30.65694
G1 X149.057 Y123.584 F15000.000
G1 X124.047 Y98.575 F1440.000 E32.48176
G1 X123.600 Y98.814 F15000.000
G1 X148.818 Y124.031 F1440.000 E34.32174
G1 X148.574 Y124.473 F15000.000
G1 X123.159 Y99.058 F1440.000 E36.17617
G1 X122.736 Y99.320 F15000.000
G1 X148.312 Y124.895 F1440.000 E38.04226
G1 X148.048 Y125.318 F15000.000
G1 X122.314 Y99.583 F1440.000 E39.92001
G1 X121.910 Y99.865 F15000.000
G1 X147.767 Y125.721 F1440.000 E41.80664
G1 X147.481 Y126.121 F15000.000
G1 X121.511 Y100.151 F1440.000 E43.70152
G1 X121.120 Y100.446 F15000.000
G1 X147.185 Y126.511 F1440.000 E45.60335
G1 X146.877 Y126.887 F15000.000
G1 X120.744 Y100.755 F1440.000 E47.51010
G1 X120.368 Y101.064 F15000.000
G1 X146.563 Y127.259 F1440.000 E49.42144
G1 X146.234 Y127.616 F15000.000
G1 X120.012 Y101.395 F1440.000 E51.33466
G1 X119.659 Y101.726 F15000.000
G1 X145.905 Y127.972 F1440.000 E53.24969
G1 X145.563 Y128.316 F15000.000
G1 X119.317 Y102.070 F1440.000 E55.16472
G1 X118.988 Y102.426 F15000.000
G1 X145.210 Y128.647 F1440.000 E57.07794
G1 X144.854 Y128.977 F15000.000
G1 X118.659 Y102.782 F1440.000 E58.98929
G1 X118.345 Y103.154 F15000.000
G1 X144.478 Y129.287 F1440.000 E60.89605
G1 X144.102 Y129.595 F15000.000
G1 X118.037 Y103.530 F1440.000 E62.79788
G1 X117.741 Y103.921 F15000.000
G1 X143.711 Y129.890 F1440.000 E64.69276
G1 X143.312 Y130.176 F15000.000
G1 X117.456 Y104.319 F1440.000 E66.57940
G1 X117.174 Y104.723 F15000.000
G1 X142.909 Y130.458 F1440.000 E68.45715
G1 X142.486 Y130.721 F15000.000
G1 X116.910 Y105.146 F1440.000 E70.32324
G1 X116.648 Y105.568 F15000.000
G1 X142.064 Y130.984 F1440.000 E72.17768
G1 X141.622 Y131.227 F15000.000
G1 X116.404 Y106.010 F1440.000 E74.01766
G1 X116.165 Y106.457 F15000.000
G1 X141.175 Y131.466 F1440.000 E75.84247
G1 X140.717 Y131.694 F15000.000
G1 X115.938 Y106.914 F1440.000 E77.65049
G1 X115.724 Y107.386 F15000.000
G1 X140.245 Y131.908 F1440.000 E79.43968
G1 X139.770 Y132.117 F15000.000
G1 X115.515 Y107.861 F1440.000 E81.20949
G1 X115.327 Y108.360 F15000.000
G1 X139.272 Y132.305 F1440.000 E82.95663
G1 X138.774 Y132.492 F15000.000
G1 X115.139 Y108.858 F1440.000 E84.68112
G1 X114.978 Y109.381 F15000.000
G1 X138.251 Y132.654 F1440.000 E86.37923
G1 X137.725 Y132.814 F15000.000
G1 X114.818 Y109.907 F1440.000 E88.05061
G1 X114.682 Y110.455 F15000.000
G1 X137.177 Y132.950 F1440.000 E89.69198
G1 X136.621 Y133.080 F15000.000
G1 X114.552 Y111.011 F1440.000 E91.30225
G1 X114.443 Y111.589 F15000.000
G1 X136.043 Y133.188 F1440.000 E92.87828
