; generated by Slic3r 0.9.3 on 2012-11-04 at 23:39:15

; layer_height = 0.25
; perimeters = 2
; solid_layers = 4
; fill_density = 0
; perimeter_speed = 60
; infill_speed = 90
; travel_speed = 250
; scale = 1
; nozzle_diameter = 0.35
; filament_diameter = 1.7
; extrusion_multiplier = 1.0
; single wall width = 0.75mm

M104 S185 ; set temperature
;Standard Profile for Series 1. Single Extruder
M104 S185
M301 P24.72 I0.88 D231.1
G28
G1 X120 Y115 Z15 F10000
G92 E0
G1 Y5 Z15 F5000
M109 S185
G1 F100 E50
G92 E0
G1 X50 Z0.3 F10000
; do a little dance on a toothbrush to remove extrusions..  
G90 ; use absolute coordinates
G21 ; set units to millimeters
G92 E0 ; reset extrusion distance
M82 ; use absolute distances for extrusion
M106 S255 ; enable fan
G1 F6000.000 E-3.00000 ; retract
G92 E0 ; reset extrusion distance
G1 Z0.250 F15000.000 ; move to next layer (0)
G1 X115.092 Y89.058 ; move to first skirt point
G1 F6000.000 E3.00000 ; compensate retraction
G1 X115.232 Y88.858 F1080.000 E3.01872 ; skirt
G1 X115.392 Y88.668 E3.03778 ; skirt
G1 X115.562 Y88.488 E3.05676 ; skirt
G1 X115.742 Y88.318 E3.07575 ; skirt
G1 X115.932 Y88.158 E3.09481 ; skirt
G1 X116.132 Y88.018 E3.11353 ; skirt
G1 X128.322 Y81.018 E4.19165 ; skirt
G1 X128.692 Y80.858 E4.22257 ; skirt
G1 X128.882 Y80.788 E4.23810 ; skirt
G1 X129.482 Y80.658 E4.28519 ; skirt
G1 X129.892 Y80.628 E4.31672 ; skirt
G1 X130.302 Y80.638 E4.34817 ; skirt
G1 X130.702 Y80.688 E4.37909 ; skirt
G1 X131.092 Y80.788 E4.40997 ; skirt
G1 X131.292 Y80.858 E4.42622 ; skirt
G1 X131.662 Y81.018 E4.45714 ; skirt
G1 X143.862 Y88.018 E5.53593 ; skirt
G1 X144.062 Y88.158 E5.55465 ; skirt
G1 X144.252 Y88.318 E5.57370 ; skirt
G1 X144.432 Y88.488 E5.59269 ; skirt
G1 X144.602 Y88.668 E5.61168 ; skirt
G1 X144.762 Y88.858 E5.63073 ; skirt
G1 X152.932 Y101.148 E6.76262 ; skirt
G1 X153.042 Y101.358 E6.78080 ; skirt
G1 X153.222 Y101.788 E6.81655 ; skirt
G1 X156.582 Y113.938 E7.78340 ; skirt
G1 X156.662 Y114.538 E7.82982 ; skirt
G1 X156.662 Y139.298 E9.72885 ; skirt
G1 X156.642 Y139.508 E9.74503 ; skirt
G1 X156.572 Y139.918 E9.77693 ; skirt
G1 X156.522 Y140.118 E9.79274 ; skirt
G1 X156.382 Y140.518 E9.82524 ; skirt
G1 X156.202 Y140.888 E9.85680 ; skirt
G1 X155.972 Y141.248 E9.88957 ; skirt
G1 X155.852 Y141.408 E9.90491 ; skirt
G1 X155.572 Y141.728 E9.93752 ; skirt
G1 X155.422 Y141.868 E9.95325 ; skirt
G1 X155.092 Y142.128 E9.98548 ; skirt
G1 X154.922 Y142.248 E10.00144 ; skirt
G1 X144.372 Y148.858 E10.95629 ; skirt
G1 X143.962 Y149.078 E10.99198 ; skirt
G1 X143.752 Y149.168 E11.00950 ; skirt
G1 X143.312 Y149.308 E11.04492 ; skirt
G1 X143.082 Y149.358 E11.06297 ; skirt
G1 X142.622 Y149.418 E11.09855 ; skirt
G1 X117.372 Y149.418 E13.03515 ; skirt
G1 X116.912 Y149.358 E13.07073 ; skirt
G1 X116.682 Y149.308 E13.08878 ; skirt
G1 X116.242 Y149.168 E13.12420 ; skirt
G1 X116.032 Y149.078 E13.14172 ; skirt
G1 X115.622 Y148.858 E13.17741 ; skirt
G1 X105.072 Y142.248 E14.13226 ; skirt
G1 X104.572 Y141.868 E14.18043 ; skirt
G1 X104.422 Y141.728 E14.19617 ; skirt
G1 X104.142 Y141.408 E14.22878 ; skirt
G1 X104.022 Y141.248 E14.24412 ; skirt
G1 X103.792 Y140.888 E14.27689 ; skirt
G1 X103.612 Y140.518 E14.30844 ; skirt
G1 X103.472 Y140.118 E14.34095 ; skirt
G1 X103.422 Y139.918 E14.35676 ; skirt
G1 X103.352 Y139.508 E14.38866 ; skirt
G1 X103.332 Y139.298 E14.40484 ; skirt
G1 X103.332 Y114.538 E16.30386 ; skirt
G1 X103.412 Y113.938 E16.35029 ; skirt
G1 X106.772 Y101.788 E17.31713 ; skirt
G1 X106.952 Y101.358 E17.35289 ; skirt
G1 X107.062 Y101.148 E17.37107 ; skirt
G1 X114.677 Y89.683 E18.42671 ; skirt
G1 F6000.000 E15.42671 ; retract
G92 E0 ; reset extrusion distance
G1 X118.703 Y91.665 F15000.000 ; move to first perimeter point
G1 F6000.000 E3.00000 ; compensate retraction
G1 X130.000 Y85.184 F1080.000 E3.99889 ; perimeter
G1 X141.297 Y91.665 E4.99779 ; perimeter
G1 X149.036 Y103.322 E6.07091 ; perimeter
G1 X149.968 Y106.691 E6.33901 ; perimeter
G1 X149.968 Y106.691 E6.33901 ; perimeter
G1 X152.220 Y114.837 E6.98724 ; perimeter
G1 X152.220 Y138.694 E8.81703 ; perimeter
G1 X142.184 Y144.984 E9.72540 ; perimeter
G1 X117.816 Y144.984 E11.59440 ; perimeter
G1 X107.780 Y138.694 E12.50277 ; perimeter
G1 X107.780 Y114.837 E14.33255 ; perimeter
G1 X110.964 Y103.322 E15.24889 ; perimeter
G1 X118.289 Y92.290 E16.26449 ; perimeter
G1 X118.195 Y91.123 F15000.000 ; move to first perimeter point
G1 X130.000 Y84.350 F1080.000 E17.30830 ; perimeter
G1 X141.805 Y91.123 E18.35211 ; perimeter
G1 X149.702 Y103.018 E19.44718 ; perimeter
G1 X152.943 Y114.739 E20.37989 ; perimeter
G1 X152.943 Y139.094 E22.24789 ; perimeter
G1 X142.392 Y145.707 E23.20291 ; perimeter
G1 X117.608 Y145.707 E25.10380 ; perimeter
G1 X107.057 Y139.094 E26.05881 ; perimeter
G1 X107.057 Y114.739 E27.92682 ; perimeter
G1 X110.297 Y103.018 E28.85953 ; perimeter
G1 X117.781 Y91.748 E29.89707 ; perimeter
G1 X118.239 Y92.344 F15000.000 ; move to first fill point
G1 X152.027 Y126.132 F1080.000 E33.59356 ; fill
G1 X152.027 Y125.101 F15000.000 ; move to first fill point
G1 X118.650 Y91.724 F1080.000 E37.24504 ; fill
G1 X119.287 Y91.330 F15000.000 ; move to first fill point
G1 X152.027 Y124.070 F1080.000 E40.82685 ; fill
G1 X152.027 Y123.039 F15000.000 ; move to first fill point
G1 X119.942 Y90.954 F1080.000 E44.33698 ; fill
G1 X120.597 Y90.578 F15000.000 ; move to first fill point
G1 X152.027 Y122.008 F1080.000 E47.77543 ; fill
G1 X152.027 Y120.977 F15000.000 ; move to first fill point
G1 X121.252 Y90.202 F1080.000 E51.14219 ; fill
G1 X121.908 Y89.826 F15000.000 ; move to first fill point
G1 X152.027 Y119.945 F1080.000 E54.43727 ; fill
G1 X152.027 Y118.914 F15000.000 ; move to first fill point
G1 X122.563 Y89.450 F1080.000 E57.66066 ; fill
G1 X123.218 Y89.074 F15000.000 ; move to first fill point
G1 X152.027 Y117.883 F1080.000 E60.81237 ; fill
G1 X152.027 Y116.852 F15000.000 ; move to first fill point
G1 X123.873 Y88.698 F1080.000 E63.89239 ; fill
G1 X124.529 Y88.322 F15000.000 ; move to first fill point
G1 X152.027 Y115.821 F1080.000 E66.90072 ; fill
G1 X151.769 Y114.531 F15000.000 ; move to first fill point
G1 X125.184 Y87.947 F1080.000 E69.80912 ; fill
G1 X125.839 Y87.570 F15000.000 ; move to first fill point
G1 X151.375 Y113.106 F1080.000 E72.60272 ; fill
G1 X150.981 Y111.681 F15000.000 ; move to first fill point
G1 X126.495 Y87.194 F1080.000 E75.28154 ; fill
G1 X127.150 Y86.818 F15000.000 ; move to first fill point
G1 X150.587 Y110.255 F1080.000 E77.84556 ; fill
G1 X150.193 Y108.830 F15000.000 ; move to first fill point
G1 X127.805 Y86.443 F1080.000 E80.29479 ; fill
G1 X128.460 Y86.067 F15000.000 ; move to first fill point
G1 X149.798 Y107.405 F1080.000 E82.62923 ; fill
G1 X149.404 Y105.980 F15000.000 ; move to first fill point
G1 X129.115 Y85.691 F1080.000 E84.84887 ; fill
G1 F6000.000 E81.84887 ; retract
G92 E0 ; reset extrusion distance
G1 X140.258 Y91.677 F15000.000 ; move to first fill point
G1 F6000.000 E3.00000 ; compensate retraction
G1 X141.319 Y92.738 F1080.000 E3.11607 ; fill
G1 X143.357 Y95.807 E3.40106 ; fill
G1 X137.839 Y90.289 E4.00474 ; fill
G1 X135.420 Y88.901 E4.22050 ; fill
G1 X145.395 Y98.876 E5.31179 ; fill
G1 X147.433 Y101.945 E5.59678 ; fill
G1 X133.001 Y87.513 E7.17569 ; fill
G1 X130.581 Y86.125 E7.39145 ; fill
G1 X149.011 Y104.554 E9.40763 ; fill
G1 F6000.000 E6.40763 ; retract
G92 E0 ; reset extrusion distance
G1 X152.027 Y127.164 F15000.000 ; move to first fill point
G1 F6000.000 E3.00000 ; compensate retraction
G1 X117.827 Y92.964 F1080.000 E6.74152 ; fill
G1 X117.415 Y93.584 F15000.000 ; move to first fill point
G1 X152.027 Y128.195 F1080.000 E10.52805 ; fill
G1 X152.027 Y129.226 F15000.000 ; move to first fill point
G1 X117.004 Y94.203 F1080.000 E14.35960 ; fill
G1 X116.593 Y94.823 F15000.000 ; move to first fill point
G1 X152.027 Y130.258 F1080.000 E18.23620 ; fill
G1 X152.027 Y131.289 F15000.000 ; move to first fill point
G1 X116.181 Y95.442 F1080.000 E22.15779 ; fill
G1 X115.769 Y96.063 F15000.000 ; move to first fill point
G1 X152.027 Y132.320 F1080.000 E26.12440 ; fill
G1 X152.027 Y133.351 F15000.000 ; move to first fill point
G1 X115.358 Y96.682 F1080.000 E30.13601 ; fill
G1 X114.946 Y97.302 F15000.000 ; move to first fill point
G1 X152.027 Y134.382 F1080.000 E34.19262 ; fill
G1 X152.027 Y135.413 F15000.000 ; move to first fill point
G1 X114.535 Y97.921 F1080.000 E38.29423 ; fill
G1 X114.124 Y98.541 F15000.000 ; move to first fill point
G1 X152.027 Y136.445 F1080.000 E42.44093 ; fill
G1 X152.027 Y137.476 F15000.000 ; move to first fill point
G1 X113.712 Y99.161 F1080.000 E46.63263 ; fill
G1 X113.300 Y99.781 F15000.000 ; move to first fill point
G1 X152.027 Y138.507 F1080.000 E50.86934 ; fill
G1 X151.588 Y139.099 F15000.000 ; move to first fill point
G1 X112.889 Y100.400 F1080.000 E55.10301 ; fill
G1 X112.477 Y101.020 F15000.000 ; move to first fill point
G1 X150.954 Y139.497 F1080.000 E59.31237 ; fill
G1 X150.321 Y139.894 F15000.000 ; move to first fill point
G1 X112.066 Y101.640 F1080.000 E63.49743 ; fill
G1 X111.655 Y102.259 F15000.000 ; move to first fill point
G1 X149.687 Y140.292 F1080.000 E67.65818 ; fill
G1 X149.053 Y140.688 F15000.000 ; move to first fill point
G1 X111.243 Y102.879 F1080.000 E71.79453 ; fill
G1 X110.954 Y103.622 F15000.000 ; move to first fill point
G1 X148.418 Y141.086 F1080.000 E75.89317 ; fill
G1 X147.785 Y141.484 F15000.000 ; move to first fill point
G1 X110.731 Y104.429 F1080.000 E79.94692 ; fill
G1 X110.507 Y105.237 F15000.000 ; move to first fill point
G1 X147.151 Y141.880 F1080.000 E83.95570 ; fill
G1 X146.517 Y142.278 F15000.000 ; move to first fill point
G1 X110.284 Y106.045 F1080.000 E87.91959 ; fill
G1 X110.061 Y106.853 F15000.000 ; move to first fill point
G1 X145.883 Y142.675 F1080.000 E91.83858 ; fill
G1 X145.249 Y143.072 F15000.000 ; move to first fill point
G1 X109.838 Y107.660 F1080.000 E95.71261 ; fill
G1 X109.614 Y108.469 F15000.000 ; move to first fill point
G1 X144.615 Y143.470 F1080.000 E99.54174 ; fill
G1 X143.981 Y143.867 F15000.000 ; move to first fill point
G1 X109.391 Y109.277 F1080.000 E103.32598 ; fill
G1 X109.167 Y110.084 F15000.000 ; move to first fill point
G1 X143.347 Y144.264 F1080.000 E107.06525 ; fill
G1 X142.713 Y144.661 F15000.000 ; move to first fill point
G1 X108.944 Y110.892 F1080.000 E110.75963 ; fill
G1 X108.721 Y111.700 F15000.000 ; move to first fill point
G1 X141.812 Y144.791 F1080.000 E114.37981 ; fill
G1 X140.781 Y144.791 F15000.000 ; move to first fill point
G1 X108.498 Y112.508 F1080.000 E117.91160 ; fill
G1 X108.274 Y113.316 F15000.000 ; move to first fill point
G1 X139.749 Y144.792 F1080.000 E121.35504 ; fill
G1 X138.718 Y144.792 F15000.000 ; move to first fill point
G1 X108.051 Y114.124 F1080.000 E124.71011 ; fill
G1 X107.973 Y115.077 F15000.000 ; move to first fill point
G1 X137.687 Y144.791 F1080.000 E127.96080 ; fill
G1 X136.656 Y144.791 F15000.000 ; move to first fill point
G1 X107.973 Y116.108 F1080.000 E131.09871 ; fill
G1 X107.973 Y117.139 F15000.000 ; move to first fill point
G1 X135.625 Y144.791 F1080.000 E134.12381 ; fill
G1 X134.594 Y144.791 F15000.000 ; move to first fill point
G1 X107.973 Y118.170 F1080.000 E137.03610 ; fill
G1 X107.973 Y119.202 F15000.000 ; move to first fill point
G1 X133.562 Y144.791 F1080.000 E139.83556 ; fill
G1 X132.531 Y144.791 F15000.000 ; move to first fill point
G1 X107.973 Y120.233 F1080.000 E142.52221 ; fill
G1 X107.973 Y121.264 F15000.000 ; move to first fill point
G1 X131.500 Y144.791 F1080.000 E145.09605 ; fill
G1 X130.468 Y144.791 F15000.000 ; move to first fill point
G1 X107.973 Y122.295 F1080.000 E147.55708 ; fill
G1 X107.973 Y123.327 F15000.000 ; move to first fill point
G1 X129.437 Y144.791 F1080.000 E149.90529 ; fill
G1 X128.406 Y144.791 F15000.000 ; move to first fill point
G1 X107.973 Y124.358 F1080.000 E152.14069 ; fill
G1 X107.973 Y125.389 F15000.000 ; move to first fill point
G1 X127.375 Y144.791 F1080.000 E154.26328 ; fill
G1 X126.344 Y144.791 F15000.000 ; move to first fill point
G1 X107.973 Y126.420 F1080.000 E156.27305 ; fill
G1 X107.973 Y127.452 F15000.000 ; move to first fill point
G1 X125.312 Y144.791 F1080.000 E158.17000 ; fill
G1 X124.281 Y144.791 F15000.000 ; move to first fill point
G1 X107.973 Y128.483 F1080.000 E159.95414 ; fill
G1 X107.973 Y129.514 F15000.000 ; move to first fill point
G1 X123.250 Y144.791 F1080.000 E161.62547 ; fill
G1 X122.219 Y144.791 F15000.000 ; move to first fill point
G1 X107.973 Y130.545 F1080.000 E163.18398 ; fill
G1 X107.973 Y131.576 F15000.000 ; move to first fill point
G1 X121.188 Y144.791 F1080.000 E164.62967 ; fill
G1 X120.156 Y144.791 F15000.000 ; move to first fill point
G1 X107.973 Y132.608 F1080.000 E165.96256 ; fill
G1 X107.973 Y133.639 F15000.000 ; move to first fill point
G1 X119.125 Y144.791 F1080.000 E167.18264 ; fill
G1 X117.322 Y144.019 F15000.000 ; move to first fill point
G1 X107.973 Y134.670 F1080.000 E168.20542 ; fill
G1 X107.973 Y135.701 F15000.000 ; move to first fill point
G1 X114.559 Y142.288 F1080.000 E168.92597 ; fill
G1 X111.797 Y140.556 E169.17819 ; fill
G1 X107.973 Y136.732 E169.59651 ; fill
G1 X107.973 Y137.764 F15000.000 ; move to first fill point
G1 X109.034 Y138.825 F1080.000 E169.71259 ; fill
G1 F6000.000 E166.71259 ; retract
G92 E0 ; reset extrusion distance
G1 Z0.500 F15000.000 ; move to next layer (1)
G1 X109.632 Y139.855 ; move to first perimeter point
G1 F6000.000 E3.00000 ; compensate retraction
G1 X107.780 Y138.694 F3600.000 E3.16759 ; perimeter
G1 X107.780 Y114.837 E4.99737 ; perimeter
G1 X110.964 Y103.322 E5.91371 ; perimeter
G1 X117.085 Y94.103 E6.76237 ; perimeter
G1 X117.085 Y94.103 E6.76237 ; perimeter
G1 X118.703 Y91.665 E6.98682 ; perimeter
G1 X130.000 Y85.184 E7.98572 ; perimeter
G1 X141.297 Y91.665 E8.98461 ; perimeter
G1 X149.036 Y103.322 E10.05773 ; perimeter
G1 X152.220 Y114.837 E10.97407 ; perimeter
G1 X152.220 Y138.694 E12.80385 ; perimeter
G1 X142.184 Y144.984 E13.71222 ; perimeter
G1 X117.816 Y144.984 E15.58122 ; perimeter
G1 X110.267 Y140.253 E16.26449 ; perimeter
G1 X109.248 Y140.467 F15000.000 ; move to first perimeter point
G1 X107.057 Y139.094 F3600.000 E16.46277 ; perimeter
G1 X107.057 Y114.739 E18.33077 ; perimeter
G1 X110.297 Y103.018 E19.26349 ; perimeter
G1 X116.251 Y94.052 E20.08888 ; perimeter
G1 X116.251 Y94.052 E20.08888 ; perimeter
G1 X118.195 Y91.123 E20.35855 ; perimeter
G1 X130.000 Y84.350 E21.40236 ; perimeter
G1 X141.805 Y91.123 E22.44618 ; perimeter
G1 X149.703 Y103.018 E23.54124 ; perimeter
G1 X152.943 Y114.739 E24.47395 ; perimeter
G1 X152.943 Y139.094 E26.34196 ; perimeter
G1 X142.392 Y145.707 E27.29697 ; perimeter
G1 X117.608 Y145.707 E29.19786 ; perimeter
G1 X109.883 Y140.866 E29.89707 ; perimeter
G1 X110.811 Y139.757 F15000.000 ; move to first fill point
G1 X147.813 Y102.755 F3600.000 E33.94002 ; fill
G1 X147.402 Y102.137 F15000.000 ; move to first fill point
G1 X110.178 Y139.361 F3600.000 E38.00725 ; fill
G1 X109.545 Y138.964 F15000.000 ; move to first fill point
G1 X146.991 Y101.518 F3600.000 E42.09875 ; fill
G1 X146.580 Y100.899 F15000.000 ; move to first fill point
G1 X108.911 Y138.567 F3600.000 E46.21453 ; fill
G1 X108.690 Y137.759 F15000.000 ; move to first fill point
G1 X146.169 Y100.280 F3600.000 E50.30956 ; fill
G1 X145.758 Y99.661 F15000.000 ; move to first fill point
G1 X108.691 Y136.729 F3600.000 E54.35968 ; fill
G1 X108.691 Y135.699 F15000.000 ; move to first fill point
G1 X145.347 Y99.042 F3600.000 E58.36489 ; fill
G1 X144.937 Y98.422 F15000.000 ; move to first fill point
G1 X108.690 Y134.669 F3600.000 E62.32527 ; fill
G1 X108.691 Y133.639 F15000.000 ; move to first fill point
G1 X144.526 Y97.804 F3600.000 E66.24073 ; fill
G1 X144.115 Y97.185 F15000.000 ; move to first fill point
G1 X108.691 Y132.609 F3600.000 E70.11129 ; fill
G1 X108.690 Y131.579 F15000.000 ; move to first fill point
G1 X143.703 Y96.565 F3600.000 E73.93694 ; fill
G1 X143.293 Y95.947 F15000.000 ; move to first fill point
G1 X108.690 Y130.549 F3600.000 E77.71767 ; fill
G1 X108.691 Y129.519 F15000.000 ; move to first fill point
G1 X142.882 Y95.328 F3600.000 E81.45350 ; fill
