; generated by Slic3r 0.9.3 on 2012-12-13 at 11:43:32

; layer_height = 0.25
; perimeters = 2
; solid_layers = 4
; fill_density = 0
; perimeter_speed = 60
; infill_speed = 90
; travel_speed = 250
; scale = 1
; nozzle_diameter = 0.35
; filament_diameter = 1.7
; extrusion_multiplier = 1.0
; single wall width = 0.75mm

M104 S185 ; set temperature
;Standard Profile for Series 1. Single Extruder
M104 S185
M301 P24.72 I0.88 D231.1
G28
G1 X120 Y115 Z15 F10000
G92 E0
G1 Y5 Z15 F5000
M109 S185
G1 F100 E50
G92 E0
G1 X50 Z0.3 F10000
; do a little dance on a toothbrush to remove extrusions..  
G90 ; use absolute coordinates
G21 ; set units to millimeters
G92 E0 ; reset extrusion distance
M82 ; use absolute distances for extrusion
M106 S255 ; enable fan
G1 F6000.000 E-3.00000 ; retract
G92 E0 ; reset extrusion distance
G1 Z0.250 F15000.000 ; move to next layer (0)
G1 X113.725 Y102.090 ; move to first skirt point
G1 F6000.000 E3.00000 ; compensate retraction
G1 X115.125 Y100.710 F1080.000 E3.15077 ; skirt
G1 X116.325 Y99.730 E3.26960 ; skirt
G1 X116.655 Y99.490 E3.30090 ; skirt
G1 X118.395 Y98.380 E3.45919 ; skirt
G1 X119.825 Y97.650 E3.58233 ; skirt
G1 X121.675 Y96.920 E3.73487 ; skirt
G1 X122.065 Y96.790 E3.76640 ; skirt
G1 X123.985 Y96.300 E3.91838 ; skirt
G1 X125.945 Y96.010 E4.07034 ; skirt
G1 X127.545 Y95.920 E4.19325 ; skirt
G1 X127.965 Y95.920 E4.22546 ; skirt
G1 X129.945 Y96.050 E4.37765 ; skirt
G1 X131.535 Y96.300 E4.50110 ; skirt
G1 X133.455 Y96.790 E4.65308 ; skirt
G1 X135.695 Y97.650 E4.83711 ; skirt
G1 X137.455 Y98.570 E4.98942 ; skirt
G1 X138.805 Y99.440 E5.11260 ; skirt
G1 X140.665 Y100.960 E5.29684 ; skirt
G1 X142.065 Y102.380 E5.44978 ; skirt
G1 X143.075 Y103.630 E5.57303 ; skirt
G1 X144.175 Y105.290 E5.72577 ; skirt
G1 X144.375 Y105.630 E5.75602 ; skirt
G1 X145.105 Y107.060 E5.87916 ; skirt
G1 X145.835 Y108.910 E6.03170 ; skirt
G1 X145.965 Y109.300 E6.06323 ; skirt
G1 X146.455 Y111.220 E6.21521 ; skirt
G1 X146.735 Y113.070 E6.35871 ; skirt
G1 X146.845 Y114.340 E6.45648 ; skirt
G1 X146.855 Y114.780 E6.49024 ; skirt
G1 X146.805 Y116.340 E6.60995 ; skirt
G1 X146.765 Y116.800 E6.64536 ; skirt
G1 X146.455 Y118.770 E6.79831 ; skirt
G1 X145.965 Y120.690 E6.95029 ; skirt
G1 X145.105 Y122.930 E7.13432 ; skirt
G1 X144.375 Y124.360 E7.25746 ; skirt
G1 X143.075 Y126.360 E7.44041 ; skirt
G1 X142.065 Y127.610 E7.56367 ; skirt
G1 X140.375 Y129.300 E7.74698 ; skirt
G1 X139.125 Y130.310 E7.87023 ; skirt
G1 X137.465 Y131.410 E8.02297 ; skirt
G1 X137.125 Y131.610 E8.05322 ; skirt
G1 X135.695 Y132.340 E8.17636 ; skirt
G1 X133.415 Y133.210 E8.36353 ; skirt
G1 X131.925 Y133.610 E8.48186 ; skirt
G1 X129.945 Y133.940 E8.63581 ; skirt
G1 X127.635 Y134.090 E8.81335 ; skirt
G1 X127.105 Y134.080 E8.85401 ; skirt
G1 X125.575 Y133.940 E8.97185 ; skirt
G1 X123.985 Y133.690 E9.09530 ; skirt
G1 X122.065 Y133.200 E9.24727 ; skirt
G1 X119.825 Y132.340 E9.43130 ; skirt
G1 X118.395 Y131.610 E9.55444 ; skirt
G1 X116.395 Y130.310 E9.73740 ; skirt
G1 X115.145 Y129.300 E9.86065 ; skirt
G1 X113.725 Y127.900 E10.01359 ; skirt
G1 X112.205 Y126.040 E10.19783 ; skirt
G1 X111.335 Y124.690 E10.32101 ; skirt
G1 X111.135 Y124.340 E10.35192 ; skirt
G1 X110.385 Y122.850 E10.47986 ; skirt
G1 X109.685 Y121.090 E10.62513 ; skirt
G1 X109.555 Y120.690 E10.65739 ; skirt
G1 X109.065 Y118.770 E10.80937 ; skirt
G1 X108.775 Y116.810 E10.96133 ; skirt
G1 X108.685 Y115.200 E11.08501 ; skirt
G1 X108.685 Y114.780 E11.11722 ; skirt
G1 X108.815 Y112.810 E11.26864 ; skirt
G1 X109.065 Y111.220 E11.39209 ; skirt
G1 X109.555 Y109.300 E11.54407 ; skirt
G1 X109.685 Y108.900 E11.57633 ; skirt
G1 X110.385 Y107.140 E11.72160 ; skirt
G1 X111.135 Y105.650 E11.84954 ; skirt
G1 X111.335 Y105.300 E11.88046 ; skirt
G1 X112.205 Y103.950 E12.00364 ; skirt
G1 X113.238 Y102.660 E12.13038 ; skirt
G1 F6000.000 E9.13038 ; retract
G92 E0 ; reset extrusion distance
G1 X121.613 Y109.096 F15000.000 ; move to first perimeter point
G1 F6000.000 E3.00000 ; compensate retraction
G1 X121.723 Y108.954 F1080.000 E3.01377 ; perimeter
G1 X123.494 Y107.598 E3.18483 ; perimeter
G1 X125.552 Y106.744 E3.35570 ; perimeter
G1 X127.767 Y106.455 E3.52704 ; perimeter
G1 X129.975 Y106.745 E3.69780 ; perimeter
G1 X132.040 Y107.601 E3.86929 ; perimeter
G1 X133.803 Y108.956 E4.03985 ; perimeter
G1 X135.165 Y110.728 E4.21124 ; perimeter
G1 X136.019 Y112.790 E4.38245 ; perimeter
G1 X136.286 Y114.824 E4.53979 ; perimeter
G1 X136.286 Y114.824 E4.53979 ; perimeter
G1 X136.310 Y115.000 E4.55338 ; perimeter
G1 X136.020 Y117.204 E4.72383 ; perimeter
G1 X135.165 Y119.272 E4.89550 ; perimeter
G1 X133.806 Y121.041 E5.06661 ; perimeter
G1 X132.040 Y122.398 E5.23745 ; perimeter
G1 X129.977 Y123.254 E5.40868 ; perimeter
G1 X127.768 Y123.545 E5.57956 ; perimeter
G1 X125.555 Y123.256 E5.75078 ; perimeter
G1 X123.494 Y122.401 E5.92193 ; perimeter
G1 X121.738 Y121.066 E6.09107 ; perimeter
G1 X120.365 Y119.274 E6.26421 ; perimeter
G1 X119.511 Y117.213 E6.43536 ; perimeter
G1 X119.219 Y115.000 E6.60656 ; perimeter
G1 X119.509 Y112.796 E6.77702 ; perimeter
G1 X120.365 Y110.727 E6.94879 ; perimeter
G1 X121.158 Y109.691 E7.04880 ; perimeter
G1 X122.187 Y109.536 F15000.000 ; move to first perimeter point
G1 X122.237 Y109.471 F1080.000 E7.05513 ; perimeter
G1 X123.858 Y108.231 E7.21163 ; perimeter
G1 X125.739 Y107.449 E7.36788 ; perimeter
G1 X127.766 Y107.184 E7.52464 ; perimeter
G1 X129.786 Y107.450 E7.68095 ; perimeter
G1 X131.674 Y108.232 E7.83763 ; perimeter
G1 X133.288 Y109.472 E7.99375 ; perimeter
G1 X134.533 Y111.093 E8.15049 ; perimeter
G1 X135.314 Y112.979 E8.30707 ; perimeter
G1 X135.580 Y115.000 E8.46344 ; perimeter
G1 X135.315 Y117.019 E8.61964 ; perimeter
G1 X134.533 Y118.908 E8.77639 ; perimeter
G1 X133.289 Y120.527 E8.93303 ; perimeter
G1 X131.673 Y121.768 E9.08924 ; perimeter
G1 X129.787 Y122.550 E9.24584 ; perimeter
G1 X127.766 Y122.816 E9.40219 ; perimeter
G1 X125.740 Y122.551 E9.55891 ; perimeter
G1 X123.857 Y121.769 E9.71525 ; perimeter
G1 X122.242 Y120.536 E9.87109 ; perimeter
G1 X120.996 Y118.909 E10.02829 ; perimeter
G1 X120.215 Y117.023 E10.18487 ; perimeter
G1 X119.949 Y115.000 E10.34134 ; perimeter
G1 X120.214 Y112.980 E10.49756 ; perimeter
G1 X120.996 Y111.092 E10.65435 ; perimeter
G1 X121.731 Y110.132 E10.74707 ; perimeter
G1 F6000.000 E7.74707 ; retract
G92 E0 ; reset extrusion distance
G1 X116.880 Y105.229 F15000.000 ; move to first perimeter point
G1 F6000.000 E3.00000 ; compensate retraction
G1 X116.894 Y105.212 F1080.000 E3.00175 ; perimeter
G1 X117.977 Y104.129 E3.11918 ; perimeter
G1 X119.167 Y103.164 E3.23669 ; perimeter
G1 X120.432 Y102.342 E3.35242 ; perimeter
G1 X120.432 Y102.342 E3.35242 ; perimeter
G1 X120.451 Y102.330 E3.35413 ; perimeter
G1 X121.814 Y101.637 E3.47138 ; perimeter
G1 X123.243 Y101.089 E3.58876 ; perimeter
G1 X124.725 Y100.690 E3.70651 ; perimeter
G1 X126.232 Y100.451 E3.82355 ; perimeter
G1 X127.765 Y100.372 E3.94125 ; perimeter
G1 X129.270 Y100.450 E4.05687 ; perimeter
G1 X129.270 Y100.450 E4.05687 ; perimeter
G1 X129.293 Y100.451 E4.05862 ; perimeter
G1 X130.804 Y100.690 E4.17594 ; perimeter
G1 X132.282 Y101.089 E4.29338 ; perimeter
G1 X133.717 Y101.637 E4.41115 ; perimeter
G1 X135.079 Y102.330 E4.52836 ; perimeter
G1 X136.363 Y103.164 E4.64580 ; perimeter
G1 X137.554 Y104.130 E4.76338 ; perimeter
G1 X138.636 Y105.212 E4.88075 ; perimeter
G1 X139.595 Y106.401 E4.99793 ; perimeter
G1 X140.430 Y107.686 E5.11549 ; perimeter
G1 X141.129 Y109.050 E5.23303 ; perimeter
G1 X141.676 Y110.478 E5.35034 ; perimeter
G1 X142.070 Y111.957 E5.46771 ; perimeter
G1 X142.309 Y113.469 E5.58509 ; perimeter
G1 X142.393 Y115.001 E5.70275 ; perimeter
G1 X142.309 Y116.527 E5.81998 ; perimeter
G1 X142.070 Y118.041 E5.93757 ; perimeter
G1 X141.676 Y119.523 E6.05515 ; perimeter
G1 X141.128 Y120.950 E6.17243 ; perimeter
G1 X140.431 Y122.313 E6.28987 ; perimeter
G1 X139.595 Y123.599 E6.40747 ; perimeter
G1 X138.635 Y124.789 E6.52474 ; perimeter
G1 X137.555 Y125.869 E6.64193 ; perimeter
G1 X136.363 Y126.831 E6.75939 ; perimeter
G1 X135.079 Y127.665 E6.87684 ; perimeter
G1 X133.715 Y128.363 E6.99430 ; perimeter
G1 X132.282 Y128.911 E7.11197 ; perimeter
G1 X130.806 Y129.305 E7.22920 ; perimeter
G1 X129.291 Y129.549 E7.34684 ; perimeter
G1 X127.765 Y129.629 E7.46404 ; perimeter
G1 X126.234 Y129.549 E7.58164 ; perimeter
G1 X124.724 Y129.305 E7.69899 ; perimeter
G1 X123.243 Y128.911 E7.81651 ; perimeter
G1 X121.815 Y128.364 E7.93380 ; perimeter
G1 X120.451 Y127.665 E8.05131 ; perimeter
G1 X119.167 Y126.831 E8.16876 ; perimeter
G1 X117.976 Y125.870 E8.28613 ; perimeter
G1 X116.895 Y124.789 E8.40340 ; perimeter
G1 X115.928 Y123.597 E8.52108 ; perimeter
G1 X115.095 Y122.314 E8.63840 ; perimeter
G1 X114.402 Y120.951 E8.75575 ; perimeter
G1 X113.854 Y119.523 E8.87304 ; perimeter
G1 X113.455 Y118.039 E8.99085 ; perimeter
G1 X113.216 Y116.528 E9.10821 ; perimeter
G1 X113.137 Y115.000 E9.22558 ; perimeter
G1 X113.216 Y113.468 E9.34321 ; perimeter
G1 X113.455 Y111.958 E9.46051 ; perimeter
G1 X113.853 Y110.479 E9.57797 ; perimeter
G1 X114.401 Y109.050 E9.69534 ; perimeter
G1 X115.095 Y107.685 E9.81279 ; perimeter
G1 X115.928 Y106.403 E9.93007 ; perimeter
G1 X116.408 Y105.812 E9.98840 ; perimeter
G1 X116.318 Y104.774 F15000.000 ; move to first perimeter point
G1 X116.356 Y104.727 F1080.000 E9.99304 ; perimeter
G1 X117.492 Y103.591 E10.11627 ; perimeter
G1 X118.741 Y102.578 E10.23960 ; perimeter
G1 X120.089 Y101.703 E10.36284 ; perimeter
G1 X121.519 Y100.975 E10.48595 ; perimeter
G1 X123.019 Y100.400 E10.60916 ; perimeter
G1 X124.574 Y99.982 E10.73262 ; perimeter
G1 X126.157 Y99.731 E10.85556 ; perimeter
G1 X126.217 Y99.728 E10.86020 ; perimeter
G1 X126.217 Y99.728 E10.86020 ; perimeter
G1 X127.765 Y99.647 E10.97906 ; perimeter
G1 X129.368 Y99.731 E11.10220 ; perimeter
G1 X130.956 Y99.982 E11.22546 ; perimeter
G1 X132.506 Y100.400 E11.34859 ; perimeter
G1 X134.011 Y100.975 E11.47215 ; perimeter
G1 X135.441 Y101.703 E11.59525 ; perimeter
G1 X136.789 Y102.578 E11.71849 ; perimeter
G1 X138.038 Y103.591 E11.84185 ; perimeter
G1 X139.174 Y104.727 E11.96506 ; perimeter
G1 X140.182 Y105.976 E12.08813 ; perimeter
G1 X141.057 Y107.324 E12.21140 ; perimeter
G1 X141.790 Y108.755 E12.33474 ; perimeter
G1 X142.365 Y110.254 E12.45791 ; perimeter
G1 X142.778 Y111.808 E12.58118 ; perimeter
G1 X143.029 Y113.392 E12.70423 ; perimeter
G1 X143.099 Y114.664 E12.80194 ; perimeter
G1 X143.136 Y114.664 E12.80478 ; perimeter
G1 X143.050 Y116.230 E12.92503 ; perimeter
G1 X143.088 Y116.230 E12.92797 ; perimeter
G1 X142.778 Y118.191 E13.08029 ; perimeter
G1 X142.365 Y119.746 E13.20363 ; perimeter
G1 X141.790 Y121.245 E13.32680 ; perimeter
G1 X141.057 Y122.676 E13.45009 ; perimeter
G1 X140.182 Y124.024 E13.57338 ; perimeter
G1 X139.174 Y125.273 E13.69649 ; perimeter
G1 X138.038 Y126.408 E13.81964 ; perimeter
G1 X136.789 Y127.417 E13.94280 ; perimeter
G1 X135.441 Y128.292 E14.06604 ; perimeter
G1 X134.010 Y129.025 E14.18934 ; perimeter
G1 X132.506 Y129.600 E14.31287 ; perimeter
G1 X130.956 Y130.013 E14.43586 ; perimeter
G1 X129.368 Y130.269 E14.55927 ; perimeter
G1 X127.431 Y130.370 E14.70798 ; perimeter
G1 X127.431 Y130.335 E14.71065 ; perimeter
G1 X126.157 Y130.269 E14.80849 ; perimeter
G1 X124.573 Y130.013 E14.93157 ; perimeter
G1 X123.019 Y129.600 E15.05489 ; perimeter
G1 X121.520 Y129.025 E15.17806 ; perimeter
G1 X120.089 Y128.292 E15.30137 ; perimeter
G1 X118.741 Y127.417 E15.42462 ; perimeter
G1 X117.492 Y126.409 E15.54775 ; perimeter
G1 X116.356 Y125.273 E15.67092 ; perimeter
G1 X115.343 Y124.023 E15.79432 ; perimeter
G1 X114.468 Y122.676 E15.91752 ; perimeter
G1 X113.740 Y121.245 E16.04066 ; perimeter
G1 X113.165 Y119.746 E16.16384 ; perimeter
G1 X112.747 Y118.191 E16.28733 ; perimeter
G1 X112.496 Y116.603 E16.41060 ; perimeter
G1 X112.412 Y115.000 E16.53374 ; perimeter
G1 X112.496 Y113.392 E16.65722 ; perimeter
G1 X112.747 Y111.808 E16.78025 ; perimeter
G1 X113.165 Y110.255 E16.90361 ; perimeter
G1 X113.740 Y108.755 E17.02681 ; perimeter
G1 X114.468 Y107.323 E17.14999 ; perimeter
G1 X115.343 Y105.976 E17.27318 ; perimeter
G1 X115.846 Y105.357 E17.33438 ; perimeter
G1 X116.437 Y105.739 F15000.000 ; move to first fill point
G1 X120.839 Y110.141 F1080.000 E17.81708 ; fill
G1 X120.391 Y110.726 F15000.000 ; move to first fill point
G1 X115.976 Y106.311 F1080.000 E18.30126 ; fill
G1 X115.569 Y106.937 F15000.000 ; move to first fill point
G1 X120.047 Y111.416 F1080.000 E18.79231 ; fill
G1 X119.744 Y112.146 F15000.000 ; move to first fill point
G1 X115.166 Y107.568 F1080.000 E19.29425 ; fill
G1 X114.817 Y108.253 F15000.000 ; move to first fill point
G1 X119.441 Y112.877 F1080.000 E19.80118 ; fill
G1 X119.257 Y113.727 F15000.000 ; move to first fill point
G1 X114.480 Y108.950 F1080.000 E20.32499 ; fill
G1 X114.194 Y109.697 F15000.000 ; move to first fill point
G1 X119.137 Y114.640 F1080.000 E20.86706 ; fill
G1 X119.024 Y115.561 F15000.000 ; move to first fill point
G1 X113.932 Y110.468 F1080.000 E21.42549 ; fill
G1 X113.713 Y111.282 F15000.000 ; move to first fill point
G1 X119.181 Y116.751 F1080.000 E22.02511 ; fill
G1 F6000.000 E19.02511 ; retract
G92 E0 ; reset extrusion distance
G1 X114.042 Y118.846 F15000.000 ; move to first fill point
G1 F6000.000 E3.00000 ; compensate retraction
G1 X123.919 Y128.723 F1080.000 E4.08307 ; fill
G1 X125.339 Y129.110 F15000.000 ; move to first fill point
G1 X113.649 Y117.420 F1080.000 E5.36487 ; fill
G1 X113.447 Y116.185 F15000.000 ; move to first fill point
G1 X126.580 Y129.317 F1080.000 E6.80486 ; fill
G1 X127.700 Y129.404 F15000.000 ; move to first fill point
G1 X113.361 Y115.065 F1080.000 E8.37713 ; fill
G1 X113.353 Y114.024 F15000.000 ; move to first fill point
G1 X128.741 Y129.412 F1080.000 E10.06443 ; fill
G1 X129.724 Y129.360 F15000.000 ; move to first fill point
G1 X123.054 Y122.691 F1080.000 E10.79573 ; fill
G1 X124.821 Y123.424 E10.94400 ; fill
G1 X130.616 Y129.219 E11.57945 ; fill
G1 X131.479 Y129.049 F15000.000 ; move to first fill point
G1 X126.015 Y123.585 F1080.000 E12.17860 ; fill
G1 X127.202 Y123.739 F15000.000 ; move to first fill point
G1 X132.295 Y128.831 F1080.000 E12.73703 ; fill
G1 X133.067 Y128.570 F15000.000 ; move to first fill point
G1 X128.124 Y123.627 F1080.000 E13.27908 ; fill
G1 X129.037 Y123.506 F15000.000 ; move to first fill point
G1 X133.815 Y128.284 F1080.000 E13.80299 ; fill
G1 X134.510 Y127.946 F15000.000 ; move to first fill point
G1 X129.888 Y123.323 F1080.000 E14.30986 ; fill
G1 X130.618 Y123.021 F15000.000 ; move to first fill point
G1 X135.194 Y127.596 F1080.000 E14.81156 ; fill
G1 X135.825 Y127.193 F15000.000 ; move to first fill point
G1 X131.349 Y122.718 F1080.000 E15.30232 ; fill
G1 X132.038 Y122.373 F15000.000 ; move to first fill point
G1 X136.451 Y126.786 F1080.000 E15.78621 ; fill
G1 X137.024 Y126.326 F15000.000 ; move to first fill point
G1 X132.622 Y121.924 F1080.000 E16.26890 ; fill
G1 X133.207 Y121.475 F15000.000 ; move to first fill point
G1 X137.596 Y125.865 F1080.000 E16.75022 ; fill
G1 X138.113 Y125.348 F15000.000 ; move to first fill point
G1 X133.791 Y121.026 F1080.000 E17.22416 ; fill
G1 X134.241 Y120.442 F15000.000 ; move to first fill point
G1 X138.630 Y124.831 F1080.000 E17.70546 ; fill
G1 X139.091 Y124.259 F15000.000 ; move to first fill point
G1 X134.689 Y119.857 F1080.000 E18.18815 ; fill
G1 X135.138 Y119.273 F15000.000 ; move to first fill point
G1 X139.551 Y123.686 F1080.000 E18.67204 ; fill
G1 X139.958 Y123.060 F15000.000 ; move to first fill point
G1 X135.483 Y118.584 F1080.000 E19.16277 ; fill
G1 X135.786 Y117.854 F15000.000 ; move to first fill point
G1 X140.361 Y122.429 F1080.000 E19.66444 ; fill
G1 X140.711 Y121.745 F15000.000 ; move to first fill point
G1 X136.089 Y117.123 F1080.000 E20.17130 ; fill
G1 X136.272 Y116.272 F15000.000 ; move to first fill point
G1 X141.049 Y121.050 F1080.000 E20.69520 ; fill
G1 X141.336 Y120.303 F15000.000 ; move to first fill point
G1 X136.392 Y115.359 F1080.000 E21.23735 ; fill
G1 X136.504 Y114.438 F15000.000 ; move to first fill point
G1 X141.597 Y119.531 F1080.000 E21.79577 ; fill
