; generated by Slic3r 0.9.3 on 2012-12-14 at 15:45:27

; layer_height = 0.25
; perimeters = 2
; solid_layers = 4
; fill_density = 0
; perimeter_speed = 60
; infill_speed = 90
; travel_speed = 250
; scale = 1
; nozzle_diameter = 0.35
; filament_diameter = 1.7
; extrusion_multiplier = 1.0
; single wall width = 0.75mm

M104 S185 ; set temperature
;Standard Profile for Series 1. Single Extruder
M104 S185
M301 P24.72 I0.88 D231.1
G28
G1 X120 Y115 Z15 F10000
G92 E0
G1 Y5 Z15 F5000
M109 S185
G1 F100 E50
G92 E0
G1 X50 Z0.3 F10000
; do a little dance on a toothbrush to remove extrusions..  
G90 ; use absolute coordinates
G21 ; set units to millimeters
G92 E0 ; reset extrusion distance
M82 ; use absolute distances for extrusion
M106 S255 ; enable fan
G1 F6000.000 E-3.00000 ; retract
G92 E0 ; reset extrusion distance
G1 Z0.250 F15000.000 ; move to next layer (0)
G1 X102.566 Y97.420 ; move to first skirt point
G1 F6000.000 E3.00000 ; compensate retraction
G1 X102.746 Y97.290 F1080.000 E3.01703 ; skirt
G1 X110.746 Y92.550 E3.73022 ; skirt
G1 X110.776 Y92.530 E3.73299 ; skirt
G1 X128.256 Y82.400 E5.28251 ; skirt
G1 X128.636 Y82.230 E5.31444 ; skirt
G1 X129.026 Y82.110 E5.34574 ; skirt
G1 X129.436 Y82.030 E5.37778 ; skirt
G1 X129.846 Y82.000 E5.40931 ; skirt
G1 X130.256 Y82.010 E5.44076 ; skirt
G1 X130.456 Y82.030 E5.45618 ; skirt
G1 X130.866 Y82.110 E5.48822 ; skirt
G1 X131.256 Y82.230 E5.51951 ; skirt
G1 X131.636 Y82.400 E5.55144 ; skirt
G1 X149.126 Y92.530 E7.10163 ; skirt
G1 X149.156 Y92.550 E7.10439 ; skirt
G1 X157.146 Y97.290 E7.81693 ; skirt
G1 X157.506 Y97.560 E7.85144 ; skirt
G1 X157.826 Y97.880 E7.88615 ; skirt
G1 X157.976 Y98.060 E7.90412 ; skirt
G1 X158.236 Y98.430 E7.93880 ; skirt
G1 X158.456 Y98.810 E7.97248 ; skirt
G1 X158.556 Y99.010 E7.98963 ; skirt
G1 X158.646 Y99.220 E8.00715 ; skirt
G1 X158.716 Y99.430 E8.02413 ; skirt
G1 X158.826 Y99.870 E8.05892 ; skirt
G1 X158.866 Y100.100 E8.07682 ; skirt
G1 X158.886 Y100.320 E8.09376 ; skirt
G1 X158.886 Y129.630 E10.34176 ; skirt
G1 X158.836 Y130.060 E10.37496 ; skirt
G1 X158.736 Y130.480 E10.40808 ; skirt
G1 X158.666 Y130.690 E10.42505 ; skirt
G1 X158.586 Y130.890 E10.44157 ; skirt
G1 X158.496 Y131.080 E10.45770 ; skirt
G1 X158.276 Y131.470 E10.49204 ; skirt
G1 X158.006 Y131.870 E10.52906 ; skirt
G1 X157.696 Y132.230 E10.56549 ; skirt
G1 X157.336 Y132.550 E10.60243 ; skirt
G1 X156.936 Y132.820 E10.63945 ; skirt
G1 X131.636 Y147.560 E12.88519 ; skirt
G1 X131.266 Y147.720 E12.91611 ; skirt
G1 X130.866 Y147.850 E12.94837 ; skirt
G1 X130.466 Y147.930 E12.97966 ; skirt
G1 X130.046 Y147.960 E13.01195 ; skirt
G1 X129.636 Y147.950 E13.04341 ; skirt
G1 X129.426 Y147.930 E13.05959 ; skirt
G1 X129.026 Y147.850 E13.09087 ; skirt
G1 X128.626 Y147.720 E13.12313 ; skirt
G1 X128.256 Y147.560 E13.15405 ; skirt
G1 X102.756 Y132.690 E15.41807 ; skirt
G1 X102.556 Y132.550 E15.43679 ; skirt
G1 X102.196 Y132.230 E15.47373 ; skirt
G1 X101.886 Y131.870 E15.51017 ; skirt
G1 X101.616 Y131.470 E15.54719 ; skirt
G1 X101.396 Y131.080 E15.58153 ; skirt
G1 X101.306 Y130.890 E15.59765 ; skirt
G1 X101.226 Y130.690 E15.61417 ; skirt
G1 X101.156 Y130.480 E15.63115 ; skirt
G1 X101.056 Y130.060 E15.66427 ; skirt
G1 X101.006 Y129.630 E15.69747 ; skirt
G1 X101.006 Y100.320 E17.94546 ; skirt
G1 X101.026 Y100.100 E17.96241 ; skirt
G1 X101.116 Y99.650 E17.99760 ; skirt
G1 X101.176 Y99.430 E18.01509 ; skirt
G1 X101.246 Y99.220 E18.03207 ; skirt
G1 X101.336 Y99.010 E18.04959 ; skirt
G1 X101.546 Y98.610 E18.08424 ; skirt
G1 X101.916 Y98.060 E18.13508 ; skirt
G1 X102.022 Y97.933 E18.14773 ; skirt
G1 F6000.000 E15.14773 ; retract
G92 E0 ; reset extrusion distance
G1 X106.095 Y101.094 F15000.000 ; move to first perimeter point
G1 F6000.000 E3.00000 ; compensate retraction
G1 X110.371 Y101.094 F1080.000 E3.32793 ; perimeter
G1 X112.641 Y97.202 E3.67354 ; perimeter
G1 X114.872 Y101.094 E4.01759 ; perimeter
G1 X121.907 Y101.094 E4.55717 ; perimeter
G1 X125.458 Y95.008 E5.09758 ; perimeter
G1 X123.294 Y91.300 E5.42682 ; perimeter
G1 X123.399 Y91.118 E5.44294 ; perimeter
G1 X127.678 Y91.118 E5.77113 ; perimeter
G1 X129.954 Y87.176 E6.12022 ; perimeter
G1 X131.212 Y89.355 E6.31315 ; perimeter
G1 X131.212 Y89.355 E6.31315 ; perimeter
G1 X132.230 Y91.118 E6.46933 ; perimeter
G1 X136.509 Y91.118 E6.79751 ; perimeter
G1 X136.614 Y91.300 E6.81363 ; perimeter
G1 X134.451 Y95.008 E7.14284 ; perimeter
G1 X137.164 Y99.659 E7.55583 ; perimeter
G1 X137.164 Y99.659 E7.55583 ; perimeter
G1 X138.001 Y101.094 E7.68327 ; perimeter
G1 X145.034 Y101.094 E8.22269 ; perimeter
G1 X147.264 Y97.202 E8.56673 ; perimeter
G1 X148.543 Y99.393 E8.76129 ; perimeter
G1 X148.543 Y99.393 E8.76129 ; perimeter
G1 X149.535 Y101.094 E8.91233 ; perimeter
G1 X153.811 Y101.094 E9.24026 ; perimeter
G1 X153.916 Y101.276 E9.25637 ; perimeter
G1 X151.753 Y104.984 E9.58558 ; perimeter
G1 X153.916 Y108.694 E9.91496 ; perimeter
G1 X153.811 Y108.876 E9.93107 ; perimeter
G1 X149.532 Y108.876 E10.25929 ; perimeter
G1 X145.986 Y115.017 E10.80318 ; perimeter
G1 X149.535 Y121.098 E11.34321 ; perimeter
G1 X153.811 Y121.098 E11.67118 ; perimeter
G1 X153.916 Y121.280 E11.68729 ; perimeter
G1 X151.753 Y124.990 E12.01667 ; perimeter
G1 X153.916 Y128.698 E12.34587 ; perimeter
G1 X153.811 Y128.880 E12.36199 ; perimeter
G1 X149.532 Y128.880 E12.69018 ; perimeter
G1 X148.178 Y131.225 E12.89791 ; perimeter
G1 X148.178 Y131.225 E12.89791 ; perimeter
G1 X147.371 Y132.623 E13.02167 ; perimeter
G1 X147.160 Y132.622 E13.03786 ; perimeter
G1 X145.038 Y128.880 E13.36781 ; perimeter
G1 X137.998 Y128.880 E13.90771 ; perimeter
G1 X134.452 Y135.021 E14.45159 ; perimeter
G1 X136.614 Y138.726 E14.78056 ; perimeter
G1 X136.509 Y138.908 E14.79667 ; perimeter
G1 X132.233 Y138.908 E15.12463 ; perimeter
G1 X129.954 Y142.815 E15.47153 ; perimeter
G1 X127.675 Y138.908 E15.81844 ; perimeter
G1 X123.399 Y138.908 E16.14638 ; perimeter
G1 X123.294 Y138.726 E16.16249 ; perimeter
G1 X124.938 Y135.908 E16.41272 ; perimeter
G1 X124.938 Y135.908 E16.41272 ; perimeter
G1 X125.456 Y135.021 E16.49146 ; perimeter
G1 X124.936 Y134.120 E16.57123 ; perimeter
G1 X124.936 Y134.120 E16.57123 ; perimeter
G1 X121.910 Y128.880 E17.03533 ; perimeter
G1 X114.868 Y128.880 E17.57541 ; perimeter
G1 X112.746 Y132.622 E17.90536 ; perimeter
G1 X112.535 Y132.623 E17.92155 ; perimeter
G1 X110.374 Y128.880 E18.25304 ; perimeter
G1 X106.095 Y128.880 E18.58122 ; perimeter
G1 X105.990 Y128.698 E18.59734 ; perimeter
G1 X107.130 Y126.745 E18.77075 ; perimeter
G1 X107.130 Y126.745 E18.77075 ; perimeter
G1 X108.153 Y124.990 E18.92655 ; perimeter
G1 X105.990 Y121.280 E19.25592 ; perimeter
G1 X106.095 Y121.098 E19.27204 ; perimeter
G1 X110.371 Y121.098 E19.60000 ; perimeter
G1 X113.920 Y115.017 E20.14000 ; perimeter
G1 X110.374 Y108.876 E20.68390 ; perimeter
G1 X106.095 Y108.876 E21.01212 ; perimeter
G1 X105.990 Y108.694 E21.02823 ; perimeter
G1 X108.152 Y104.985 E21.35747 ; perimeter
G1 X106.262 Y101.743 E21.64534 ; perimeter
G1 X104.735 Y100.560 F15000.000 ; move to first perimeter point
G1 X104.844 Y100.371 F1080.000 E21.66205 ; perimeter
G1 X109.955 Y100.371 E22.05410 ; perimeter
G1 X112.647 Y95.757 E22.46379 ; perimeter
G1 X115.291 Y100.371 E22.87162 ; perimeter
G1 X121.491 Y100.371 E23.34720 ; perimeter
G1 X124.620 Y95.008 E23.82341 ; perimeter
G1 X122.039 Y90.584 E24.21625 ; perimeter
G1 X122.148 Y90.395 E24.23296 ; perimeter
G1 X127.260 Y90.395 E24.62510 ; perimeter
G1 X129.954 Y85.730 E25.03825 ; perimeter
G1 X132.648 Y90.395 E25.45142 ; perimeter
G1 X137.760 Y90.395 E25.84355 ; perimeter
G1 X137.869 Y90.584 E25.86027 ; perimeter
G1 X135.288 Y95.008 E26.25310 ; perimeter
G1 X138.417 Y100.371 E26.72931 ; perimeter
G1 X144.615 Y100.371 E27.20473 ; perimeter
G1 X147.259 Y95.757 E27.61255 ; perimeter
G1 X149.951 Y100.371 E28.02223 ; perimeter
G1 X155.062 Y100.371 E28.41428 ; perimeter
G1 X155.171 Y100.560 E28.43099 ; perimeter
G1 X152.590 Y104.984 E28.82382 ; perimeter
G1 X155.171 Y109.410 E29.21680 ; perimeter
G1 X155.063 Y109.599 E29.23351 ; perimeter
G1 X149.949 Y109.599 E29.62566 ; perimeter
G1 X146.822 Y115.015 E30.10532 ; perimeter
G1 X149.951 Y120.375 E30.58131 ; perimeter
G1 X155.063 Y120.375 E30.97338 ; perimeter
G1 X155.171 Y120.564 E30.99009 ; perimeter
G1 X152.590 Y124.990 E31.38307 ; perimeter
G1 X155.171 Y129.414 E31.77589 ; perimeter
G1 X155.062 Y129.603 E31.79260 ; perimeter
G1 X149.949 Y129.603 E32.18473 ; perimeter
G1 X147.369 Y134.072 E32.58052 ; perimeter
G1 X147.150 Y134.071 E32.59732 ; perimeter
G1 X144.616 Y129.603 E32.99128 ; perimeter
G1 X138.416 Y129.603 E33.46687 ; perimeter
G1 X135.288 Y135.019 E33.94653 ; perimeter
G1 X137.869 Y139.442 E34.33928 ; perimeter
G1 X137.760 Y139.631 E34.35599 ; perimeter
G1 X132.648 Y139.631 E34.74806 ; perimeter
G1 X129.954 Y144.250 E35.15818 ; perimeter
G1 X127.259 Y139.631 E35.56832 ; perimeter
G1 X122.148 Y139.631 E35.96037 ; perimeter
G1 X122.039 Y139.442 E35.97708 ; perimeter
G1 X123.779 Y136.459 E36.24196 ; perimeter
G1 X123.779 Y136.459 E36.24196 ; perimeter
G1 X124.620 Y135.019 E36.36983 ; perimeter
G1 X123.780 Y133.565 E36.49856 ; perimeter
G1 X123.780 Y133.565 E36.49856 ; perimeter
G1 X121.492 Y129.603 E36.84949 ; perimeter
G1 X115.290 Y129.603 E37.32523 ; perimeter
G1 X112.756 Y134.071 E37.71919 ; perimeter
G1 X112.537 Y134.072 E37.73598 ; perimeter
G1 X109.956 Y129.603 E38.13178 ; perimeter
G1 X104.844 Y129.603 E38.52391 ; perimeter
G1 X104.735 Y129.414 E38.54063 ; perimeter
G1 X107.316 Y124.990 E38.93346 ; perimeter
G1 X104.735 Y120.564 E39.32643 ; perimeter
G1 X104.843 Y120.375 E39.34314 ; perimeter
G1 X109.955 Y120.375 E39.73521 ; perimeter
G1 X113.084 Y115.015 E40.21118 ; perimeter
G1 X109.956 Y109.599 E40.69085 ; perimeter
G1 X104.843 Y109.599 E41.08300 ; perimeter
G1 X104.735 Y109.410 E41.09971 ; perimeter
G1 X107.316 Y104.984 E41.49265 ; perimeter
G1 X105.113 Y101.208 E41.82797 ; perimeter
G1 X106.905 Y101.787 F15000.000 ; move to first fill point
G1 X136.535 Y131.418 F1080.000 E45.08773 ; fill
G1 X136.155 Y132.075 F15000.000 ; move to first fill point
G1 X108.351 Y104.270 F1080.000 E48.14663 ; fill
G1 X108.105 Y105.063 F15000.000 ; move to first fill point
G1 X135.775 Y132.732 F1080.000 E51.19067 ; fill
G1 X135.396 Y133.390 F15000.000 ; move to first fill point
G1 X111.125 Y109.119 F1080.000 E53.86085 ; fill
G1 X110.689 Y108.683 F15000.000 ; move to first fill point
G1 X107.723 Y105.717 F1080.000 E54.18711 ; fill
G1 X107.342 Y106.372 F15000.000 ; move to first fill point
G1 X109.652 Y108.683 F1080.000 E54.44133 ; fill
G1 X108.616 Y108.683 F15000.000 ; move to first fill point
G1 X106.960 Y107.027 F1080.000 E54.62351 ; fill
G1 F6000.000 E51.62351 ; retract
G92 E0 ; reset extrusion distance
G1 X107.440 Y101.287 F15000.000 ; move to first fill point
G1 F6000.000 E3.00000 ; compensate retraction
G1 X136.914 Y130.760 F1080.000 E6.24249 ; fill
G1 X137.294 Y130.103 F15000.000 ; move to first fill point
G1 X108.477 Y101.287 F1080.000 E9.41271 ; fill
G1 X109.514 Y101.287 F15000.000 ; move to first fill point
G1 X137.673 Y129.446 F1080.000 E12.51058 ; fill
G1 X138.053 Y128.789 F15000.000 ; move to first fill point
G1 X110.364 Y101.101 F1080.000 E15.55664 ; fill
G1 X110.746 Y100.446 F15000.000 ; move to first fill point
G1 X138.987 Y128.687 F1080.000 E18.66354 ; fill
G1 X140.024 Y128.687 F15000.000 ; move to first fill point
G1 X111.128 Y99.791 F1080.000 E21.84247 ; fill
G1 X111.510 Y99.136 F15000.000 ; move to first fill point
G1 X141.061 Y128.687 F1080.000 E25.09344 ; fill
G1 X142.099 Y128.687 F15000.000 ; move to first fill point
G1 X114.698 Y101.287 F1080.000 E28.10784 ; fill
G1 X115.735 Y101.287 F15000.000 ; move to first fill point
G1 X143.135 Y128.687 F1080.000 E31.12225 ; fill
G1 X144.172 Y128.687 F15000.000 ; move to first fill point
G1 X116.771 Y101.287 F1080.000 E34.13665 ; fill
G1 X117.808 Y101.287 F15000.000 ; move to first fill point
G1 X145.208 Y128.687 F1080.000 E37.15105 ; fill
G1 X145.952 Y129.430 F15000.000 ; move to first fill point
G1 X148.021 Y131.500 F1080.000 E37.37875 ; fill
G1 X148.400 Y130.842 F15000.000 ; move to first fill point
G1 X118.845 Y101.287 F1080.000 E40.63026 ; fill
G1 X119.881 Y101.287 F15000.000 ; move to first fill point
G1 X148.780 Y130.185 F1080.000 E43.80950 ; fill
G1 X149.159 Y129.528 F15000.000 ; move to first fill point
G1 X120.918 Y101.287 F1080.000 E46.91640 ; fill
G1 X121.852 Y101.184 F15000.000 ; move to first fill point
G1 X149.539 Y128.871 F1080.000 E49.96231 ; fill
G1 X150.392 Y128.687 F15000.000 ; move to first fill point
G1 X122.234 Y100.529 F1080.000 E53.06002 ; fill
G1 X122.616 Y99.874 F15000.000 ; move to first fill point
G1 X151.430 Y128.687 F1080.000 E56.22985 ; fill
G1 X152.466 Y128.687 F15000.000 ; move to first fill point
G1 X122.998 Y99.219 F1080.000 E59.47172 ; fill
G1 X123.380 Y98.564 F15000.000 ; move to first fill point
G1 X153.001 Y128.185 F1080.000 E62.73039 ; fill
G1 F6000.000 E59.73039 ; retract
G92 E0 ; reset extrusion distance
G1 X151.548 Y125.696 F15000.000 ; move to first fill point
G1 F6000.000 E3.00000 ; compensate retraction
G1 X123.762 Y97.910 F1080.000 E6.05688 ; fill
G1 X124.144 Y97.255 F15000.000 ; move to first fill point
G1 X151.801 Y124.912 F1080.000 E9.09952 ; fill
G1 X152.183 Y124.257 F15000.000 ; move to first fill point
G1 X149.216 Y121.291 F1080.000 E9.42585 ; fill
G1 X148.772 Y120.846 F15000.000 ; move to first fill point
G1 X124.526 Y96.601 F1080.000 E12.09315 ; fill
G1 X124.908 Y95.946 F15000.000 ; move to first fill point
G1 X147.318 Y118.356 F1080.000 E14.55858 ; fill
G1 F6000.000 E11.55858 ; retract
G92 E0 ; reset extrusion distance
G1 X145.865 Y115.867 F15000.000 ; move to first fill point
G1 F6000.000 E3.00000 ; compensate retraction
G1 X125.290 Y95.291 F1080.000 E5.26356 ; fill
G1 F6000.000 E2.26356 ; retract
G92 E0 ; reset extrusion distance
G1 X125.458 Y91.311 F15000.000 ; move to first fill point
G1 F6000.000 E3.00000 ; compensate retraction
G1 X147.150 Y113.003 F1080.000 E5.38647 ; fill
G1 X147.530 Y112.347 F15000.000 ; move to first fill point
G1 X126.494 Y91.311 F1080.000 E7.70068 ; fill
G1 X127.531 Y91.311 F15000.000 ; move to first fill point
G1 X137.485 Y101.265 F1080.000 E8.79575 ; fill
G1 X137.507 Y101.287 F15000.000 ; move to first fill point
G1 X147.909 Y111.689 F1080.000 E9.94013 ; fill
G1 X148.289 Y111.032 F15000.000 ; move to first fill point
G1 X138.543 Y101.287 F1080.000 E11.01225 ; fill
G1 X139.580 Y101.287 F15000.000 ; move to first fill point
G1 X148.668 Y110.375 F1080.000 E12.01209 ; fill
G1 X149.047 Y109.718 F15000.000 ; move to first fill point
G1 X140.617 Y101.287 F1080.000 E12.93960 ; fill
G1 X141.654 Y101.287 F15000.000 ; move to first fill point
G1 X149.427 Y109.061 F1080.000 E13.79475 ; fill
G1 X150.086 Y108.683 F15000.000 ; move to first fill point
G1 X142.690 Y101.287 F1080.000 E14.60837 ; fill
G1 X143.728 Y101.287 F15000.000 ; move to first fill point
G1 X151.124 Y108.683 F1080.000 E15.42207 ; fill
G1 X152.161 Y108.683 F15000.000 ; move to first fill point
G1 X144.764 Y101.287 F1080.000 E16.23576 ; fill
G1 X145.243 Y100.729 F15000.000 ; move to first fill point
G1 X153.125 Y108.610 F1080.000 E17.10282 ; fill
G1 F6000.000 E14.10282 ; retract
G92 E0 ; reset extrusion distance
G1 X151.979 Y106.428 F15000.000 ; move to first fill point
G1 F6000.000 E3.00000 ; compensate retraction
G1 X145.621 Y100.070 F1080.000 E3.69950 ; fill
G1 X145.998 Y99.411 F15000.000 ; move to first fill point
G1 X151.688 Y105.100 F1080.000 E4.32540 ; fill
G1 X152.070 Y104.445 F15000.000 ; move to first fill point
G1 X148.911 Y101.287 F1080.000 E4.67290 ; fill
G1 X149.200 Y101.576 F15000.000 ; move to first fill point
G1 X146.376 Y98.752 F1080.000 E4.98359 ; fill
G1 F6000.000 E1.98359 ; retract
G92 E0 ; reset extrusion distance
G1 X149.948 Y101.287 F15000.000 ; move to first fill point
G1 F6000.000 E3.00000 ; compensate retraction
G1 X152.451 Y103.791 F1080.000 E3.27546 ; fill
G1 X152.833 Y103.136 F15000.000 ; move to first fill point
G1 X150.985 Y101.287 F1080.000 E3.47880 ; fill
G1 X152.021 Y101.287 F15000.000 ; move to first fill point
