; generated by Slic3r 0.9.3 on 2012-12-14 at 13:24:27

; layer_height = 0.25
; perimeters = 1
; solid_layers = 4
; fill_density = 0
; perimeter_speed = 60
; infill_speed = 90
; travel_speed = 250
; scale = 1
; nozzle_diameter = 0.35
; filament_diameter = 1.7
; extrusion_multiplier = 1.0
; single wall width = 0.75mm

M104 S185 ; set temperature
;Standard Profile for Series 1. Single Extruder
M104 S185
M301 P24.72 I0.88 D231.1
G28
G1 X120 Y115 Z15 F10000
G92 E0
G1 Y5 Z15 F5000
M109 S185
G1 F100 E50
G92 E0
G1 X50 Z0.3 F10000
; do a little dance on a toothbrush to remove extrusions..  
G90 ; use absolute coordinates
G21 ; set units to millimeters
G92 E0 ; reset extrusion distance
M82 ; use absolute distances for extrusion
M106 S255 ; enable fan
G1 F6000.000 E-3.00000 ; retract
G92 E0 ; reset extrusion distance
G1 Z0.250 F15000.000 ; move to next layer (0)
G1 X102.566 Y97.420 ; move to first skirt point
G1 F6000.000 E3.00000 ; compensate retraction
G1 X102.746 Y97.290 F1080.000 E3.01703 ; skirt
G1 X110.746 Y92.550 E3.73022 ; skirt
G1 X110.776 Y92.530 E3.73299 ; skirt
G1 X128.256 Y82.400 E5.28251 ; skirt
G1 X128.636 Y82.230 E5.31444 ; skirt
G1 X129.026 Y82.110 E5.34574 ; skirt
G1 X129.436 Y82.030 E5.37778 ; skirt
G1 X129.846 Y82.000 E5.40931 ; skirt
G1 X130.256 Y82.010 E5.44076 ; skirt
G1 X130.456 Y82.030 E5.45618 ; skirt
G1 X130.866 Y82.110 E5.48822 ; skirt
G1 X131.256 Y82.230 E5.51951 ; skirt
G1 X131.636 Y82.400 E5.55144 ; skirt
G1 X149.126 Y92.530 E7.10163 ; skirt
G1 X149.156 Y92.550 E7.10439 ; skirt
G1 X157.146 Y97.290 E7.81693 ; skirt
G1 X157.506 Y97.560 E7.85144 ; skirt
G1 X157.826 Y97.880 E7.88615 ; skirt
G1 X157.976 Y98.060 E7.90412 ; skirt
G1 X158.236 Y98.430 E7.93880 ; skirt
G1 X158.456 Y98.810 E7.97248 ; skirt
G1 X158.556 Y99.010 E7.98963 ; skirt
G1 X158.646 Y99.220 E8.00715 ; skirt
G1 X158.716 Y99.430 E8.02413 ; skirt
G1 X158.826 Y99.870 E8.05892 ; skirt
G1 X158.866 Y100.100 E8.07682 ; skirt
G1 X158.886 Y100.320 E8.09376 ; skirt
G1 X158.886 Y129.630 E10.34176 ; skirt
G1 X158.836 Y130.060 E10.37496 ; skirt
G1 X158.736 Y130.480 E10.40808 ; skirt
G1 X158.666 Y130.690 E10.42505 ; skirt
G1 X158.586 Y130.890 E10.44157 ; skirt
G1 X158.496 Y131.080 E10.45770 ; skirt
G1 X158.276 Y131.470 E10.49204 ; skirt
G1 X158.006 Y131.870 E10.52906 ; skirt
G1 X157.696 Y132.230 E10.56549 ; skirt
G1 X157.336 Y132.550 E10.60243 ; skirt
G1 X156.936 Y132.820 E10.63945 ; skirt
G1 X131.636 Y147.560 E12.88519 ; skirt
G1 X131.266 Y147.720 E12.91611 ; skirt
G1 X130.866 Y147.850 E12.94837 ; skirt
G1 X130.466 Y147.930 E12.97966 ; skirt
G1 X130.046 Y147.960 E13.01195 ; skirt
G1 X129.636 Y147.950 E13.04341 ; skirt
G1 X129.426 Y147.930 E13.05959 ; skirt
G1 X129.026 Y147.850 E13.09087 ; skirt
G1 X128.626 Y147.720 E13.12313 ; skirt
G1 X128.256 Y147.560 E13.15405 ; skirt
G1 X102.756 Y132.690 E15.41807 ; skirt
G1 X102.556 Y132.550 E15.43679 ; skirt
G1 X102.196 Y132.230 E15.47373 ; skirt
G1 X101.886 Y131.870 E15.51017 ; skirt
G1 X101.616 Y131.470 E15.54719 ; skirt
G1 X101.396 Y131.080 E15.58153 ; skirt
G1 X101.306 Y130.890 E15.59765 ; skirt
G1 X101.226 Y130.690 E15.61417 ; skirt
G1 X101.156 Y130.480 E15.63115 ; skirt
G1 X101.056 Y130.060 E15.66427 ; skirt
G1 X101.006 Y129.630 E15.69747 ; skirt
G1 X101.006 Y100.320 E17.94546 ; skirt
G1 X101.026 Y100.100 E17.96241 ; skirt
G1 X101.116 Y99.650 E17.99760 ; skirt
G1 X101.176 Y99.430 E18.01509 ; skirt
G1 X101.246 Y99.220 E18.03207 ; skirt
G1 X101.336 Y99.010 E18.04959 ; skirt
G1 X101.546 Y98.610 E18.08424 ; skirt
G1 X101.916 Y98.060 E18.13508 ; skirt
G1 X102.022 Y97.933 E18.14773 ; skirt
G1 F6000.000 E15.14773 ; retract
G92 E0 ; reset extrusion distance
G1 X104.844 Y100.371 F15000.000 ; move to first perimeter point
G1 F6000.000 E3.00000 ; compensate retraction
G1 X109.955 Y100.371 F1080.000 E3.39205 ; perimeter
G1 X112.647 Y95.757 E3.80173 ; perimeter
G1 X115.291 Y100.371 E4.20957 ; perimeter
G1 X121.491 Y100.371 E4.68515 ; perimeter
G1 X124.620 Y95.008 E5.16135 ; perimeter
G1 X122.039 Y90.584 E5.55419 ; perimeter
G1 X122.148 Y90.395 E5.57091 ; perimeter
G1 X127.260 Y90.395 E5.96305 ; perimeter
G1 X129.954 Y85.730 E6.37620 ; perimeter
G1 X132.648 Y90.395 E6.78936 ; perimeter
G1 X137.760 Y90.395 E7.18150 ; perimeter
G1 X137.869 Y90.584 E7.19821 ; perimeter
G1 X135.288 Y95.008 E7.59105 ; perimeter
G1 X138.417 Y100.371 E8.06726 ; perimeter
G1 X144.615 Y100.371 E8.54268 ; perimeter
G1 X147.259 Y95.757 E8.95050 ; perimeter
G1 X149.951 Y100.371 E9.36018 ; perimeter
G1 X155.062 Y100.371 E9.75222 ; perimeter
G1 X155.171 Y100.560 E9.76894 ; perimeter
G1 X152.590 Y104.984 E10.16177 ; perimeter
G1 X155.171 Y109.410 E10.55475 ; perimeter
G1 X155.063 Y109.599 E10.57146 ; perimeter
G1 X149.949 Y109.599 E10.96361 ; perimeter
G1 X146.822 Y115.015 E11.44327 ; perimeter
G1 X149.951 Y120.375 E11.91926 ; perimeter
G1 X155.063 Y120.375 E12.31133 ; perimeter
G1 X155.171 Y120.564 E12.32804 ; perimeter
G1 X152.590 Y124.990 E12.72101 ; perimeter
G1 X155.171 Y129.414 E13.11383 ; perimeter
G1 X155.062 Y129.603 E13.13055 ; perimeter
G1 X149.949 Y129.603 E13.52268 ; perimeter
G1 X147.369 Y134.072 E13.91847 ; perimeter
G1 X147.150 Y134.071 E13.93526 ; perimeter
G1 X144.616 Y129.603 E14.32923 ; perimeter
G1 X138.416 Y129.603 E14.80482 ; perimeter
G1 X135.288 Y135.019 E15.28448 ; perimeter
G1 X137.869 Y139.442 E15.67722 ; perimeter
G1 X137.760 Y139.631 E15.69394 ; perimeter
G1 X132.648 Y139.631 E16.08600 ; perimeter
G1 X129.954 Y144.250 E16.49613 ; perimeter
G1 X127.259 Y139.631 E16.90627 ; perimeter
G1 X122.148 Y139.631 E17.29832 ; perimeter
G1 X122.039 Y139.442 E17.31503 ; perimeter
G1 X123.779 Y136.459 E17.57991 ; perimeter
G1 X123.779 Y136.459 E17.57991 ; perimeter
G1 X124.620 Y135.019 E17.70778 ; perimeter
G1 X123.780 Y133.565 E17.83651 ; perimeter
G1 X123.780 Y133.565 E17.83651 ; perimeter
G1 X121.492 Y129.603 E18.18743 ; perimeter
G1 X115.290 Y129.603 E18.66318 ; perimeter
G1 X112.756 Y134.071 E19.05714 ; perimeter
G1 X112.537 Y134.072 E19.07393 ; perimeter
G1 X109.956 Y129.603 E19.46973 ; perimeter
G1 X104.844 Y129.603 E19.86186 ; perimeter
G1 X104.735 Y129.414 E19.87858 ; perimeter
G1 X107.316 Y124.990 E20.27140 ; perimeter
G1 X104.735 Y120.564 E20.66438 ; perimeter
G1 X104.843 Y120.375 E20.68109 ; perimeter
G1 X109.955 Y120.375 E21.07316 ; perimeter
G1 X113.084 Y115.015 E21.54913 ; perimeter
G1 X109.956 Y109.599 E22.02880 ; perimeter
G1 X104.843 Y109.599 E22.42095 ; perimeter
G1 X104.735 Y109.410 E22.43766 ; perimeter
G1 X107.316 Y104.984 E22.83059 ; perimeter
G1 X105.003 Y101.020 E23.18264 ; perimeter
G1 X105.704 Y100.564 F15000.000 ; move to first fill point
G1 X137.073 Y131.933 F1080.000 E26.62497 ; fill
G1 X136.694 Y132.587 F15000.000 ; move to first fill point
G1 X106.309 Y102.203 F1080.000 E29.95929 ; fill
G1 X106.738 Y100.563 F15000.000 ; move to first fill point
G1 X137.452 Y131.277 F1080.000 E33.32969 ; fill
G1 X137.830 Y130.621 F15000.000 ; move to first fill point
G1 X107.773 Y100.564 F1080.000 E36.62808 ; fill
G1 X108.807 Y100.563 F15000.000 ; move to first fill point
G1 X138.209 Y129.965 F1080.000 E39.85454 ; fill
G1 X138.688 Y129.410 F15000.000 ; move to first fill point
G1 X109.841 Y100.563 F1080.000 E43.02016 ; fill
G1 X110.222 Y99.910 F15000.000 ; move to first fill point
G1 X139.722 Y129.410 F1080.000 E46.25749 ; fill
G1 X140.757 Y129.410 F15000.000 ; move to first fill point
G1 X110.603 Y99.257 F1080.000 E49.56643 ; fill
G1 X110.984 Y98.603 F15000.000 ; move to first fill point
G1 X141.791 Y129.410 F1080.000 E52.94715 ; fill
G1 X142.825 Y129.410 F15000.000 ; move to first fill point
G1 X111.365 Y97.951 F1080.000 E56.39949 ; fill
G1 X111.746 Y97.296 F15000.000 ; move to first fill point
G1 X114.502 Y100.052 F1080.000 E56.70189 ; fill
G1 X115.013 Y100.563 F15000.000 ; move to first fill point
G1 X143.859 Y129.410 F1080.000 E59.86743 ; fill
G1 X144.894 Y129.410 F15000.000 ; move to first fill point
G1 X116.047 Y100.563 F1080.000 E63.03306 ; fill
G1 X117.081 Y100.564 F15000.000 ; move to first fill point
G1 X148.549 Y132.032 F1080.000 E66.48625 ; fill
G1 X148.171 Y132.687 F15000.000 ; move to first fill point
G1 X145.391 Y129.908 F1080.000 E66.79129 ; fill
G1 F6000.000 E63.79129 ; retract
G92 E0 ; reset extrusion distance
G1 X148.928 Y131.376 F15000.000 ; move to first fill point
G1 F6000.000 E3.00000 ; compensate retraction
G1 X118.116 Y100.563 F1080.000 E6.38126 ; fill
G1 X119.149 Y100.563 F15000.000 ; move to first fill point
G1 X149.306 Y130.720 F1080.000 E9.69060 ; fill
G1 X149.684 Y130.065 F15000.000 ; move to first fill point
G1 X120.184 Y100.564 F1080.000 E12.92792 ; fill
G1 X121.218 Y100.563 F15000.000 ; move to first fill point
G1 X150.065 Y129.410 F1080.000 E16.09347 ; fill
G1 X151.099 Y129.410 F15000.000 ; move to first fill point
G1 X121.699 Y100.010 F1080.000 E19.31977 ; fill
G1 X122.080 Y99.358 F15000.000 ; move to first fill point
G1 X152.133 Y129.410 F1080.000 E22.61770 ; fill
G1 X153.168 Y129.410 F15000.000 ; move to first fill point
G1 X122.462 Y98.704 F1080.000 E25.98732 ; fill
G1 X122.843 Y98.051 F15000.000 ; move to first fill point
G1 X154.202 Y129.410 F1080.000 E29.42864 ; fill
G1 X153.595 Y127.769 F15000.000 ; move to first fill point
G1 X123.223 Y97.398 F1080.000 E32.76157 ; fill
G1 X123.605 Y96.744 F15000.000 ; move to first fill point
G1 X152.319 Y125.458 F1080.000 E35.91260 ; fill
G1 X152.700 Y124.806 F15000.000 ; move to first fill point
G1 X123.986 Y96.092 F1080.000 E39.06364 ; fill
G1 X124.367 Y95.438 F15000.000 ; move to first fill point
G1 X149.377 Y120.449 F1080.000 E41.80822 ; fill
G1 X149.496 Y120.568 F15000.000 ; move to first fill point
G1 X153.081 Y124.152 F1080.000 E42.20156 ; fill
G1 X153.463 Y123.499 F15000.000 ; move to first fill point
G1 X150.531 Y120.567 F1080.000 E42.52327 ; fill
G1 X151.565 Y120.567 F15000.000 ; move to first fill point
G1 X153.843 Y122.846 F1080.000 E42.77329 ; fill
G1 X154.223 Y122.192 F15000.000 ; move to first fill point
G1 X152.599 Y120.568 F1080.000 E42.95153 ; fill
G1 F6000.000 E39.95153 ; retract
G92 E0 ; reset extrusion distance
G1 X147.927 Y117.964 F15000.000 ; move to first fill point
G1 F6000.000 E3.00000 ; compensate retraction
G1 X124.748 Y94.785 F1080.000 E5.54361 ; fill
G1 X124.159 Y93.162 F15000.000 ; move to first fill point
G1 X146.527 Y115.530 F1080.000 E7.99822 ; fill
G1 X146.906 Y114.874 F15000.000 ; move to first fill point
G1 X122.778 Y90.747 F1080.000 E10.64596 ; fill
G1 X123.654 Y90.587 F15000.000 ; move to first fill point
G1 X147.285 Y114.218 F1080.000 E13.23916 ; fill
G1 X147.663 Y113.563 F15000.000 ; move to first fill point
G1 X124.688 Y90.587 F1080.000 E15.76042 ; fill
G1 X125.722 Y90.588 F15000.000 ; move to first fill point
G1 X148.041 Y112.907 F1080.000 E18.20968 ; fill
G1 X148.420 Y112.251 F15000.000 ; move to first fill point
G1 X126.757 Y90.587 F1080.000 E20.58700 ; fill
G1 X127.383 Y90.180 F15000.000 ; move to first fill point
G1 X138.118 Y100.915 F1080.000 E21.76499 ; fill
G1 X137.767 Y100.564 F15000.000 ; move to first fill point
G1 X148.798 Y111.596 F1080.000 E22.97557 ; fill
G1 X149.177 Y110.940 F15000.000 ; move to first fill point
G1 X138.801 Y100.564 F1080.000 E24.11422 ; fill
G1 X139.835 Y100.563 F15000.000 ; move to first fill point
G1 X149.556 Y110.284 F1080.000 E25.18094 ; fill
G1 X149.934 Y109.628 F15000.000 ; move to first fill point
G1 X140.870 Y100.564 F1080.000 E26.17565 ; fill
G1 X141.903 Y100.564 F15000.000 ; move to first fill point
G1 X150.746 Y109.406 F1080.000 E27.14599 ; fill
G1 X151.780 Y109.406 F15000.000 ; move to first fill point
G1 X142.938 Y100.563 F1080.000 E28.11633 ; fill
G1 X143.972 Y100.564 F15000.000 ; move to first fill point
G1 X152.815 Y109.406 F1080.000 E29.08668 ; fill
G1 X153.849 Y109.406 F15000.000 ; move to first fill point
G1 X144.687 Y100.244 F1080.000 E30.09209 ; fill
G1 X145.064 Y99.587 F15000.000 ; move to first fill point
G1 X154.090 Y108.613 F1080.000 E31.08261 ; fill
G1 X152.644 Y106.133 E31.30544 ; fill
G1 X145.440 Y98.929 E32.09591 ; fill
G1 X145.817 Y98.272 F15000.000 ; move to first fill point
G1 X152.569 Y105.024 F1080.000 E32.83680 ; fill
G1 X152.951 Y104.370 F15000.000 ; move to first fill point
G1 X149.144 Y100.563 F1080.000 E33.25458 ; fill
G1 X149.872 Y101.292 F15000.000 ; move to first fill point
G1 X146.194 Y97.614 F1080.000 E33.65816 ; fill
G1 X146.571 Y96.957 F15000.000 ; move to first fill point
G1 X148.423 Y98.809 F1080.000 E33.86139 ; fill
G1 F6000.000 E30.86139 ; retract
G92 E0 ; reset extrusion distance
G1 X150.178 Y100.564 F15000.000 ; move to first fill point
G1 F6000.000 E3.00000 ; compensate retraction
G1 X153.332 Y103.718 F1080.000 E3.34608 ; fill
G1 X153.712 Y103.064 F15000.000 ; move to first fill point
G1 X151.212 Y100.564 F1080.000 E3.62046 ; fill
G1 X152.246 Y100.563 F15000.000 ; move to first fill point
G1 X154.094 Y102.411 F1080.000 E3.82322 ; fill
G1 X154.341 Y101.625 F15000.000 ; move to first fill point
G1 X153.281 Y100.564 F1080.000 E3.93962 ; fill
G1 F6000.000 E0.93962 ; retract
G92 E0 ; reset extrusion distance
G1 X136.669 Y98.433 F15000.000 ; move to first fill point
G1 F6000.000 E3.00000 ; compensate retraction
G1 X127.761 Y89.525 F1080.000 E3.97756 ; fill
G1 X128.140 Y88.868 F15000.000 ; move to first fill point
G1 X135.221 Y95.949 F1080.000 E4.75461 ; fill
G1 X135.299 Y94.993 F15000.000 ; move to first fill point
G1 X128.519 Y88.213 F1080.000 E5.49868 ; fill
G1 X128.897 Y87.558 F15000.000 ; move to first fill point
G1 X132.449 Y91.109 F1080.000 E5.88845 ; fill
G1 X132.962 Y90.587 F15000.000 ; move to first fill point
G1 X136.061 Y93.687 F1080.000 E6.22855 ; fill
G1 X136.442 Y93.034 F15000.000 ; move to first fill point
G1 X133.996 Y90.587 F1080.000 E6.49704 ; fill
G1 X135.030 Y90.588 F15000.000 ; move to first fill point
G1 X136.823 Y92.381 F1080.000 E6.69375 ; fill
G1 F6000.000 E3.69375 ; retract
G92 E0 ; reset extrusion distance
G1 X135.680 Y94.340 F15000.000 ; move to first fill point
G1 F6000.000 E3.00000 ; compensate retraction
G1 X131.928 Y90.588 F1080.000 E3.41173 ; fill
G1 X131.036 Y88.661 E3.57648 ; fill
G1 X129.276 Y86.901 E3.76962 ; fill
G1 F6000.000 E0.76962 ; retract
G92 E0 ; reset extrusion distance
G1 X107.587 Y104.515 F15000.000 ; move to first fill point
G1 F6000.000 E3.00000 ; compensate retraction
G1 X136.315 Y133.243 F1080.000 E6.15259 ; fill
G1 X135.936 Y133.899 F15000.000 ; move to first fill point
G1 X107.206 Y105.169 F1080.000 E9.30541 ; fill
G1 X106.825 Y105.822 F15000.000 ; move to first fill point
G1 X110.410 Y109.406 F1080.000 E9.69874 ; fill
G1 X109.376 Y109.406 F15000.000 ; move to first fill point
G1 X106.444 Y106.475 F1080.000 E10.02046 ; fill
G1 X106.063 Y107.129 F15000.000 ; move to first fill point
G1 X108.341 Y109.406 F1080.000 E10.27040 ; fill
G1 X107.307 Y109.406 F15000.000 ; move to first fill point
G1 X105.682 Y107.781 F1080.000 E10.44871 ; fill
G1 F6000.000 E7.44871 ; retract
G92 E0 ; reset extrusion distance
G1 X113.344 Y114.410 F15000.000 ; move to first fill point
G1 F6000.000 E3.00000 ; compensate retraction
G1 X135.678 Y136.744 F1080.000 E5.45088 ; fill
G1 X135.180 Y135.210 F15000.000 ; move to first fill point
G1 X111.932 Y111.963 F1080.000 E8.00202 ; fill
G1 X110.519 Y109.516 E8.22125 ; fill
G1 X135.558 Y134.555 E10.96894 ; fill
G1 F6000.000 E7.96894 ; retract
G92 E0 ; reset extrusion distance
G1 X135.270 Y139.439 F15000.000 ; move to first fill point
G1 F6000.000 E3.00000 ; compensate retraction
G1 X112.257 Y116.426 F1080.000 E5.52538 ; fill
G1 X111.876 Y117.079 F15000.000 ; move to first fill point
G1 X134.236 Y139.439 F1080.000 E7.97913 ; fill
G1 X133.202 Y139.438 F15000.000 ; move to first fill point
G1 X111.496 Y117.732 F1080.000 E10.36111 ; fill
G1 X111.114 Y118.385 F15000.000 ; move to first fill point
G1 X122.139 Y129.410 F1080.000 E11.57099 ; fill
G1 X121.791 Y129.062 F15000.000 ; move to first fill point
G1 X132.543 Y139.815 F1080.000 E12.75100 ; fill
G1 X132.163 Y140.468 F15000.000 ; move to first fill point
G1 X123.203 Y131.508 F1080.000 E13.73422 ; fill
G1 X124.617 Y133.956 E13.95353 ; fill
G1 X131.782 Y141.121 E14.73981 ; fill
