; generated by Slic3r 0.9.3 on 2012-12-14 at 13:55:34

; layer_height = 0.25
; perimeters = 1
; solid_layers = 4
; fill_density = 0
; perimeter_speed = 60
; infill_speed = 90
; travel_speed = 250
; scale = 1
; nozzle_diameter = 0.35
; filament_diameter = 1.7
; extrusion_multiplier = 1.0
; single wall width = 0.75mm

M104 S185 ; set temperature
;Standard Profile for Series 1. Single Extruder
M104 S185
M301 P24.72 I0.88 D231.1
G28
G1 X120 Y115 Z15 F10000
G92 E0
G1 Y5 Z15 F5000
M109 S185
G1 F100 E50
G92 E0
G1 X50 Z0.3 F10000
; do a little dance on a toothbrush to remove extrusions..  
G90 ; use absolute coordinates
G21 ; set units to millimeters
G92 E0 ; reset extrusion distance
M82 ; use absolute distances for extrusion
M106 S255 ; enable fan
G1 F6000.000 E-3.00000 ; retract
G92 E0 ; reset extrusion distance
G1 Z0.250 F15000.000 ; move to next layer (0)
G1 X113.792 Y89.978 ; move to first skirt point
G1 F6000.000 E3.00000 ; compensate retraction
G1 X114.172 Y89.478 F1080.000 E3.04817 ; skirt
G1 X114.472 Y89.188 E3.08017 ; skirt
G1 X114.812 Y88.938 E3.11254 ; skirt
G1 X114.982 Y88.828 E3.12807 ; skirt
G1 X115.542 Y88.528 E3.17679 ; skirt
G1 X115.932 Y88.378 E3.20884 ; skirt
G1 X116.132 Y88.318 E3.22485 ; skirt
G1 X116.342 Y88.268 E3.24141 ; skirt
G1 X116.752 Y88.208 E3.27319 ; skirt
G1 X116.962 Y88.198 E3.28932 ; skirt
G1 X117.382 Y88.208 E3.32154 ; skirt
G1 X117.592 Y88.228 E3.33772 ; skirt
G1 X117.792 Y88.258 E3.35323 ; skirt
G1 X118.002 Y88.308 E3.36979 ; skirt
G1 X118.402 Y88.428 E3.40182 ; skirt
G1 X118.782 Y88.598 E3.43374 ; skirt
G1 X123.912 Y91.578 E3.88877 ; skirt
G1 X123.922 Y91.588 E3.88985 ; skirt
G1 X131.162 Y95.868 E4.53491 ; skirt
G1 X131.172 Y95.878 E4.53600 ; skirt
G1 X152.612 Y108.598 E6.44801 ; skirt
G1 X152.632 Y108.608 E6.44972 ; skirt
G1 X158.432 Y112.118 E6.96968 ; skirt
G1 X158.602 Y112.238 E6.98564 ; skirt
G1 X158.932 Y112.518 E7.01884 ; skirt
G1 X159.212 Y112.828 E7.05087 ; skirt
G1 X159.342 Y112.998 E7.06729 ; skirt
G1 X159.572 Y113.358 E7.10005 ; skirt
G1 X159.762 Y113.738 E7.13264 ; skirt
G1 X159.842 Y113.938 E7.14916 ; skirt
G1 X159.962 Y114.348 E7.18192 ; skirt
G1 X160.032 Y114.768 E7.21458 ; skirt
G1 X160.052 Y114.978 E7.23076 ; skirt
G1 X160.052 Y115.608 E7.27908 ; skirt
G1 X160.002 Y116.018 E7.31076 ; skirt
G1 X159.912 Y116.418 E7.34221 ; skirt
G1 X159.782 Y116.808 E7.37374 ; skirt
G1 X159.602 Y117.178 E7.40529 ; skirt
G1 X159.502 Y117.358 E7.42109 ; skirt
G1 X159.262 Y117.698 E7.45301 ; skirt
G1 X158.992 Y117.998 E7.48396 ; skirt
G1 X158.842 Y118.148 E7.50023 ; skirt
G1 X158.692 Y118.278 E7.51545 ; skirt
G1 X158.352 Y118.528 E7.54782 ; skirt
G1 X153.212 Y121.468 E8.00198 ; skirt
G1 X153.182 Y121.488 E8.00474 ; skirt
G1 X118.162 Y141.108 E11.08349 ; skirt
G1 X117.982 Y141.188 E11.09860 ; skirt
G1 X117.592 Y141.328 E11.13038 ; skirt
G1 X117.192 Y141.418 E11.16182 ; skirt
G1 X116.782 Y141.468 E11.19350 ; skirt
G1 X116.362 Y141.468 E11.22572 ; skirt
G1 X115.952 Y141.428 E11.25731 ; skirt
G1 X115.552 Y141.338 E11.28876 ; skirt
G1 X115.352 Y141.278 E11.30477 ; skirt
G1 X114.972 Y141.118 E11.33639 ; skirt
G1 X114.612 Y140.928 E11.36762 ; skirt
G1 X114.082 Y140.578 E11.41633 ; skirt
G1 X113.762 Y140.298 E11.44894 ; skirt
G1 X113.612 Y140.138 E11.46576 ; skirt
G1 X113.352 Y139.808 E11.49798 ; skirt
G1 X113.232 Y139.638 E11.51394 ; skirt
G1 X113.122 Y139.458 E11.53012 ; skirt
G1 X113.022 Y139.268 E11.54659 ; skirt
G1 X112.932 Y139.068 E11.56341 ; skirt
G1 X112.792 Y138.668 E11.59592 ; skirt
G1 X112.742 Y138.468 E11.61173 ; skirt
G1 X112.672 Y138.048 E11.64438 ; skirt
G1 X112.652 Y137.838 E11.66056 ; skirt
G1 X113.192 Y91.738 E15.19655 ; skirt
G1 X113.212 Y91.528 E15.21273 ; skirt
G1 X113.242 Y91.328 E15.22824 ; skirt
G1 X113.342 Y90.918 E15.26061 ; skirt
G1 X113.412 Y90.718 E15.27686 ; skirt
G1 X113.444 Y90.641 E15.28324 ; skirt
G1 F6000.000 E12.28324 ; retract
G92 E0 ; reset extrusion distance
G1 X116.907 Y92.025 F15000.000 ; move to first perimeter point
G1 F6000.000 E3.00000 ; compensate retraction
G1 X117.095 Y91.918 F1080.000 E3.01661 ; perimeter
G1 X117.690 Y92.270 E3.06961 ; perimeter
G1 X117.726 Y92.289 E3.07273 ; perimeter
G1 X118.644 Y92.830 E3.15445 ; perimeter
G1 X118.704 Y92.859 E3.15953 ; perimeter
G1 X119.211 Y93.160 E3.20477 ; perimeter
G1 X119.273 Y93.192 E3.21013 ; perimeter
G1 X120.505 Y93.919 E3.31981 ; perimeter
G1 X120.571 Y93.948 E3.32537 ; perimeter
G1 X121.221 Y94.333 E3.38326 ; perimeter
G1 X121.292 Y94.363 E3.38917 ; perimeter
G1 X121.966 Y94.762 E3.44929 ; perimeter
G1 X122.038 Y94.799 E3.45548 ; perimeter
G1 X123.579 Y95.715 E3.59294 ; perimeter
G1 X123.659 Y95.770 E3.60043 ; perimeter
G1 X124.454 Y96.240 E3.67131 ; perimeter
G1 X124.537 Y96.296 E3.67893 ; perimeter
G1 X129.272 Y99.087 E4.10054 ; perimeter
G1 X129.359 Y99.146 E4.10853 ; perimeter
G1 X130.288 Y99.695 E4.19131 ; perimeter
G1 X130.372 Y99.760 E4.19946 ; perimeter
G1 X131.328 Y100.325 E4.28465 ; perimeter
G1 X131.415 Y100.388 E4.29289 ; perimeter
G1 X134.536 Y102.245 E4.57139 ; perimeter
G1 X134.635 Y102.311 E4.58052 ; perimeter
G1 X141.070 Y106.111 E5.15372 ; perimeter
G1 X141.166 Y106.159 E5.16197 ; perimeter
G1 X142.135 Y106.732 E5.24828 ; perimeter
G1 X142.231 Y106.777 E5.25643 ; perimeter
G1 X145.198 Y108.532 E5.52080 ; perimeter
G1 X145.289 Y108.593 E5.52920 ; perimeter
G1 X150.714 Y111.800 E6.01253 ; perimeter
G1 X150.780 Y111.846 E6.01872 ; perimeter
G1 X151.493 Y112.267 E6.08222 ; perimeter
G1 X151.552 Y112.316 E6.08812 ; perimeter
G1 X152.242 Y112.724 E6.14962 ; perimeter
G1 X152.299 Y112.769 E6.15517 ; perimeter
G1 X153.617 Y113.552 E6.27273 ; perimeter
G1 X153.674 Y113.592 E6.27809 ; perimeter
G1 X154.230 Y113.921 E6.32762 ; perimeter
G1 X154.283 Y113.960 E6.33270 ; perimeter
G1 X154.799 Y114.265 E6.37868 ; perimeter
G1 X154.846 Y114.296 E6.38295 ; perimeter
G1 X155.302 Y114.567 E6.42366 ; perimeter
G1 X155.336 Y114.590 E6.42677 ; perimeter
G1 X155.723 Y114.819 E6.46130 ; perimeter
G1 X155.745 Y114.839 E6.46359 ; perimeter
G1 X156.338 Y115.190 E6.51645 ; perimeter
G1 X156.336 Y115.406 E6.53305 ; perimeter
G1 X155.734 Y115.746 E6.58606 ; perimeter
G1 X155.700 Y115.767 E6.58917 ; perimeter
G1 X154.772 Y116.292 E6.67089 ; perimeter
G1 X154.717 Y116.329 E6.67598 ; perimeter
G1 X154.203 Y116.618 E6.72122 ; perimeter
G1 X154.144 Y116.656 E6.72658 ; perimeter
G1 X152.899 Y117.359 E6.83626 ; perimeter
G1 X152.841 Y117.401 E6.84181 ; perimeter
G1 X152.183 Y117.772 E6.89971 ; perimeter
G1 X152.121 Y117.818 E6.90562 ; perimeter
G1 X151.438 Y118.203 E6.96573 ; perimeter
G1 X151.370 Y118.246 E6.97193 ; perimeter
G1 X149.807 Y119.123 E7.10938 ; perimeter
G1 X149.719 Y119.165 E7.11688 ; perimeter
G1 X148.914 Y119.618 E7.18776 ; perimeter
G1 X148.824 Y119.662 E7.19538 ; perimeter
G1 X144.039 Y122.367 E7.61698 ; perimeter
G1 X143.945 Y122.413 E7.62497 ; perimeter
G1 X143.005 Y122.943 E7.70776 ; perimeter
G1 X142.907 Y122.984 E7.71590 ; perimeter
G1 X141.939 Y123.529 E7.80109 ; perimeter
G1 X141.841 Y123.573 E7.80933 ; perimeter
G1 X138.673 Y125.347 E8.08784 ; perimeter
G1 X138.566 Y125.399 E8.09697 ; perimeter
G1 X132.057 Y129.073 E8.67017 ; perimeter
G1 X131.968 Y129.132 E8.67841 ; perimeter
G1 X130.987 Y129.684 E8.76473 ; perimeter
G1 X130.900 Y129.745 E8.77288 ; perimeter
G1 X127.897 Y131.437 E9.03725 ; perimeter
G1 X127.799 Y131.485 E9.04564 ; perimeter
G1 X122.309 Y134.580 E9.52898 ; perimeter
G1 X122.236 Y134.615 E9.53517 ; perimeter
G1 X121.515 Y135.021 E9.59866 ; perimeter
G1 X121.443 Y135.048 E9.60456 ; perimeter
G1 X120.744 Y135.441 E9.66607 ; perimeter
G1 X120.677 Y135.468 E9.67162 ; perimeter
G1 X119.340 Y136.218 E9.78918 ; perimeter
G1 X119.277 Y136.247 E9.79454 ; perimeter
G1 X118.714 Y136.564 E9.84406 ; perimeter
G1 X118.654 Y136.591 E9.84915 ; perimeter
G1 X118.131 Y136.886 E9.89513 ; perimeter
G1 X118.081 Y136.910 E9.89939 ; perimeter
G1 X117.619 Y137.171 E9.94011 ; perimeter
G1 X117.582 Y137.188 E9.94322 ; perimeter
G1 X117.190 Y137.409 E9.97775 ; perimeter
G1 X117.161 Y137.418 E9.98004 ; perimeter
G1 X116.561 Y137.756 E10.03289 ; perimeter
G1 X116.375 Y137.646 E10.04950 ; perimeter
G1 X116.382 Y136.955 E10.10250 ; perimeter
G1 X116.380 Y136.914 E10.10562 ; perimeter
G1 X116.390 Y135.849 E10.18734 ; perimeter
G1 X116.385 Y135.783 E10.19242 ; perimeter
G1 X116.392 Y135.193 E10.23767 ; perimeter
G1 X116.389 Y135.123 E10.24302 ; perimeter
G1 X116.402 Y133.693 E10.35270 ; perimeter
G1 X116.395 Y133.621 E10.35825 ; perimeter
G1 X116.403 Y132.866 E10.41615 ; perimeter
G1 X116.393 Y132.790 E10.42206 ; perimeter
G1 X116.402 Y132.006 E10.48218 ; perimeter
G1 X116.398 Y131.925 E10.48837 ; perimeter
G1 X116.421 Y130.133 E10.62583 ; perimeter
G1 X116.428 Y130.036 E10.63333 ; perimeter
G1 X116.438 Y129.112 E10.70420 ; perimeter
G1 X116.445 Y129.013 E10.71183 ; perimeter
G1 X116.495 Y123.516 E11.13343 ; perimeter
G1 X116.502 Y123.412 E11.14142 ; perimeter
G1 X116.514 Y122.333 E11.22421 ; perimeter
G1 X116.527 Y122.227 E11.23235 ; perimeter
G1 X116.539 Y121.117 E11.31754 ; perimeter
G1 X116.550 Y121.010 E11.32578 ; perimeter
G1 X116.598 Y117.379 E11.60428 ; perimeter
G1 X116.606 Y117.260 E11.61342 ; perimeter
G1 X116.679 Y109.787 E12.18662 ; perimeter
G1 X116.672 Y109.679 E12.19486 ; perimeter
G1 X116.684 Y108.554 E12.28118 ; perimeter
G1 X116.675 Y108.448 E12.28933 ; perimeter
G1 X116.711 Y105.002 E12.55370 ; perimeter
G1 X116.719 Y104.892 E12.56209 ; perimeter
G1 X116.783 Y98.591 E13.04543 ; perimeter
G1 X116.790 Y98.510 E13.05162 ; perimeter
G1 X116.799 Y97.683 E13.11511 ; perimeter
G1 X116.811 Y97.607 E13.12102 ; perimeter
G1 X116.820 Y96.805 E13.18252 ; perimeter
G1 X116.830 Y96.733 E13.18807 ; perimeter
G1 X116.850 Y95.201 E13.30563 ; perimeter
G1 X116.856 Y95.131 E13.31099 ; perimeter
G1 X116.863 Y94.485 E13.36052 ; perimeter
G1 X116.869 Y94.419 E13.36560 ; perimeter
G1 X116.876 Y93.820 E13.41158 ; perimeter
G1 X116.879 Y93.764 E13.41585 ; perimeter
G1 X116.885 Y93.234 E13.45656 ; perimeter
G1 X116.889 Y93.193 E13.45967 ; perimeter
G1 X116.893 Y92.774 E13.49182 ; perimeter
G1 X117.081 Y92.619 F15000.000 ; move to first fill point
G1 X145.821 Y121.359 F1080.000 E16.60932 ; fill
G1 X146.474 Y120.989 F15000.000 ; move to first fill point
G1 X119.339 Y93.854 F1080.000 E19.55270 ; fill
G1 X121.782 Y95.275 E19.76946 ; fill
G1 X147.127 Y120.620 E22.51871 ; fill
G1 X147.780 Y120.250 F15000.000 ; move to first fill point
G1 X124.322 Y96.792 F1080.000 E25.06324 ; fill
G1 X126.815 Y98.261 E25.28514 ; fill
G1 X148.435 Y119.881 E27.63040 ; fill
G1 X149.092 Y119.516 F15000.000 ; move to first fill point
G1 X129.346 Y99.770 F1080.000 E29.77232 ; fill
G1 X131.912 Y101.313 E30.00201 ; fill
G1 X149.748 Y119.150 E31.93675 ; fill
G1 X150.404 Y118.783 F15000.000 ; move to first fill point
G1 X134.449 Y102.828 F1080.000 E33.66747 ; fill
G1 X136.947 Y104.302 E33.88997 ; fill
G1 X151.062 Y118.417 E35.42102 ; fill
G1 X151.715 Y118.048 F15000.000 ; move to first fill point
G1 X139.439 Y105.771 F1080.000 E36.75273 ; fill
G1 X141.890 Y107.200 E36.97039 ; fill
G1 X152.362 Y117.672 E38.10635 ; fill
G1 X153.009 Y117.297 F15000.000 ; move to first fill point
G1 X144.405 Y108.692 F1080.000 E39.03974 ; fill
G1 X146.928 Y110.193 E39.26497 ; fill
G1 X153.661 Y116.926 E39.99526 ; fill
G1 X154.313 Y116.554 F15000.000 ; move to first fill point
G1 X149.413 Y111.654 F1080.000 E40.52681 ; fill
G1 X152.005 Y113.224 E40.75925 ; fill
G1 X154.965 Y116.184 E41.08033 ; fill
G1 X155.617 Y115.813 F15000.000 ; move to first fill point
G1 X154.556 Y114.752 F1080.000 E41.19546 ; fill
G1 F6000.000 E38.19546 ; retract
G92 E0 ; reset extrusion distance
G1 X145.168 Y121.728 F15000.000 ; move to first fill point
G1 F6000.000 E3.00000 ; compensate retraction
G1 X117.066 Y93.626 F1080.000 E6.04839 ; fill
G1 X117.049 Y94.633 F15000.000 ; move to first fill point
G1 X144.514 Y122.098 F1080.000 E9.02767 ; fill
G1 X143.857 Y122.464 F15000.000 ; move to first fill point
G1 X117.032 Y95.639 F1080.000 E11.93745 ; fill
G1 X117.013 Y96.642 F15000.000 ; move to first fill point
G1 X143.197 Y122.826 F1080.000 E14.77774 ; fill
G1 X142.536 Y123.188 F15000.000 ; move to first fill point
G1 X116.987 Y97.639 F1080.000 E17.54916 ; fill
G1 X116.970 Y98.646 F15000.000 ; move to first fill point
G1 X141.876 Y123.551 F1080.000 E20.25077 ; fill
G1 X141.220 Y123.918 F15000.000 ; move to first fill point
G1 X116.962 Y99.660 F1080.000 E22.88205 ; fill
G1 X116.954 Y100.674 F15000.000 ; move to first fill point
G1 X140.564 Y124.284 F1080.000 E25.44307 ; fill
G1 X139.907 Y124.650 F15000.000 ; move to first fill point
G1 X116.946 Y101.689 F1080.000 E27.93375 ; fill
G1 X116.934 Y102.699 F15000.000 ; move to first fill point
G1 X139.251 Y125.016 F1080.000 E30.35456 ; fill
G1 X138.594 Y125.383 F15000.000 ; move to first fill point
G1 X116.919 Y103.708 F1080.000 E32.70572 ; fill
G1 X116.905 Y104.717 F15000.000 ; move to first fill point
G1 X137.938 Y125.750 F1080.000 E34.98724 ; fill
G1 X137.283 Y126.117 F15000.000 ; move to first fill point
G1 X116.891 Y105.725 F1080.000 E37.19926 ; fill
G1 X116.877 Y106.733 F15000.000 ; move to first fill point
G1 X136.630 Y126.486 F1080.000 E39.34195 ; fill
G1 X135.976 Y126.856 F15000.000 ; move to first fill point
G1 X116.874 Y107.754 F1080.000 E41.41399 ; fill
G1 X116.873 Y108.776 F15000.000 ; move to first fill point
G1 X135.323 Y127.226 F1080.000 E43.41538 ; fill
G1 X134.670 Y127.595 F15000.000 ; move to first fill point
G1 X116.867 Y109.792 F1080.000 E45.34652 ; fill
G1 X116.858 Y110.806 F15000.000 ; move to first fill point
G1 X134.016 Y127.964 F1080.000 E47.20779 ; fill
G1 X133.363 Y128.333 F15000.000 ; move to first fill point
G1 X116.849 Y111.819 F1080.000 E48.99917 ; fill
G1 X116.839 Y112.834 F15000.000 ; move to first fill point
G1 X132.709 Y128.703 F1080.000 E50.72061 ; fill
G1 X132.057 Y129.074 F15000.000 ; move to first fill point
G1 X116.830 Y113.847 F1080.000 E52.37232 ; fill
G1 X116.821 Y114.860 F15000.000 ; move to first fill point
G1 X131.408 Y129.447 F1080.000 E53.95461 ; fill
G1 X130.759 Y129.820 F15000.000 ; move to first fill point
G1 X116.810 Y115.871 F1080.000 E55.46772 ; fill
G1 X116.795 Y116.880 F15000.000 ; move to first fill point
G1 X130.108 Y130.194 F1080.000 E56.91188 ; fill
G1 X129.453 Y130.562 F15000.000 ; move to first fill point
G1 X116.781 Y117.889 F1080.000 E58.28654 ; fill
G1 X116.766 Y118.896 F15000.000 ; move to first fill point
G1 X128.797 Y130.928 F1080.000 E59.59163 ; fill
G1 X128.141 Y131.294 F15000.000 ; move to first fill point
G1 X116.752 Y119.905 F1080.000 E60.82708 ; fill
G1 X116.734 Y120.910 F15000.000 ; move to first fill point
G1 X127.485 Y131.660 F1080.000 E61.99326 ; fill
G1 X126.828 Y132.027 F15000.000 ; move to first fill point
G1 X116.711 Y121.911 F1080.000 E63.09065 ; fill
G1 X116.689 Y122.911 F15000.000 ; move to first fill point
G1 X126.172 Y132.394 F1080.000 E64.11923 ; fill
G1 X125.518 Y132.763 F15000.000 ; move to first fill point
G1 X116.680 Y123.924 F1080.000 E65.07801 ; fill
G1 X116.671 Y124.938 F15000.000 ; move to first fill point
G1 X124.865 Y133.132 F1080.000 E65.96684 ; fill
G1 X124.212 Y133.502 F15000.000 ; move to first fill point
G1 X116.662 Y125.953 F1080.000 E66.78579 ; fill
G1 X116.653 Y126.967 F15000.000 ; move to first fill point
G1 X123.559 Y133.872 F1080.000 E67.53487 ; fill
G1 X122.906 Y134.242 F15000.000 ; move to first fill point
G1 X116.641 Y127.977 F1080.000 E68.21445 ; fill
G1 X116.627 Y128.985 F15000.000 ; move to first fill point
G1 X122.249 Y134.608 F1080.000 E68.82439 ; fill
G1 X121.588 Y134.968 F15000.000 ; move to first fill point
G1 X116.612 Y129.992 F1080.000 E69.36414 ; fill
G1 X116.596 Y131.001 F15000.000 ; move to first fill point
G1 X120.924 Y135.329 F1080.000 E69.83364 ; fill
G1 X120.267 Y135.694 F15000.000 ; move to first fill point
G1 X116.593 Y132.020 F1080.000 E70.23219 ; fill
G1 X116.595 Y133.045 F15000.000 ; move to first fill point
G1 X119.609 Y136.059 F1080.000 E70.55909 ; fill
G1 X118.952 Y136.424 F15000.000 ; move to first fill point
G1 X116.590 Y134.062 F1080.000 E70.81535 ; fill
