; generated by Slic3r 0.9.3 on 2012-12-13 at 10:25:51

; layer_height = 0.25
; perimeters = 3
; solid_layers = 3
; fill_density = 0.25
; perimeter_speed = 65
; infill_speed = 60
; travel_speed = 250
; scale = 1
; nozzle_diameter = 0.35
; filament_diameter = 1.7
; extrusion_multiplier = 1.0
; single wall width = 0.39mm

M104 S185 ; set temperature
;Standard Profile for Series 1. Single Extruder
M104 S185
M301 P24.72 I0.88 D231.1
G28
G1 X120 Y115 Z15 F10000
G92 E0
G1 Y5 Z15 F5000
M109 S185
G1 F100 E50
G92 E0
G1 X50 Z0.3 F10000
; do a little dance on a toothbrush to remove extrusions..  
G90 ; use absolute coordinates
G21 ; set units to millimeters
G92 E0
M82 ; use absolute distances for extrusion
M106 S255
G1 F6000.000 E-3.00000
G92 E0
G1 Z0.250 F15000.000
G1 X99.370 Y80.685
G1 F6000.000 E3.00000
G1 X99.940 Y80.125 F1170.000 E3.03387
G1 X103.330 Y77.645 E3.21191
G1 X103.790 Y77.365 E3.23474
G1 X107.870 Y75.545 E3.42410
G1 X108.390 Y75.395 E3.44704
G1 X112.600 Y74.495 E3.62953
G1 X113.450 Y74.405 E3.66576
G1 X113.740 Y74.395 E3.67806
G1 X147.020 Y74.505 E5.08872
G1 X148.000 Y74.635 E5.13063
G1 X151.600 Y75.395 E5.28659
G1 X152.120 Y75.545 E5.30953
G1 X156.200 Y77.365 E5.49889
G1 X156.880 Y77.795 E5.53300
G1 X160.050 Y80.125 E5.69976
G1 X160.620 Y80.685 E5.73363
G1 X162.890 Y83.205 E5.87739
G1 X163.390 Y83.845 E5.91182
G1 X165.500 Y87.475 E6.08979
G1 X165.830 Y88.205 E6.12375
G1 X166.970 Y91.685 E6.27897
G1 X167.170 Y92.475 E6.31351
G1 X167.600 Y96.375 E6.47982
G1 X167.600 Y133.695 E8.06173
G1 X167.170 Y137.605 E8.22846
G1 X166.970 Y138.395 E8.26300
G1 X165.830 Y141.875 E8.41823
G1 X165.620 Y142.365 E8.44082
G1 X163.540 Y146.015 E8.61890
G1 X163.230 Y146.455 E8.64171
G1 X162.890 Y146.875 E8.66462
G1 X160.240 Y149.775 E8.83113
G1 X160.050 Y149.955 E8.84223
G1 X156.660 Y152.435 E9.02027
G1 X156.200 Y152.715 E9.04309
G1 X152.120 Y154.535 E9.23246
G1 X151.600 Y154.685 E9.25540
G1 X147.740 Y155.495 E9.42258
G1 X147.220 Y155.565 E9.44482
G1 X146.690 Y155.585 E9.46730
G1 X112.770 Y155.565 E10.90509
G1 X112.250 Y155.495 E10.92733
G1 X108.390 Y154.685 E11.09451
G1 X107.870 Y154.535 E11.11745
G1 X103.790 Y152.715 E11.30681
G1 X103.110 Y152.285 E11.34092
G1 X99.940 Y149.955 E11.50768
G1 X99.370 Y149.395 E11.54155
G1 X97.100 Y146.875 E11.68531
G1 X96.600 Y146.235 E11.71974
G1 X94.490 Y142.605 E11.89771
G1 X94.160 Y141.875 E11.93167
G1 X93.020 Y138.395 E12.08689
G1 X92.820 Y137.605 E12.12143
G1 X92.390 Y133.695 E12.28817
G1 X92.390 Y96.375 E13.87007
G1 X92.820 Y92.475 E14.03638
G1 X93.020 Y91.685 E14.07092
G1 X94.160 Y88.205 E14.22615
G1 X94.370 Y87.715 E14.24874
G1 X96.450 Y84.065 E14.42682
G1 X96.760 Y83.625 E14.44963
G1 X97.100 Y83.205 E14.47254
G1 X99.106 Y80.978 E14.59958
G1 F6000.000 E11.59958
G92 E0
G1 X126.388 Y126.788 F15000.000
G1 F6000.000 E3.00000
G1 X127.768 Y126.174 F1170.000 E3.07782
G1 X129.245 Y125.860 E3.15564
G1 X130.755 Y125.860 E3.23346
G1 X132.005 Y126.126 E3.29930
G1 X132.005 Y126.126 E3.29930
G1 X132.233 Y126.174 E3.31128
G1 X133.614 Y126.789 E3.38918
G1 X133.614 Y126.789 E3.38918
G1 X133.614 Y126.789 E3.38920
G1 X134.646 Y127.539 E3.45495
G1 X134.646 Y127.539 E3.45495
G1 X134.834 Y127.676 E3.46693
G1 X135.845 Y128.799 E3.54475
G1 X136.600 Y130.106 E3.62257
G1 X137.067 Y131.543 E3.70039
G1 X137.225 Y133.045 E3.77821
G1 X137.067 Y134.547 E3.85603
G1 X136.600 Y135.984 E3.93385
G1 X135.845 Y137.291 E4.01167
G1 X134.834 Y138.414 E4.08949
G1 X134.646 Y138.551 E4.10147
G1 X134.646 Y138.551 E4.10147
G1 X133.612 Y139.302 E4.16730
G1 X132.233 Y139.916 E4.24513
G1 X130.755 Y140.230 E4.32295
G1 X129.602 Y140.230 E4.38238
G1 X129.602 Y140.306 E4.38629
G1 X127.768 Y139.916 E4.48292
G1 X126.388 Y139.302 E4.56074
G1 X126.299 Y139.237 E4.56637
G1 X126.299 Y139.237 E4.56637
G1 X125.166 Y138.414 E4.63856
G1 X124.155 Y137.291 E4.71638
G1 X123.400 Y135.983 E4.79420
G1 X122.933 Y134.547 E4.87202
G1 X122.775 Y133.045 E4.94984
G1 X122.933 Y131.543 E5.02766
G1 X123.400 Y130.107 E5.10548
G1 X124.155 Y128.799 E5.18330
G1 X125.166 Y127.676 E5.26112
G1 X126.069 Y127.020 E5.31862
G1 X126.484 Y127.317 F15000.000
G1 X126.631 Y127.210 F1170.000 E5.32798
G1 X127.918 Y126.637 E5.40056
G1 X129.296 Y126.344 E5.47314
G1 X130.704 Y126.344 E5.54572
G1 X132.082 Y126.637 E5.61830
G1 X133.367 Y127.209 E5.69078
G1 X133.367 Y127.209 E5.69079
G1 X133.369 Y127.210 E5.69088
G1 X134.509 Y128.038 E5.76346
G1 X135.451 Y129.085 E5.83604
G1 X136.155 Y130.304 E5.90862
G1 X136.591 Y131.644 E5.98120
G1 X136.738 Y133.045 E6.05378
G1 X136.591 Y134.446 E6.12636
G1 X136.155 Y135.786 E6.19894
G1 X135.451 Y137.005 E6.27152
G1 X134.509 Y138.052 E6.34410
G1 X133.369 Y138.880 E6.41667
G1 X133.367 Y138.881 E6.41677
G1 X133.367 Y138.881 E6.41677
G1 X132.082 Y139.453 E6.48925
G1 X130.704 Y139.746 E6.56183
G1 X129.296 Y139.746 E6.63441
G1 X129.118 Y139.708 E6.64377
G1 X129.118 Y139.708 E6.64377
G1 X127.918 Y139.453 E6.70699
G1 X126.631 Y138.880 E6.77957
G1 X125.491 Y138.052 E6.85215
G1 X124.549 Y137.005 E6.92473
G1 X123.845 Y135.786 E6.99731
G1 X123.409 Y134.446 E7.06989
G1 X123.262 Y133.045 E7.14247
G1 X123.409 Y131.644 E7.21505
G1 X123.845 Y130.304 E7.28763
G1 X124.549 Y129.085 E7.36021
G1 X125.491 Y128.038 E7.43279
G1 X126.165 Y127.548 E7.47569
G1 X126.768 Y127.708 F15000.000
G1 X126.874 Y127.631 F1080.000 E7.48243
G1 X128.068 Y127.100 E7.54976
G1 X129.347 Y126.828 E7.61710
G1 X130.653 Y126.828 E7.68444
G1 X131.932 Y127.100 E7.75178
G1 X132.858 Y127.512 E7.80401
G1 X132.858 Y127.512 E7.80401
G1 X133.126 Y127.631 E7.81912
G1 X134.183 Y128.399 E7.88646
G1 X135.057 Y129.371 E7.95379
G1 X135.711 Y130.502 E8.02113
G1 X136.115 Y131.745 E8.08847
G1 X136.251 Y133.045 E8.15581
G1 X136.115 Y134.345 E8.22315
G1 X135.711 Y135.588 E8.29049
G1 X135.057 Y136.719 E8.35782
G1 X134.183 Y137.691 E8.42516
G1 X133.126 Y138.459 E8.49250
G1 X132.858 Y138.578 E8.50760
G1 X132.858 Y138.578 E8.50761
G1 X131.932 Y138.990 E8.55984
G1 X130.653 Y139.262 E8.62718
G1 X129.347 Y139.262 E8.69451
G1 X128.068 Y138.990 E8.76185
G1 X126.874 Y138.459 E8.82919
G1 X125.817 Y137.691 E8.89653
G1 X124.943 Y136.719 E8.96387
G1 X124.289 Y135.588 E9.03121
G1 X123.885 Y134.345 E9.09854
G1 X123.749 Y133.045 E9.16588
G1 X123.885 Y131.745 E9.23322
G1 X124.289 Y130.502 E9.30056
G1 X124.943 Y129.371 E9.36790
G1 X125.817 Y128.399 E9.43524
G1 X126.449 Y127.940 E9.47551
G1 F6000.000 E6.47551
G92 E0
G1 X114.718 Y117.853 F15000.000
G1 F6000.000 E3.00000
G1 X114.718 Y117.853 F1170.000 E3.00002
G1 X143.782 Y117.853 E4.49757
G1 X143.782 Y117.853 E4.49759
G1 X146.597 Y117.853 E4.64261
G1 X149.720 Y118.517 E4.80716
G1 X152.638 Y119.816 E4.97170
G1 X155.221 Y121.693 E5.13625
G1 X157.358 Y124.066 E5.30079
G1 X158.955 Y126.832 E5.46533
G1 X159.942 Y129.869 E5.62988
G1 X160.275 Y133.045 E5.79442
G1 X159.942 Y136.221 E5.95896
G1 X158.955 Y139.258 E6.12351
G1 X157.358 Y142.024 E6.28805
G1 X155.221 Y144.397 E6.45259
G1 X152.638 Y146.274 E6.61714
G1 X149.720 Y147.573 E6.78168
G1 X146.597 Y148.237 E6.94622
G1 X144.455 Y148.237 E7.05660
G1 X144.454 Y148.237 E7.05663
G1 X114.046 Y148.237 E8.62343
G1 X114.045 Y148.237 E8.62346
G1 X113.403 Y148.237 E8.65655
G1 X110.280 Y147.573 E8.82109
G1 X107.362 Y146.274 E8.98564
G1 X104.779 Y144.397 E9.15018
G1 X102.642 Y142.024 E9.31472
G1 X101.045 Y139.258 E9.47926
G1 X100.058 Y136.221 E9.64381
G1 X99.725 Y133.045 E9.80835
G1 X100.058 Y129.869 E9.97290
G1 X101.045 Y126.832 E10.13744
G1 X102.642 Y124.066 E10.30198
G1 X104.779 Y121.693 E10.46653
G1 X107.362 Y119.816 E10.63107
G1 X110.280 Y118.517 E10.79561
G1 X113.403 Y117.853 E10.96016
G1 X114.323 Y117.853 E11.00757
G1 X114.234 Y117.369 F15000.000
G1 X114.234 Y117.369 F1170.000 E11.00759
G1 X144.266 Y117.369 E12.55501
G1 X144.266 Y117.369 E12.55503
G1 X146.648 Y117.369 E12.67774
G1 X149.871 Y118.054 E12.84752
G1 X152.881 Y119.395 E13.01731
G1 X155.547 Y121.332 E13.18709
G1 X157.752 Y123.780 E13.35688
G1 X159.399 Y126.634 E13.52666
G1 X160.418 Y129.768 E13.69645
G1 X160.762 Y133.045 E13.86623
G1 X160.418 Y136.322 E14.03602
G1 X159.399 Y139.456 E14.20580
G1 X157.752 Y142.310 E14.37559
G1 X155.547 Y144.758 E14.54537
G1 X152.881 Y146.695 E14.71516
G1 X149.871 Y148.036 E14.88494
G1 X146.648 Y148.721 E15.05472
G1 X144.655 Y148.721 E15.15739
G1 X144.655 Y148.721 E15.15742
G1 X113.845 Y148.721 E16.74488
G1 X113.845 Y148.721 E16.74491
G1 X113.352 Y148.721 E16.77029
G1 X110.129 Y148.036 E16.94007
G1 X107.119 Y146.695 E17.10986
G1 X104.453 Y144.759 E17.27964
G1 X102.248 Y142.310 E17.44943
G1 X100.601 Y139.456 E17.61921
G1 X99.582 Y136.322 E17.78900
G1 X99.238 Y133.045 E17.95878
G1 X99.582 Y129.768 E18.12857
G1 X100.601 Y126.634 E18.29835
G1 X102.248 Y123.780 E18.46814
G1 X104.453 Y121.331 E18.63792
G1 X107.119 Y119.395 E18.80770
G1 X110.129 Y118.054 E18.97749
G1 X113.352 Y117.369 E19.14727
G1 X113.840 Y117.369 E19.17237
G1 X113.750 Y116.885 F15000.000
G1 X113.750 Y116.885 F1170.000 E19.17239
G1 X144.750 Y116.885 E20.76968
G1 X144.750 Y116.885 E20.76970
G1 X146.698 Y116.885 E20.87010
G1 X150.021 Y117.592 E21.04512
G1 X153.124 Y118.973 E21.22015
G1 X155.872 Y120.970 E21.39518
G1 X158.145 Y123.494 E21.57020
G1 X159.844 Y126.436 E21.74523
G1 X160.894 Y129.667 E21.92025
G1 X161.249 Y133.045 E22.09528
G1 X160.894 Y136.423 E22.27030
G1 X159.844 Y139.654 E22.44533
G1 X158.145 Y142.596 E22.62036
G1 X155.872 Y145.120 E22.79538
G1 X153.124 Y147.117 E22.97041
G1 X150.021 Y148.498 E23.14543
G1 X146.698 Y149.205 E23.32046
G1 X144.855 Y149.205 E23.41542
G1 X144.855 Y149.205 E23.41545
G1 X113.645 Y149.205 E25.02356
G1 X113.645 Y149.205 E25.02359
G1 X113.302 Y149.205 E25.04127
G1 X109.979 Y148.498 E25.21629
G1 X106.876 Y147.117 E25.39132
G1 X104.128 Y145.120 E25.56634
G1 X101.855 Y142.596 E25.74137
G1 X100.156 Y139.654 E25.91640
G1 X99.106 Y136.423 E26.09142
G1 X98.751 Y133.045 E26.26645
G1 X99.106 Y129.667 E26.44147
G1 X100.156 Y126.436 E26.61650
G1 X101.855 Y123.494 E26.79153
G1 X104.128 Y120.970 E26.96655
G1 X106.876 Y118.973 E27.14158
G1 X109.979 Y117.592 E27.31660
G1 X113.302 Y116.885 E27.49163
G1 X113.356 Y116.885 E27.49442
G1 F6000.000 E24.49442
G92 E0
G1 X139.155 Y101.292 F15000.000
G1 F6000.000 E3.00000
G1 X138.400 Y99.984 F1170.000 E3.07782
G1 X138.400 Y99.983 E3.07786
G1 X138.400 Y99.983 E3.07786
G1 X137.933 Y98.547 E3.15565
G1 X137.802 Y97.299 E3.22032
G1 X137.802 Y97.299 E3.22033
G1 X137.775 Y97.045 E3.23347
G1 X137.802 Y96.791 E3.24662
G1 X137.802 Y96.791 E3.24662
G1 X137.933 Y95.543 E3.31129
G1 X138.400 Y94.106 E3.38912
G1 X139.155 Y92.798 E3.46695
G1 X140.166 Y91.676 E3.54476
G1 X141.388 Y90.788 E3.62259
G1 X142.603 Y90.247 E3.69112
G1 X142.603 Y90.247 E3.69112
G1 X142.768 Y90.174 E3.70041
G1 X144.245 Y89.860 E3.77822
G1 X145.755 Y89.860 E3.85604
G1 X147.232 Y90.174 E3.93385
G1 X148.612 Y90.788 E4.01168
G1 X149.834 Y91.676 E4.08950
G1 X150.845 Y92.798 E4.16732
G1 X151.363 Y93.696 E4.22070
G1 X151.363 Y93.696 E4.22070
G1 X151.600 Y94.106 E4.24514
G1 X152.067 Y95.543 E4.32297
G1 X152.225 Y97.045 E4.40079
G1 X152.067 Y98.547 E4.47860
G1 X151.600 Y99.984 E4.55643
G1 X150.845 Y101.292 E4.63425
G1 X149.834 Y102.414 E4.71207
G1 X148.612 Y103.302 E4.78990
G1 X147.232 Y103.916 E4.86772
G1 X145.755 Y104.230 E4.94553
G1 X144.245 Y104.230 E5.02335
G1 X142.768 Y103.916 E5.10117
G1 X141.388 Y103.302 E5.17899
G1 X140.166 Y102.414 E5.25682
G1 X139.419 Y101.585 E5.31431
G1 X139.549 Y101.006 F15000.000
G1 X138.845 Y99.786 F1170.000 E5.38689
G1 X138.750 Y99.495 E5.40262
G1 X138.750 Y99.495 E5.40262
G1 X138.409 Y98.446 E5.45948
G1 X138.340 Y97.783 E5.49384
G1 X138.340 Y97.783 E5.49384
G1 X138.262 Y97.045 E5.53206
G1 X138.340 Y96.307 E5.57027
G1 X138.340 Y96.307 E5.57028
G1 X138.409 Y95.644 E5.60463
G1 X138.748 Y94.602 E5.66110
G1 X138.748 Y94.602 E5.66110
G1 X138.845 Y94.304 E5.67722
G1 X139.549 Y93.084 E5.74980
G1 X140.491 Y92.038 E5.82238
G1 X141.631 Y91.210 E5.89496
G1 X142.918 Y90.637 E5.96754
G1 X144.296 Y90.344 E6.04012
G1 X145.704 Y90.344 E6.11269
G1 X147.082 Y90.637 E6.18527
G1 X148.369 Y91.210 E6.25785
G1 X149.509 Y92.038 E6.33043
G1 X150.451 Y93.084 E6.40301
G1 X151.155 Y94.304 E6.47559
G1 X151.591 Y95.644 E6.54817
G1 X151.738 Y97.045 E6.62075
G1 X151.591 Y98.446 E6.69333
G1 X151.155 Y99.786 E6.76591
G1 X150.451 Y101.006 E6.83849
G1 X149.509 Y102.052 E6.91107
G1 X148.369 Y102.880 E6.98366
G1 X147.082 Y103.453 E7.05623
G1 X145.704 Y103.746 E7.12881
G1 X144.296 Y103.746 E7.20139
G1 X142.918 Y103.453 E7.27396
G1 X141.631 Y102.880 E7.34654
G1 X140.491 Y102.052 E7.41912
G1 X139.813 Y101.299 E7.47138
G1 X139.943 Y100.720 F15000.000
G1 X139.289 Y99.588 F1080.000 E7.53872
G1 X138.885 Y98.345 E7.60606
G1 X138.877 Y98.267 E7.61011
G1 X138.877 Y98.267 E7.61011
G1 X138.749 Y97.045 E7.67340
G1 X138.877 Y95.823 E7.73669
G1 X138.877 Y95.823 E7.73669
G1 X138.885 Y95.745 E7.74073
G1 X139.289 Y94.502 E7.80808
G1 X139.943 Y93.370 E7.87542
G1 X140.817 Y92.399 E7.94275
G1 X141.874 Y91.631 E8.01010
G1 X143.068 Y91.100 E8.07743
G1 X144.347 Y90.828 E8.14477
G1 X145.653 Y90.828 E8.21211
G1 X146.932 Y91.100 E8.27944
G1 X148.126 Y91.631 E8.34678
G1 X149.183 Y92.399 E8.41412
G1 X150.057 Y93.370 E8.48145
G1 X150.711 Y94.502 E8.54879
G1 X151.115 Y95.745 E8.61614
G1 X151.251 Y97.045 E8.68347
G1 X151.115 Y98.345 E8.75081
G1 X150.711 Y99.588 E8.81815
G1 X150.057 Y100.720 E8.88549
G1 X149.183 Y101.691 E8.95283
G1 X148.126 Y102.459 E9.02017
G1 X146.932 Y102.990 E9.08751
G1 X145.653 Y103.262 E9.15484
G1 X144.347 Y103.262 E9.22218
G1 X143.068 Y102.990 E9.28952
G1 X141.874 Y102.459 E9.35685
G1 X140.817 Y101.691 E9.42419
G1 X140.206 Y101.013 E9.47121
G1 F6000.000 E6.47121
G92 E0
G1 X122.067 Y98.547 F15000.000
G1 F6000.000 E3.00000
G1 X121.600 Y99.984 F1170.000 E3.07783
G1 X121.104 Y100.843 E3.12897
G1 X121.180 Y100.919 E3.13452
G1 X119.834 Y102.414 E3.23815
G1 X118.612 Y103.302 E3.31598
G1 X117.232 Y103.916 E3.39380
G1 X115.755 Y104.230 E3.47161
G1 X114.245 Y104.230 E3.54943
G1 X112.768 Y103.916 E3.62724
G1 X111.388 Y103.302 E3.70506
G1 X110.166 Y102.414 E3.78289
G1 X109.155 Y101.292 E3.86071
G1 X108.400 Y99.984 E3.93853
G1 X107.933 Y98.547 E4.01636
G1 X107.775 Y97.045 E4.09418
G1 X107.933 Y95.543 E4.17199
G1 X108.400 Y94.106 E4.24982
G1 X109.155 Y92.798 E4.32764
G1 X110.166 Y91.676 E4.40546
G1 X111.388 Y90.788 E4.48329
G1 X112.943 Y90.096 E4.57102
G1 X112.943 Y90.137 E4.57312
G1 X113.685 Y89.979 E4.61221
G1 X113.685 Y89.979 E4.61221
G1 X114.245 Y89.860 E4.64168
G1 X115.755 Y89.860 E4.71950
G1 X117.232 Y90.174 E4.79731
G1 X118.612 Y90.788 E4.87514
G1 X119.834 Y91.676 E4.95296
G1 X121.180 Y93.171 E5.05659
G1 X121.180 Y93.171 E5.05659
G1 X121.350 Y93.360 E5.06969
G1 X121.271 Y93.537 E5.07970
G1 X121.600 Y94.106 E5.11358
G1 X122.067 Y95.543 E5.19140
G1 X122.178 Y96.598 E5.24609
G1 X122.178 Y96.598 E5.24609
G1 X122.225 Y97.045 E5.26922
G1 X122.108 Y98.155 E5.32672
G1 X121.591 Y98.446 F15000.000
G1 X121.155 Y99.786 F1170.000 E5.39931
G1 X120.499 Y100.923 E5.46696
G1 X120.513 Y100.937 E5.46798
G1 X119.509 Y102.052 E5.54533
G1 X118.369 Y102.880 E5.61791
G1 X117.082 Y103.453 E5.69049
G1 X116.721 Y103.530 E5.70949
G1 X116.721 Y103.530 E5.70949
G1 X115.704 Y103.746 E5.76307
G1 X114.296 Y103.746 E5.83564
G1 X112.918 Y103.453 E5.90822
G1 X111.631 Y102.880 E5.98080
G1 X110.491 Y102.052 E6.05338
G1 X109.549 Y101.006 E6.12596
G1 X108.845 Y99.786 E6.19854
G1 X108.409 Y98.446 E6.27113
G1 X108.262 Y97.045 E6.34370
G1 X108.409 Y95.644 E6.41628
G1 X108.845 Y94.304 E6.48886
G1 X109.549 Y93.084 E6.56144
G1 X110.491 Y92.038 E6.63402
G1 X111.631 Y91.210 E6.70661
G1 X112.459 Y90.841 E6.75332
G1 X112.459 Y90.841 E6.75332
G1 X112.918 Y90.637 E6.77918
G1 X114.169 Y90.371 E6.84509
G1 X114.169 Y90.371 E6.84509
G1 X114.296 Y90.344 E6.85176
G1 X115.704 Y90.344 E6.92434
G1 X117.082 Y90.637 E6.99691
G1 X118.369 Y91.210 E7.06949
G1 X119.509 Y92.038 E7.14208
G1 X120.465 Y93.100 E7.21570
G1 X120.465 Y93.100 E7.21570
G1 X120.513 Y93.153 E7.21942
G1 X120.499 Y93.167 E7.22045
G1 X121.155 Y94.304 E7.28810
G1 X121.591 Y95.644 E7.36068
G1 X121.738 Y97.045 E7.43326
G1 X121.632 Y98.054 E7.48552
G1 X121.115 Y98.345 F15000.000
G1 X120.711 Y99.588 F1080.000 E7.55286
G1 X120.057 Y100.720 E7.62020
G1 X119.846 Y100.954 E7.63647
