; generated by Slic3r 0.9.3 on 2012-12-13 at 17:22:38

; layer_height = 0.25
; perimeters = 3
; solid_layers = 3
; fill_density = 0.15
; perimeter_speed = 65
; infill_speed = 60
; travel_speed = 250
; scale = 1
; nozzle_diameter = 0.35
; filament_diameter = 1.7
; extrusion_multiplier = 1.0
; single wall width = 0.39mm

M104 S185 ; set temperature
;Standard Profile for Series 1. Single Extruder
M104 S185
M301 P24.72 I0.88 D231.1
G28
G1 X120 Y115 Z15 F10000
G92 E0
G1 Y5 Z15 F5000
M109 S185
G1 F100 E50
G92 E0
G1 X50 Z0.3 F10000
; do a little dance on a toothbrush to remove extrusions..  
G90 ; use absolute coordinates
G21 ; set units to millimeters
G92 E0
M82 ; use absolute distances for extrusion
M106 S255
G1 F6000.000 E-3.00000
G92 E0
G1 Z0.250 F15000.000
G1 X114.323 Y85.169
G1 F6000.000 E3.00000
G1 X127.723 Y80.569 F1170.000 E3.60053
G1 X128.673 Y80.319 E3.64217
G1 X129.263 Y80.219 E3.66753
G1 X129.903 Y80.169 E3.69474
G1 X130.223 Y80.169 E3.70831
G1 X131.103 Y80.239 E3.74573
G1 X131.943 Y80.389 E3.78190
G1 X132.753 Y80.639 E3.81783
G1 X133.023 Y80.739 E3.83003
G1 X133.533 Y80.979 E3.85392
G1 X134.033 Y81.269 E3.87842
G1 X134.633 Y81.699 E3.90971
G1 X135.903 Y82.849 E3.98234
G1 X136.553 Y83.539 E4.02252
G1 X136.983 Y84.089 E4.05211
G1 X137.423 Y84.779 E4.08680
G1 X137.793 Y85.509 E4.12149
G1 X138.023 Y86.039 E4.14598
G1 X138.183 Y86.479 E4.16582
G1 X138.303 Y86.929 E4.18556
G1 X138.313 Y86.959 E4.18690
G1 X150.813 Y135.369 E6.30619
G1 X150.933 Y136.279 E6.34509
G1 X150.953 Y137.699 E6.40529
G1 X150.863 Y138.559 E6.44194
G1 X150.813 Y138.839 E6.45400
G1 X150.663 Y139.399 E6.47857
G1 X150.573 Y139.669 E6.49064
G1 X149.983 Y140.989 E6.55192
G1 X149.723 Y141.489 E6.57581
G1 X149.413 Y141.959 E6.59968
G1 X149.073 Y142.409 E6.62358
G1 X148.483 Y143.019 E6.65955
G1 X147.373 Y143.929 E6.72040
G1 X147.113 Y144.119 E6.73404
G1 X146.553 Y144.449 E6.76160
G1 X146.263 Y144.599 E6.77544
G1 X145.963 Y144.729 E6.78930
G1 X132.153 Y149.569 E7.40958
G1 X131.853 Y149.649 E7.42274
G1 X130.943 Y149.799 E7.46183
G1 X130.323 Y149.829 E7.48814
G1 X129.313 Y149.779 E7.53101
G1 X128.713 Y149.689 E7.55672
G1 X128.423 Y149.629 E7.56928
G1 X127.253 Y149.249 E7.62142
G1 X126.633 Y148.949 E7.65061
G1 X126.323 Y148.769 E7.66581
G1 X125.903 Y148.489 E7.68720
G1 X125.123 Y147.849 E7.72997
G1 X123.963 Y146.719 E7.79861
G1 X123.313 Y145.919 E7.84231
G1 X123.113 Y145.629 E7.85724
G1 X122.653 Y144.859 E7.89526
G1 X122.573 Y144.699 E7.90284
G1 X122.173 Y143.689 E7.94889
G1 X121.993 Y143.139 E7.97342
G1 X109.183 Y94.659 E10.09889
G1 X109.133 Y94.419 E10.10928
G1 X109.063 Y93.929 E10.13026
G1 X109.013 Y93.229 E10.16001
G1 X109.033 Y92.229 E10.20241
G1 X109.113 Y91.599 E10.22933
G1 X109.223 Y91.089 E10.25144
G1 X109.593 Y89.859 E10.30589
G1 X109.703 Y89.579 E10.31864
G1 X109.963 Y89.019 E10.34481
G1 X110.273 Y88.499 E10.37047
G1 X110.443 Y88.249 E10.38328
G1 X111.253 Y87.249 E10.43783
G1 X111.943 Y86.579 E10.47860
G1 X112.453 Y86.199 E10.50556
G1 X113.583 Y85.509 E10.56168
G1 X113.961 Y85.325 E10.57950
G1 F6000.000 E7.57950
G92 E0
G1 X130.739 Y141.880 F15000.000
G1 F6000.000 E3.00000
G1 X130.606 Y141.964 F1170.000 E3.00813
G1 X130.148 Y142.186 E3.03434
G1 X129.575 Y141.900 E3.06732
G1 X129.546 Y141.881 E3.06910
G1 X129.451 Y141.806 E3.07534
G1 X129.385 Y141.743 E3.08005
G1 X129.324 Y141.675 E3.08476
G1 X129.269 Y141.602 E3.08947
G1 X129.220 Y141.525 E3.09418
G1 X129.178 Y141.443 E3.09889
G1 X129.144 Y141.359 E3.10361
G1 X129.117 Y141.271 E3.10832
G1 X129.097 Y141.182 E3.11303
G1 X129.085 Y141.091 E3.11774
G1 X129.082 Y141.000 E3.12245
G1 X129.085 Y140.909 E3.12716
G1 X129.097 Y140.818 E3.13187
G1 X129.117 Y140.729 E3.13658
G1 X129.144 Y140.641 E3.14130
G1 X129.178 Y140.557 E3.14601
G1 X129.228 Y140.461 E3.15156
G1 X129.274 Y140.387 E3.15605
G1 X129.808 Y139.678 E3.20179
G1 X129.116 Y138.273 E3.28249
G1 X128.880 Y138.270 E3.29464
G1 X128.884 Y106.571 E4.92795
G1 X128.419 Y106.272 E4.95643
G1 X128.144 Y105.959 E4.97791
G1 X127.862 Y105.959 E4.99245
G1 X127.278 Y104.529 E5.07205
G1 X127.328 Y104.529 E5.07466
G1 X126.669 Y103.133 E5.15422
G1 X127.049 Y103.126 E5.17383
G1 X127.370 Y103.129 E5.19035
G1 X127.561 Y103.126 E5.20019
G1 X128.878 Y103.129 E5.26804
G1 X128.880 Y91.730 E5.85540
G1 X129.116 Y91.727 E5.86755
G1 X129.808 Y90.322 E5.94825
G1 X129.274 Y89.613 E5.99399
G1 X129.228 Y89.539 E5.99848
G1 X129.178 Y89.443 E6.00403
G1 X129.144 Y89.359 E6.00874
G1 X129.117 Y89.271 E6.01346
G1 X129.087 Y89.137 E6.02053
G1 X129.082 Y89.000 E6.02761
G1 X129.085 Y88.909 E6.03232
G1 X129.097 Y88.818 E6.03703
G1 X129.117 Y88.729 E6.04174
G1 X129.144 Y88.641 E6.04645
G1 X129.178 Y88.557 E6.05116
G1 X129.220 Y88.475 E6.05588
G1 X129.269 Y88.398 E6.06059
G1 X129.351 Y88.288 E6.06766
G1 X129.451 Y88.194 E6.07474
G1 X129.560 Y88.109 E6.08187
G1 X129.962 Y87.906 E6.10507
G1 X130.059 Y87.771 E6.11364
G1 X130.606 Y88.036 E6.14495
G1 X130.739 Y88.120 E6.15307
G1 X130.804 Y88.167 E6.15722
G1 X130.871 Y88.225 E6.16176
G1 X130.935 Y88.290 E6.16647
G1 X130.993 Y88.361 E6.17118
G1 X131.045 Y88.436 E6.17589
G1 X131.090 Y88.516 E6.18060
G1 X131.128 Y88.599 E6.18531
G1 X131.159 Y88.685 E6.19002
G1 X131.182 Y88.773 E6.19474
G1 X131.198 Y88.863 E6.19945
G1 X131.206 Y88.954 E6.20416
G1 X131.206 Y89.046 E6.20887
G1 X131.198 Y89.137 E6.21358
G1 X131.182 Y89.227 E6.21829
G1 X131.159 Y89.315 E6.22301
G1 X131.128 Y89.401 E6.22772
G1 X131.093 Y89.478 E6.23205
G1 X131.022 Y89.602 E6.23943
G1 X130.483 Y90.326 E6.28595
G1 X131.176 Y91.727 E6.36649
G1 X131.408 Y91.730 E6.37847
G1 X131.410 Y120.606 E7.86635
G1 X131.513 Y121.224 E7.89862
G1 X131.482 Y121.224 E7.90020
G1 X132.124 Y123.790 E8.03647
G1 X132.340 Y124.467 E8.07311
G1 X132.298 Y124.467 E8.07524
G1 X132.972 Y126.117 E8.16705
G1 X131.408 Y126.454 E8.24946
G1 X131.408 Y138.270 E8.85832
G1 X131.176 Y138.273 E8.87031
G1 X130.483 Y139.674 E8.95085
G1 X131.021 Y140.396 E8.99724
G1 X131.090 Y140.516 E9.00437
G1 X131.128 Y140.599 E9.00908
G1 X131.174 Y140.728 E9.01615
G1 X131.206 Y140.908 E9.02559
G1 X131.206 Y141.046 E9.03267
G1 X131.198 Y141.137 E9.03738
G1 X131.182 Y141.227 E9.04209
G1 X131.159 Y141.315 E9.04680
G1 X131.128 Y141.401 E9.05152
G1 X131.090 Y141.484 E9.05623
G1 X131.045 Y141.564 E9.06094
G1 X131.017 Y141.604 E9.06344
G1 X131.440 Y141.843 F15000.000
G1 X131.380 Y141.931 F1170.000 E9.06893
G1 X131.295 Y142.034 E9.07579
G1 X131.202 Y142.129 E9.08265
G1 X131.104 Y142.213 E9.08934
G1 X131.010 Y142.281 E9.09531
G1 X130.841 Y142.387 E9.10559
G1 X130.535 Y142.536 E9.12315
G1 X130.396 Y142.912 E9.14379
G1 X130.184 Y142.951 E9.15491
G1 X129.887 Y142.933 E9.17023
G1 X129.763 Y142.535 E9.19170
G1 X129.327 Y142.316 E9.21683
G1 X129.268 Y142.276 E9.22051
G1 X129.136 Y142.173 E9.22914
G1 X129.039 Y142.082 E9.23600
G1 X128.950 Y141.983 E9.24286
G1 X128.870 Y141.877 E9.24972
G1 X128.799 Y141.764 E9.25657
G1 X128.738 Y141.645 E9.26343
G1 X128.688 Y141.522 E9.27029
G1 X128.648 Y141.395 E9.27715
G1 X128.620 Y141.265 E9.28401
G1 X128.603 Y141.133 E9.29087
G1 X128.597 Y141.000 E9.29773
G1 X128.603 Y140.867 E9.30459
G1 X128.620 Y140.735 E9.31144
G1 X128.626 Y140.709 E9.31280
G1 X128.626 Y140.709 E9.31280
G1 X128.648 Y140.605 E9.31830
G1 X128.656 Y140.580 E9.31966
G1 X128.656 Y140.580 E9.31966
G1 X128.688 Y140.478 E9.32516
G1 X128.738 Y140.355 E9.33202
G1 X128.806 Y140.222 E9.33972
G1 X128.875 Y140.112 E9.34636
G1 X129.242 Y139.624 E9.37783
G1 X128.813 Y138.754 E9.42785
G1 X128.396 Y138.750 E9.44934
G1 X128.399 Y106.835 E11.09377
G1 X128.101 Y106.643 E11.11205
G1 X127.925 Y106.443 E11.12574
G1 X127.449 Y106.443 E11.15028
G1 X126.977 Y105.084 E11.22441
G1 X126.981 Y105.084 E11.22465
G1 X126.557 Y104.045 E11.28247
G1 X126.564 Y104.045 E11.28284
G1 X125.832 Y102.537 E11.36925
G1 X126.397 Y102.537 E11.39838
G1 X126.460 Y102.653 E11.40518
G1 X127.047 Y102.642 E11.43543
G1 X127.366 Y102.645 E11.45184
G1 X127.558 Y102.642 E11.46176
G1 X128.394 Y102.644 E11.50481
G1 X128.396 Y91.250 E12.09187
G1 X128.813 Y91.246 E12.11337
G1 X129.242 Y90.376 E12.16339
G1 X128.875 Y89.888 E12.19486
G1 X128.806 Y89.778 E12.20150
G1 X128.738 Y89.645 E12.20920
G1 X128.688 Y89.522 E12.21605
G1 X128.648 Y89.395 E12.22291
G1 X128.636 Y89.338 E12.22591
G1 X128.612 Y89.338 E12.22717
G1 X128.597 Y89.000 E12.24461
G1 X128.603 Y88.867 E12.25147
G1 X128.620 Y88.735 E12.25832
G1 X128.648 Y88.605 E12.26518
G1 X128.688 Y88.478 E12.27204
G1 X128.738 Y88.355 E12.27890
G1 X128.799 Y88.236 E12.28576
G1 X128.870 Y88.123 E12.29262
G1 X128.895 Y88.090 E12.29477
G1 X128.876 Y88.071 E12.29617
G1 X129.136 Y87.827 E12.31454
G1 X129.294 Y87.703 E12.32489
G1 X129.639 Y87.527 E12.34485
G1 X129.829 Y87.260 E12.36174
G1 X129.892 Y87.088 E12.37118
G1 X130.104 Y87.049 E12.38230
G1 X130.401 Y87.067 E12.39763
G1 X130.523 Y87.458 E12.41873
G1 X130.841 Y87.613 E12.43692
G1 X131.010 Y87.719 E12.44720
G1 X131.104 Y87.787 E12.45318
G1 X131.202 Y87.871 E12.45986
G1 X131.295 Y87.966 E12.46672
G1 X131.380 Y88.069 E12.47358
G1 X131.455 Y88.179 E12.48044
G1 X131.521 Y88.295 E12.48730
G1 X131.577 Y88.416 E12.49416
G1 X131.622 Y88.541 E12.50101
G1 X131.628 Y88.566 E12.50237
G1 X131.628 Y88.566 E12.50237
G1 X131.656 Y88.670 E12.50787
G1 X131.660 Y88.696 E12.50923
G1 X131.660 Y88.696 E12.50923
G1 X131.678 Y88.801 E12.51473
G1 X131.690 Y88.933 E12.52159
G1 X131.690 Y89.067 E12.52845
G1 X131.678 Y89.199 E12.53531
G1 X131.639 Y89.426 E12.54715
G1 X131.630 Y89.426 E12.54760
G1 X131.622 Y89.459 E12.54938
G1 X131.577 Y89.584 E12.55623
G1 X131.524 Y89.699 E12.56271
G1 X131.433 Y89.859 E12.57224
G1 X131.048 Y90.378 E12.60551
G1 X131.478 Y91.246 E12.65542
G1 X131.892 Y91.250 E12.67678
G1 X131.894 Y120.565 E14.18724
G1 X132.098 Y121.708 E14.24704
G1 X132.091 Y121.708 E14.24741
G1 X132.588 Y123.649 E14.35066
G1 X132.693 Y123.981 E14.36858
G1 X132.693 Y123.981 E14.36858
G1 X133.023 Y124.951 E14.42140
G1 X133.019 Y124.951 E14.42164
G1 X133.656 Y126.465 E14.50626
G1 X131.892 Y126.844 E14.59924
G1 X131.892 Y138.750 E15.21266
G1 X131.478 Y138.754 E15.23401
G1 X131.048 Y139.622 E15.28393
G1 X131.430 Y140.136 E15.31690
G1 X131.521 Y140.295 E15.32634
G1 X131.532 Y140.319 E15.32770
G1 X131.532 Y140.319 E15.32770
G1 X131.577 Y140.416 E15.33320
G1 X131.644 Y140.604 E15.34350
G1 X131.709 Y140.979 E15.36313
G1 X131.690 Y140.979 E15.36414
G1 X131.690 Y141.067 E15.36864
G1 X131.678 Y141.199 E15.37550
G1 X131.656 Y141.330 E15.38236
G1 X131.622 Y141.459 E15.38922
G1 X131.611 Y141.489 E15.39084
G1 F6000.000 E12.39084
G92 E0
G1 X138.613 Y133.960 F15000.000
G1 F6000.000 E3.00000
G1 X137.781 Y133.181 F1080.000 E3.05876
G1 X137.781 Y133.181 E3.05876
G1 X136.449 Y131.757 E3.15920
G1 X136.793 Y131.438 E3.18337
G1 X138.703 Y133.372 E3.32342
G1 X139.852 Y134.352 E3.40122
G1 X139.852 Y134.352 E3.40122
G1 X140.312 Y134.708 E3.43116
G1 X140.312 Y134.708 E3.43116
G1 X141.036 Y135.235 E3.47732
G1 X140.920 Y135.512 E3.49281
G1 X140.449 Y135.429 E3.51744
G1 X139.484 Y134.696 E3.57986
G1 X139.484 Y134.696 E3.57986
G1 X138.910 Y134.219 E3.61831
G1 F6000.000 E0.61831
G92 E0
G1 X136.934 Y132.298 F15000.000
G1 F6000.000 E3.00000
G1 X135.572 Y130.647 F1080.000 E3.11027
G1 X135.279 Y130.243 E3.13601
G1 X135.276 Y130.243 E3.13613
G1 X134.018 Y128.259 E3.25718
G1 X133.488 Y127.260 E3.31548
G1 X133.028 Y126.241 E3.37306
G1 X133.460 Y126.042 E3.39757
G1 X134.399 Y127.922 E3.50587
G1 X135.012 Y128.955 E3.56772
G1 X135.013 Y128.955 E3.56778
G1 X135.978 Y130.359 E3.65560
G1 X137.149 Y131.797 E3.75113
G1 X137.090 Y131.936 E3.75890
G1 F6000.000 E0.75890
G92 E0
G1 X126.137 Y103.046 F15000.000
G1 F6000.000 E3.00000
G1 X124.692 Y100.626 F1080.000 E3.14524
G1 X123.668 Y99.215 E3.23506
G1 X122.533 Y97.892 E3.32488
G1 X121.297 Y96.663 E3.41470
G1 X119.965 Y95.538 E3.50452
G1 X118.964 Y94.801 E3.56860
G1 X119.080 Y94.524 E3.58408
G1 X119.551 Y94.607 E3.60872
G1 X121.344 Y96.036 E3.72689
G1 X122.972 Y97.633 E3.84437
G1 X124.428 Y99.388 E3.96186
G1 X125.696 Y101.283 E4.07934
G1 X126.549 Y102.816 E4.16973
G1 X126.481 Y102.854 E4.17376
G1 X126.745 Y102.164 F15000.000
G1 X127.046 Y102.158 F1170.000 E4.18923
G1 X127.362 Y102.161 E4.20552
G1 X127.556 Y102.158 E4.21552
G1 X127.910 Y102.159 E4.23378
G1 X127.912 Y90.771 E4.82054
G1 X128.511 Y90.765 E4.85138
G1 X128.677 Y90.429 E4.87072
G1 X128.472 Y90.157 E4.88822
G1 X128.380 Y90.007 E4.89731
G1 X128.298 Y89.847 E4.90655
G1 X128.232 Y89.686 E4.91556
G1 X128.180 Y89.519 E4.92456
G1 X128.143 Y89.348 E4.93357
G1 X128.120 Y89.175 E4.94258
G1 X128.113 Y89.000 E4.95158
G1 X128.115 Y88.953 E4.95402
G1 X128.115 Y88.953 E4.95402
G1 X128.120 Y88.825 E4.96059
G1 X128.143 Y88.652 E4.96960
G1 X128.180 Y88.481 E4.97860
G1 X128.232 Y88.314 E4.98761
G1 X128.298 Y88.153 E4.99661
G1 X128.378 Y87.997 E5.00562
G1 X128.470 Y87.849 E5.01463
G1 X128.576 Y87.709 E5.02363
G1 X128.692 Y87.579 E5.03264
G1 X128.820 Y87.460 E5.04164
G1 X129.103 Y87.237 E5.06021
G1 X129.121 Y87.246 E5.06126
G1 X129.315 Y87.147 E5.07244
G1 X129.397 Y87.032 E5.07975
G1 X129.500 Y86.753 E5.09506
G1 X129.541 Y86.753 E5.09717
G1 X129.541 Y86.752 E5.09720
G1 X129.754 Y86.631 E5.10981
G1 X129.797 Y86.613 E5.11223
G1 X130.076 Y86.563 E5.12682
G1 X130.351 Y86.580 E5.14102
G1 X130.561 Y86.643 E5.15235
G1 X130.610 Y86.662 E5.15504
G1 X130.743 Y86.760 E5.16355
G1 X130.849 Y86.877 E5.17168
G1 X130.923 Y87.114 E5.18450
G1 X131.071 Y87.186 E5.19297
G1 X131.281 Y87.318 E5.20572
G1 X131.402 Y87.405 E5.21344
G1 X131.534 Y87.518 E5.22237
G1 X131.656 Y87.643 E5.23137
G1 X131.767 Y87.778 E5.24038
G1 X131.866 Y87.922 E5.24938
G1 X131.952 Y88.074 E5.25839
G1 X132.025 Y88.233 E5.26740
G1 X132.084 Y88.397 E5.27640
G1 X132.129 Y88.566 E5.28541
G1 X132.159 Y88.738 E5.29441
G1 X132.163 Y88.786 E5.29685
G1 X132.163 Y88.786 E5.29685
G1 X132.174 Y88.913 E5.30342
G1 X132.174 Y89.087 E5.31243
G1 X132.159 Y89.262 E5.32143
G1 X132.129 Y89.434 E5.33044
G1 X132.084 Y89.603 E5.33944
G1 X132.025 Y89.767 E5.34845
G1 X131.953 Y89.924 E5.35735
G1 X131.863 Y90.082 E5.36673
G1 X131.852 Y90.104 E5.36799
G1 X131.614 Y90.430 E5.38877
G1 X131.780 Y90.765 E5.40806
G1 X132.376 Y90.771 E5.43879
G1 X132.378 Y120.524 E6.97184
G1 X132.699 Y122.192 E7.05933
G1 X132.699 Y122.192 E7.05933
G1 X132.936 Y123.110 E7.10819
G1 X132.936 Y123.110 E7.10819
G1 X133.610 Y125.119 E7.21737
G1 X133.739 Y125.435 E7.23496
G1 X133.739 Y125.435 E7.23496
G1 X134.552 Y127.186 E7.33446
G1 X135.283 Y128.471 E7.41059
G1 X135.283 Y128.471 E7.41059
G1 X136.366 Y130.070 E7.51009
G1 X137.440 Y131.393 E7.59791
G1 X137.717 Y131.699 E7.61919
G1 X137.715 Y131.703 E7.61942
G1 X139.030 Y133.016 E7.71515
G1 X140.332 Y134.116 E7.80297
G1 X142.051 Y135.334 E7.91153
G1 X142.039 Y135.481 E7.91914
G1 X141.857 Y135.566 E7.92949
G1 X141.678 Y135.678 E7.94039
G1 X141.541 Y135.789 E7.94945
G1 X141.541 Y135.789 E7.94945
G1 X141.447 Y135.865 E7.95570
G1 X141.375 Y135.911 E7.96011
G1 X141.298 Y135.949 E7.96451
G1 X141.217 Y135.977 E7.96892
G1 X141.134 Y135.996 E7.97333
G1 X141.049 Y136.006 E7.97774
G1 X140.963 Y136.005 E7.98214
G1 X140.871 Y135.995 E7.98692
G1 X140.692 Y135.963 E7.99627
G1 X140.692 Y135.963 E7.99627
G1 X140.663 Y135.958 E7.99779
G1 X140.663 Y135.958 E7.99779
G1 X140.264 Y135.887 E8.01869
G1 X138.776 Y134.742 E8.11544
G1 X137.857 Y133.926 E8.17877
G1 X137.857 Y133.926 E8.17877
G1 X136.283 Y132.296 E8.29551
G1 X134.842 Y130.466 E8.41555
G1 X133.596 Y128.497 E8.53559
G1 X133.052 Y127.470 E8.59547
G1 X132.895 Y127.123 E8.61507
G1 X132.376 Y127.235 E8.64245
G1 X132.376 Y139.229 E9.26041
G1 X131.780 Y139.235 E9.29114
G1 X131.614 Y139.570 E9.31043
G1 X131.852 Y139.896 E9.33122
G1 X131.864 Y139.919 E9.33257
G1 X131.952 Y140.074 E9.34175
G1 X132.025 Y140.233 E9.35075
G1 X132.161 Y140.612 E9.37149
G1 X132.137 Y140.612 E9.37274
G1 X132.159 Y140.738 E9.37938
G1 X132.174 Y140.913 E9.38839
G1 X132.174 Y141.087 E9.39739
G1 X132.159 Y141.262 E9.40640
G1 X132.115 Y141.515 E9.41967
G1 X132.107 Y141.515 E9.42005
G1 X132.084 Y141.603 E9.42471
G1 X132.068 Y141.647 E9.42714
G1 X132.068 Y141.647 E9.42714
G1 X132.025 Y141.767 E9.43372
G1 X131.952 Y141.926 E9.44272
G1 X131.866 Y142.078 E9.45173
G1 X131.767 Y142.222 E9.46073
G1 X131.656 Y142.357 E9.46974
G1 X131.534 Y142.482 E9.47875
