; generated by Slic3r 0.9.3 on 2012-12-13 at 19:02:25

; layer_height = 0.25
; perimeters = 2
; solid_layers = 2
; fill_density = 0.15
; perimeter_speed = 85
; infill_speed = 60
; travel_speed = 250
; scale = 1
; nozzle_diameter = 0.35
; filament_diameter = 1.7
; extrusion_multiplier = 1.0
; single wall width = 0.39mm

M104 S185 ; set temperature
;Standard Profile for Series 1. Single Extruder
M104 S185
M301 P24.72 I0.88 D231.1
G28
G1 X120 Y115 Z15 F10000
G92 E0
G1 Y5 Z15 F5000
M109 S185
G1 F100 E50
G92 E0
G1 X50 Z0.3 F10000
; do a little dance on a toothbrush to remove extrusions..  
G90 ; use absolute coordinates
G21 ; set units to millimeters
G92 E0
M82 ; use absolute distances for extrusion
M106 S255
G1 F6000.000 E-3.00000
G92 E0
G1 Z0.250 F15000.000
G1 X110.217 Y77.770
G1 F6000.000 E3.00000
G1 X128.227 Y71.930 F2040.000 E3.80253
G1 X129.117 Y71.740 E3.84111
G1 X129.687 Y71.680 E3.86540
G1 X129.937 Y71.670 E3.87601
G1 X131.097 Y71.720 E3.92522
G1 X131.957 Y71.870 E3.96222
G1 X132.797 Y72.140 E3.99962
G1 X133.467 Y72.410 E4.03024
G1 X134.027 Y72.700 E4.05697
G1 X134.297 Y72.860 E4.07028
G1 X134.807 Y73.230 E4.09699
G1 X136.217 Y74.460 E4.17630
G1 X136.717 Y74.950 E4.20597
G1 X137.487 Y75.850 E4.25618
G1 X137.987 Y76.640 E4.29581
G1 X138.467 Y77.590 E4.34092
G1 X138.637 Y78.010 E4.36013
G1 X138.897 Y78.790 E4.39498
G1 X155.487 Y142.090 E7.16873
G1 X155.597 Y142.830 E7.20044
G1 X155.637 Y143.850 E7.24371
G1 X155.577 Y144.960 E7.29083
G1 X155.507 Y145.430 E7.31097
G1 X155.217 Y146.610 E7.36248
G1 X154.987 Y147.230 E7.39051
G1 X154.847 Y147.530 E7.40454
G1 X154.407 Y148.320 E7.44287
G1 X153.977 Y148.990 E7.47661
G1 X153.567 Y149.540 E7.50569
G1 X153.067 Y150.100 E7.53751
G1 X152.467 Y150.660 E7.57230
G1 X151.607 Y151.320 E7.61825
G1 X150.957 Y151.730 E7.65083
G1 X149.787 Y152.260 E7.70527
G1 X132.137 Y158.060 E8.49277
G1 X131.247 Y158.250 E8.53135
G1 X130.677 Y158.310 E8.55564
G1 X130.427 Y158.320 E8.56625
G1 X129.267 Y158.270 E8.61546
G1 X128.407 Y158.120 E8.65247
G1 X127.567 Y157.850 E8.68987
G1 X126.627 Y157.450 E8.73317
G1 X126.347 Y157.300 E8.74663
G1 X126.087 Y157.140 E8.75957
G1 X125.577 Y156.780 E8.78603
G1 X124.247 Y155.630 E8.86056
G1 X123.477 Y154.850 E8.90702
G1 X122.907 Y154.150 E8.94528
G1 X122.387 Y153.380 E8.98467
G1 X122.157 Y152.960 E9.00496
G1 X121.867 Y152.320 E9.03475
G1 X121.517 Y151.350 E9.07846
G1 X104.577 Y88.370 E11.84291
G1 X104.457 Y87.750 E11.86968
G1 X104.367 Y86.910 E11.90548
G1 X104.337 Y86.210 E11.93518
G1 X104.357 Y85.370 E11.97080
G1 X104.477 Y84.480 E12.00886
G1 X104.627 Y83.910 E12.03385
G1 X104.917 Y83.090 E12.07072
G1 X105.327 Y82.170 E12.11341
G1 X105.907 Y81.160 E12.16278
G1 X106.307 Y80.600 E12.19195
G1 X107.087 Y79.770 E12.24023
G1 X107.697 Y79.230 E12.27476
G1 X108.187 Y78.860 E12.30079
G1 X108.807 Y78.450 E12.33229
G1 X109.437 Y78.110 E12.36264
G1 X109.856 Y77.927 E12.38199
G1 F6000.000 E9.38199
G92 E0
G1 X115.042 Y88.511 F15000.000
G1 F6000.000 E3.00000
G1 X115.359 Y88.254 F2040.000 E3.02103
G1 X115.413 Y88.219 E3.02435
G1 X115.471 Y88.191 E3.02767
G1 X115.532 Y88.169 E3.03099
G1 X115.595 Y88.155 E3.03431
G1 X115.691 Y88.144 E3.03931
G1 X115.808 Y88.158 E3.04538
G1 X116.016 Y88.195 E3.05628
G1 X116.016 Y88.195 E3.05628
G1 X116.054 Y88.201 E3.05826
G1 X116.054 Y88.201 E3.05826
G1 X116.303 Y88.245 E3.07126
G1 X116.522 Y88.386 E3.08471
G1 X117.089 Y88.804 E3.12100
G1 X117.090 Y88.804 E3.12104
G1 X117.675 Y89.258 E3.15919
G1 X117.676 Y89.257 E3.15924
G1 X119.934 Y91.254 E3.31458
G1 X121.951 Y93.447 E3.46807
G1 X123.392 Y95.338 E3.59059
G1 X123.392 Y95.338 E3.59059
G1 X124.904 Y97.737 E3.73670
G1 X125.248 Y98.368 E3.77373
G1 X125.501 Y98.898 E3.80399
G1 X126.287 Y98.884 E3.84449
G1 X127.792 Y98.906 E3.92203
G1 X127.770 Y83.980 E4.69114
G1 X128.496 Y83.987 E4.72851
G1 X128.923 Y83.043 E4.78189
G1 X128.525 Y82.600 E4.81257
G1 X128.402 Y82.437 E4.82310
G1 X128.380 Y82.401 E4.82529
G1 X128.366 Y82.401 E4.82600
G1 X128.215 Y82.106 E4.84308
G1 X128.144 Y81.933 E4.85270
G1 X128.089 Y81.754 E4.86232
G1 X128.049 Y81.572 E4.87195
G1 X128.025 Y81.387 E4.88157
G1 X128.017 Y81.200 E4.89119
G1 X128.025 Y81.013 E4.90083
G1 X128.049 Y80.828 E4.91045
G1 X128.089 Y80.646 E4.92006
G1 X128.144 Y80.467 E4.92969
G1 X128.215 Y80.294 E4.93932
G1 X128.300 Y80.128 E4.94894
G1 X128.399 Y79.970 E4.95856
G1 X128.511 Y79.821 E4.96818
G1 X128.636 Y79.682 E4.97781
G1 X128.772 Y79.554 E4.98743
G1 X128.933 Y79.428 E4.99796
G1 X129.061 Y79.344 E5.00583
G1 X129.661 Y79.039 E5.04051
G1 X129.799 Y78.664 E5.06113
G1 X129.913 Y78.599 E5.06789
G1 X130.123 Y78.548 E5.07901
G1 X130.343 Y78.561 E5.09038
G1 X130.560 Y78.649 E5.10247
G1 X130.776 Y79.131 E5.12968
G1 X131.131 Y79.243 E5.14884
G1 X131.196 Y79.274 E5.15254
G1 X131.386 Y79.391 E5.16402
G1 X131.532 Y79.496 E5.17331
G1 X131.672 Y79.616 E5.18283
G1 X131.803 Y79.750 E5.19245
G1 X131.921 Y79.894 E5.20208
G1 X132.027 Y80.048 E5.21170
G1 X132.119 Y80.210 E5.22132
G1 X132.197 Y80.380 E5.23095
G1 X132.260 Y80.556 E5.24057
G1 X132.308 Y80.737 E5.25019
G1 X132.340 Y80.921 E5.25982
G1 X132.356 Y81.107 E5.26944
G1 X132.356 Y81.293 E5.27906
G1 X132.340 Y81.479 E5.28869
G1 X132.308 Y81.663 E5.29831
G1 X132.260 Y81.844 E5.30793
G1 X132.197 Y82.020 E5.31756
G1 X132.121 Y82.186 E5.32695
G1 X132.014 Y82.375 E5.33818
G1 X131.890 Y82.551 E5.34924
G1 X131.457 Y83.077 E5.38434
G1 X131.893 Y83.987 E5.43634
G1 X132.605 Y83.980 E5.47302
G1 X132.606 Y122.221 E7.44345
G1 X133.109 Y124.752 E7.57636
G1 X133.733 Y126.918 E7.69252
G1 X133.964 Y127.582 E7.72876
G1 X133.962 Y127.582 E7.72883
G1 X134.832 Y129.715 E7.84749
G1 X135.241 Y130.581 E7.89685
G1 X135.247 Y130.581 E7.89717
G1 X135.801 Y131.638 E7.95868
G1 X135.801 Y131.638 E7.95868
G1 X137.023 Y133.651 E8.07999
G1 X138.348 Y135.474 E8.19614
G1 X139.815 Y137.186 E8.31230
G1 X141.415 Y138.775 E8.42845
G1 X143.136 Y140.230 E8.54461
G1 X144.942 Y141.549 E8.65980
G1 X144.641 Y141.792 E8.67974
G1 X144.587 Y141.827 E8.68306
G1 X144.529 Y141.855 E8.68638
G1 X144.468 Y141.877 E8.68971
G1 X144.405 Y141.891 E8.69303
G1 X144.341 Y141.898 E8.69635
G1 X144.277 Y141.898 E8.69967
G1 X144.192 Y141.888 E8.70408
G1 X143.946 Y141.845 E8.71696
G1 X143.946 Y141.845 E8.71696
G1 X143.926 Y141.841 E8.71798
G1 X143.926 Y141.841 E8.71798
G1 X143.697 Y141.801 E8.72995
G1 X143.478 Y141.660 E8.74340
G1 X143.040 Y141.338 E8.77138
G1 X143.040 Y141.338 E8.77138
G1 X142.671 Y141.057 E8.79526
G1 X142.671 Y141.057 E8.79526
G1 X141.190 Y139.837 E8.89416
G1 X141.189 Y139.838 E8.89422
G1 X139.029 Y137.722 E9.05001
G1 X138.212 Y136.791 E9.11383
G1 X138.212 Y136.791 E9.11383
G1 X136.689 Y134.826 E9.24191
G1 X135.719 Y133.357 E9.33261
G1 X135.719 Y133.357 E9.33261
G1 X134.967 Y132.071 E9.40938
G1 X134.967 Y132.071 E9.40938
G1 X133.888 Y129.889 E9.53481
G1 X132.605 Y130.165 E9.60246
G1 X132.605 Y146.020 E10.41940
G1 X131.893 Y146.013 E10.45608
G1 X131.457 Y146.923 E10.50808
G1 X131.926 Y147.497 E10.54627
G1 X132.013 Y147.624 E10.55418
G1 X132.119 Y147.810 E10.56525
G1 X132.197 Y147.980 E10.57486
G1 X132.260 Y148.156 E10.58449
G1 X132.308 Y148.337 E10.59411
G1 X132.340 Y148.521 E10.60374
G1 X132.356 Y148.707 E10.61336
G1 X132.356 Y148.893 E10.62298
G1 X132.340 Y149.079 E10.63261
G1 X132.308 Y149.263 E10.64223
G1 X132.260 Y149.444 E10.65186
G1 X132.197 Y149.620 E10.66148
G1 X132.119 Y149.790 E10.67110
G1 X132.027 Y149.952 E10.68073
G1 X131.921 Y150.106 E10.69036
G1 X131.803 Y150.250 E10.69997
G1 X131.672 Y150.384 E10.70960
G1 X131.532 Y150.504 E10.71911
G1 X131.386 Y150.609 E10.72840
G1 X131.196 Y150.726 E10.73989
G1 X131.131 Y150.757 E10.74359
G1 X130.821 Y150.855 E10.76035
G1 X130.625 Y151.203 E10.78095
G1 X130.576 Y151.336 E10.78825
G1 X130.462 Y151.401 E10.79500
G1 X130.252 Y151.452 E10.80613
G1 X130.032 Y151.439 E10.81750
G1 X129.814 Y151.351 E10.82959
G1 X129.714 Y151.127 E10.84222
G1 X129.530 Y150.895 E10.85749
G1 X129.061 Y150.656 E10.88460
G1 X128.933 Y150.572 E10.89247
G1 X128.824 Y150.487 E10.89960
G1 X128.824 Y150.487 E10.89960
G1 X128.772 Y150.446 E10.90300
G1 X128.636 Y150.318 E10.91263
G1 X128.511 Y150.179 E10.92225
G1 X128.399 Y150.030 E10.93187
G1 X128.300 Y149.872 E10.94150
G1 X128.215 Y149.706 E10.95112
G1 X128.144 Y149.533 E10.96074
G1 X128.089 Y149.354 E10.97037
G1 X128.049 Y149.172 E10.97999
G1 X128.025 Y148.987 E10.98961
G1 X128.017 Y148.800 E10.99924
G1 X128.025 Y148.613 E11.00887
G1 X128.049 Y148.428 E11.01848
G1 X128.089 Y148.246 E11.02811
G1 X128.144 Y148.067 E11.03773
G1 X128.215 Y147.894 E11.04735
G1 X128.304 Y147.719 E11.05748
G1 X128.402 Y147.563 E11.06697
G1 X128.525 Y147.400 E11.07750
G1 X128.923 Y146.957 E11.10819
G1 X128.496 Y146.013 E11.16156
G1 X127.770 Y146.020 E11.19894
G1 X127.768 Y104.237 E13.35185
G1 X127.376 Y103.985 E13.37586
G1 X127.203 Y103.788 E13.38934
G1 X126.476 Y103.788 E13.42680
G1 X125.940 Y102.188 E13.51375
G1 X125.933 Y102.188 E13.51411
G1 X125.509 Y101.112 E13.57370
G1 X125.509 Y101.112 E13.57370
G1 X124.508 Y98.981 E13.69502
G1 X123.385 Y97.026 E13.81117
G1 X122.538 Y95.757 E13.88980
G1 X122.538 Y95.757 E13.88984
G1 X121.178 Y93.988 E14.00479
G1 X119.666 Y92.316 E14.12094
G1 X118.079 Y90.795 E14.23420
G1 X118.061 Y90.803 E14.23525
G1 X117.515 Y90.316 E14.27295
G1 X117.498 Y90.323 E14.27391
G1 X115.653 Y88.923 E14.39325
G1 X115.369 Y88.732 E14.41090
G1 X115.251 Y89.237 F15000.000
G1 X114.648 Y88.829 F2040.000 E14.44842
G1 X114.333 Y88.941 E14.46565
G1 X114.169 Y88.984 E14.47441
G1 X114.169 Y88.984 E14.47441
G1 X114.031 Y89.018 E14.48171
G1 X113.649 Y89.076 E14.50162
G1 X113.649 Y89.063 E14.50229
G1 X113.435 Y89.077 E14.51335
G1 X113.435 Y89.066 E14.51390
G1 X113.322 Y89.063 E14.51971
G1 X113.227 Y89.053 E14.52464
G1 X113.227 Y89.053 E14.52464
G1 X113.086 Y89.038 E14.53194
G1 X112.875 Y88.996 E14.54303
G1 X112.875 Y89.022 E14.54437
G1 X112.403 Y88.842 E14.57040
G1 X112.190 Y88.738 E14.58263
G1 X111.986 Y88.616 E14.59487
G1 X111.793 Y88.478 E14.60710
G1 X111.633 Y88.340 E14.61794
G1 X111.633 Y88.340 E14.61794
G1 X111.613 Y88.323 E14.61933
G1 X111.447 Y88.153 E14.63157
G1 X111.296 Y87.970 E14.64380
G1 X111.242 Y87.891 E14.64873
G1 X111.242 Y87.891 E14.64873
G1 X111.161 Y87.774 E14.65604
G1 X110.902 Y87.318 E14.68309
G1 X110.933 Y87.318 E14.68467
G1 X110.899 Y87.222 E14.68990
G1 X110.890 Y87.222 E14.69036
G1 X110.804 Y86.899 E14.70758
G1 X110.788 Y86.805 E14.71251
G1 X110.788 Y86.805 E14.71251
G1 X110.764 Y86.665 E14.71981
G1 X110.755 Y86.570 E14.72475
G1 X110.755 Y86.570 E14.72475
G1 X110.743 Y86.428 E14.73205
G1 X110.743 Y85.784 E14.76524
G1 X111.151 Y85.745 E14.78637
G1 X111.320 Y86.604 E14.83148
G1 X111.320 Y86.604 E14.83148
G1 X111.370 Y86.862 E14.84504
G1 X111.452 Y87.115 E14.85875
G1 X111.565 Y87.356 E14.87245
G1 X111.705 Y87.582 E14.88615
G1 X111.872 Y87.789 E14.89986
G1 X112.062 Y87.975 E14.91356
G1 X112.273 Y88.136 E14.92726
G1 X112.304 Y88.155 E14.92911
G1 X112.304 Y88.155 E14.92911
G1 X112.503 Y88.271 E14.94097
G1 X112.747 Y88.377 E14.95467
G1 X113.002 Y88.453 E14.96838
G1 X113.264 Y88.497 E14.98208
G1 X113.530 Y88.510 E14.99578
G1 X113.795 Y88.490 E15.00949
G1 X114.056 Y88.439 E15.02319
G1 X114.309 Y88.356 E15.03689
G1 X114.550 Y88.244 E15.05060
G1 X114.775 Y88.103 E15.06430
G1 X115.075 Y87.861 E15.08418
G1 X115.176 Y87.796 E15.09035
G1 X115.284 Y87.744 E15.09652
G1 X115.397 Y87.704 E15.10270
G1 X115.514 Y87.677 E15.10887
G1 X115.587 Y87.669 E15.11267
G1 X115.587 Y87.645 E15.11392
G1 X115.879 Y87.679 E15.12904
G1 X116.482 Y87.785 E15.16062
G1 X116.799 Y87.989 E15.18006
G1 X118.801 Y89.562 E15.31121
G1 X118.801 Y89.562 E15.31121
G1 X120.807 Y91.446 E15.45301
G1 X121.223 Y91.886 E15.48422
G1 X121.223 Y91.886 E15.48422
G1 X122.800 Y93.727 E15.60909
G1 X124.548 Y96.200 E15.76515
G1 X124.693 Y96.435 E15.77940
G1 X124.693 Y96.435 E15.77940
G1 X125.679 Y98.148 E15.88123
G1 X125.804 Y98.409 E15.89612
G1 X126.286 Y98.400 E15.92099
G1 X127.296 Y98.413 E15.97301
G1 X127.287 Y83.765 E16.72778
G1 X127.299 Y83.708 E16.73077
G1 X127.299 Y83.708 E16.73077
G1 X127.336 Y83.538 E16.73973
G1 X127.436 Y83.538 E16.74489
G1 X127.462 Y83.518 E16.74657
G1 X127.569 Y83.497 E16.75222
G1 X127.600 Y83.494 E16.75380
G1 X128.185 Y83.500 E16.78395
G1 X128.352 Y83.132 E16.80478
G1 X128.149 Y82.906 E16.82043
G1 X128.003 Y82.711 E16.83294
G1 X127.881 Y82.515 E16.84485
G1 X127.775 Y82.308 E16.85685
G1 X127.688 Y82.096 E16.86863
G1 X127.621 Y81.878 E16.88040
G1 X127.572 Y81.655 E16.89217
G1 X127.542 Y81.428 E16.90394
G1 X127.532 Y81.200 E16.91571
G1 X127.534 Y81.176 E16.91695
G1 X127.534 Y81.176 E16.91695
G1 X127.542 Y80.972 E16.92748
G1 X127.545 Y80.948 E16.92872
G1 X127.545 Y80.948 E16.92872
G1 X127.572 Y80.745 E16.93925
G1 X127.621 Y80.522 E16.95102
G1 X127.688 Y80.304 E16.96279
G1 X127.700 Y80.274 E16.96443
G1 X127.681 Y80.274 E16.96541
G1 X127.879 Y79.889 E16.98772
G1 X128.000 Y79.695 E16.99949
G1 X128.137 Y79.513 E17.01126
G1 X128.290 Y79.343 E17.02303
G1 X128.457 Y79.187 E17.03481
G1 X128.655 Y79.031 E17.04778
G1 X128.813 Y78.928 E17.05750
G1 X129.273 Y78.692 E17.08418
G1 X129.383 Y78.392 E17.10063
G1 X129.548 Y78.250 E17.11181
G1 X129.733 Y78.145 E17.12277
G1 X130.026 Y78.073 E17.13832
G1 X130.093 Y78.061 E17.14185
G1 X130.457 Y78.085 E17.16063
G1 X130.830 Y78.237 E17.18138
G1 X130.981 Y78.403 E17.19297
G1 X131.129 Y78.735 E17.21168
G1 X131.310 Y78.792 E17.22147
G1 X131.426 Y78.848 E17.22808
G1 X131.656 Y78.989 E17.24203
G1 X131.832 Y79.115 E17.25315
G1 X132.003 Y79.263 E17.26481
G1 X132.163 Y79.426 E17.27658
G1 X132.308 Y79.603 E17.28835
G1 X132.438 Y79.791 E17.30012
G1 X132.550 Y79.990 E17.31189
G1 X132.646 Y80.197 E17.32367
G1 X132.654 Y80.220 E17.32490
G1 X132.654 Y80.220 E17.32490
G1 X132.723 Y80.412 E17.33544
G1 X132.781 Y80.633 E17.34721
G1 X132.785 Y80.657 E17.34844
G1 X132.785 Y80.657 E17.34844
G1 X132.820 Y80.858 E17.35898
G1 X132.840 Y81.086 E17.37075
G1 X132.840 Y81.314 E17.38252
G1 X132.820 Y81.542 E17.39429
G1 X132.781 Y81.767 E17.40606
G1 X132.723 Y81.988 E17.41783
G1 X132.646 Y82.203 E17.42960
G1 X132.551 Y82.409 E17.44127
G1 X132.424 Y82.632 E17.45452
G1 X132.271 Y82.849 E17.46822
G1 X132.027 Y83.146 E17.48801
G1 X132.196 Y83.500 E17.50823
G1 X132.765 Y83.494 E17.53756
G1 X132.780 Y83.494 E17.53833
G1 X132.830 Y83.499 E17.54090
G1 X132.856 Y83.503 E17.54224
G1 X132.881 Y83.510 E17.54359
G1 X132.905 Y83.520 E17.54494
G1 X132.929 Y83.531 E17.54629
G1 X132.952 Y83.544 E17.54764
G1 X132.973 Y83.559 E17.54899
G1 X132.993 Y83.576 E17.55034
G1 X133.012 Y83.594 E17.55169
G1 X133.029 Y83.614 E17.55304
G1 X133.044 Y83.636 E17.55439
G1 X133.057 Y83.658 E17.55573
G1 X133.068 Y83.682 E17.55708
G1 X133.088 Y83.737 E17.56013
G1 X133.090 Y122.181 E19.54095
G1 X133.579 Y124.636 E19.66993
G1 X134.192 Y126.765 E19.78409
G1 X134.662 Y128.066 E19.85536
G1 X134.662 Y128.066 E19.85536
G1 X135.548 Y130.097 E19.96951
G1 X135.548 Y130.097 E19.96951
G1 X136.639 Y132.132 E20.08850
G1 X137.844 Y133.991 E20.20265
G1 X139.194 Y135.748 E20.31680
G1 X140.680 Y137.391 E20.43096
G1 X142.293 Y138.910 E20.54511
G1 X144.022 Y140.295 E20.65927
G1 X144.546 Y140.670 E20.69249
G1 X144.546 Y140.670 E20.69249
G1 X145.352 Y141.217 E20.74266
G1 X145.667 Y141.105 E20.75989
G1 X145.969 Y141.029 E20.77594
G1 X146.204 Y140.993 E20.78818
G1 X146.281 Y140.988 E20.79217
G1 X146.281 Y140.974 E20.79288
G1 X146.678 Y140.983 E20.81334
G1 X146.914 Y141.008 E20.82557
G1 X147.147 Y141.054 E20.83781
G1 X147.375 Y141.120 E20.85004
G1 X147.597 Y141.204 E20.86228
G1 X147.810 Y141.308 E20.87451
G1 X147.912 Y141.369 E20.88061
G1 X147.920 Y141.362 E20.88115
G1 X148.014 Y141.430 E20.88717
G1 X148.015 Y141.430 E20.88718
G1 X148.015 Y141.430 E20.88718
G1 X148.207 Y141.569 E20.89940
G1 X148.387 Y141.723 E20.91164
G1 X148.553 Y141.893 E20.92387
G1 X148.896 Y142.309 E20.95164
G1 X148.622 Y142.593 E20.97195
G1 X147.937 Y142.070 E21.01636
G1 X147.937 Y142.070 E21.01636
G1 X147.727 Y141.910 E21.02999
G1 X147.497 Y141.775 E21.04369
G1 X147.464 Y141.761 E21.04553
G1 X147.464 Y141.761 E21.04553
G1 X147.253 Y141.669 E21.05739
G1 X146.998 Y141.593 E21.07110
G1 X146.736 Y141.549 E21.08480
G1 X146.470 Y141.536 E21.09850
G1 X146.205 Y141.556 E21.11221
G1 X145.944 Y141.607 E21.12591
