; KISSlicer - FREE
; Linux
; version 1.0.9.7
; Built: Jun 12 2012, 22:45:36
;
; Saved: Sat Nov 17 23:23:33 2012
; 'footbroken.gco'
;
; *** Printer Settings ***
;
; printer_name = Series
; extension = gco
; cost_per_hour = 0
; g_code_prefix = 4D333031205032342E37322049302E383820443233312E310A473238200A473020583132302059313135205A3135204631303030300A4739322045300A4731205935205A31352046353030300A4D31303920533138350A47312046313030204535300A4739322045300A473120583530205A302E3320463130303030
; g_code_postfix = 47312059323330204631303030300A4739322045300A473120452D31300A4D3130370A4D3130342053300A4731205A323330204631303030300A4D3834204520582059
; g_code_ext_change = NULL
; post_process = NULL
; num_extruders = 1
; firmware_type = 2
; M104_M109 = 0
; add_comments = 1
; z_speed_mm_per_s = 3.5
; z_settle_mm = 0
; bed_size_x_mm = 260
; bed_size_y_mm = 230
; bed_size_z_mm = 230
; bed_offset_x_mm = 130
; bed_offset_y_mm = 115
; bed_offset_z_mm = 0
; bed_roughness_mm = 0
; travel_speed_mm_per_s = 250
; first_layer_speed_mm_per_s = 25
; lo_speed_perim_mm_per_s = 45
; lo_speed_solid_mm_per_s = 45
; lo_speed_sparse_mm_per_s = 90
; hi_speed_perim_mm_per_s = 180
; hi_speed_solid_mm_per_s = 90
; hi_speed_sparse_mm_per_s = 180
; ext_mm_per_rev_1 = 1.25
; ext_material_1 = 2
; ext_axis_1 = 0
; ext_mm_per_rev_2 = 1.25
; ext_material_2 = 0
; ext_axis_2 = 0
; ext_mm_per_rev_3 = 1.25
; ext_material_3 = 0
; ext_axis_3 = 0
; model_ext = 0
; support_ext = 0
; support_body_ext = 0
; raft_ext = 0
; solid_loop_overlap_fraction = 0.25
;
; *** Material Settings for Extruder 1 ***
;
; material_name = PLA
; fan_off_ISOs_all = 2
; temperature_C = 160
; keep_warm_C = 159
; first_layer_C = 185
; bed_C = 81
; sec_per_C_per_C = 0
; RPM_min = 3
; RPM_max = 180
; destring_suck = 1
; destring_prime = 1
; destring_min_mm = 0
; destring_speed_mm_per_s = 15
; min_layer_time_s = 12
; wipe_mm = 5
; cost_per_cm3 = 0
; flowrate_tweak = 1
; fiber_dia_mm = 1.75
; color = 0
;
; *** Style Settings ***
;
; style_name = Lilia
; layer_thickness_mm = 0.25
; extrusion_width_mm = 0.5
; num_loops = 2
; skin_thickness_mm = 1
; infill_extrusion_width = 0.5
; infill_density_denominator = 4
; stacked_layers = 1
; use_destring = 0
; loops_insideout = 1
; round_infill = 0
;
; *** Actual Slicing Settings As Used ***
;
; layer_thickness_mm = 0.25
; extrusion_width = 0.5
; num_ISOs = 2
; wall_thickness = 1
; infill_style = 5
; support_style = 0
; support_angle = 90
; destring_min_mm = 0
; stacked_infill_layers = 1
; ISO_wipe_mm = 5
; raft_style = 0
; extra_raft_depth = 0
; oversample_res_mm = 0.125
; crowning_threshold_mm = 1
; loops_insideout = 1
; sheathed_support = 0
; solid_loop_overlap_fraction = 0.25
; inflate_raft_mm = 0
; inflate_support_mm = 2
; model_support_gap_mm = 0.5
; round_infill = 0
; Speed vs Quality = 0.50
;
; *** Header ***
;
; fan off
M107
; [mm] mode
G21
; absolute mode
G90
; *** User-Supplied G-code Prefix ***
;
M301 P24.72 I0.88 D231.1
G28 
G0 X120 Y115 Z15 F10000
G92 E0
G1 Y5 Z15 F5000
M109 S185
G1 F100 E50
G92 E0
G1 X50 Z0.3 F10000
;
; *** Main G-code ***
;
; Reset extruder pos
G92 E0
; BEGIN_LAYER_OBJECT z=0.25
;
; *** Warming Extruder 1 to 185 C ***
M104 S185
G92 E0
;
;
; 'Loop', 62.4 [RPM], 25.0 [mm/s]
G1 F15000
G1 X138.95 Y107.15 Z0.25 E0
G1 F1500
G1 X139.27 Y107.12 E0.0168
G1 X139.35 Y107.03 E0.0233
G1 X139.7 Y107.02 E0.0414
G1 X139.79 Y106.93 E0.0479
G1 X140.14 Y106.93 E0.066
;
; 'Wipe', 0.0 [RPM], 25.0 [mm/s]
G1 F15000
G1 X140.14 Y106.93 E0.066
G1 F1500
G1 X139.79 Y106.93 E0.066
G1 X139.7 Y107.02 E0.066
G1 X139.35 Y107.03 E0.066
G1 X139.27 Y107.12 E0.066
G1 X138.95 Y107.15 E0.066
;
; 'Loop', 62.4 [RPM], 25.0 [mm/s]
G1 F15000
G1 X138.95 Y107.28 E0.066
G1 F1500
G1 X138.93 Y107.48 E0.0766
G1 X138.81 Y107.72 E0.0904
G1 X138.73 Y107.82 E0.0969
G1 X138.53 Y107.98 E0.11
G1 X138.53 Y114.16 E0.4314
G1 X138.47 Y114.45 E0.4468
G1 X138.35 Y114.68 E0.4605
G1 X138.17 Y114.86 E0.4735
G1 X138.22 Y114.92 E0.4772
G1 X139.48 Y114.94 E0.543
;
; 'Wipe', 0.0 [RPM], 25.0 [mm/s]
G1 F15000
G1 X139.48 Y114.94 E0.543
G1 F1500
G1 X138.22 Y114.92 E0.543
G1 X138.17 Y114.86 E0.543
G1 X138.35 Y114.68 E0.543
G1 X138.47 Y114.45 E0.543
G1 X138.53 Y114.16 E0.543
G1 X138.53 Y111.24 E0.543
;
; 'Loop', 62.4 [RPM], 25.0 [mm/s]
G1 F15000
G1 X135.45 Y112.85 E0.543
G1 F1500
G1 X136.58 Y111.77 E0.6242
G1 X136.59 Y114.25 E0.7527
G1 X136.66 Y114.52 E0.7676
G1 X136.81 Y114.73 E0.7808
G1 X137.01 Y114.88 E0.7939
G1 X136.9 Y115.01 E0.8028
G1 X135.63 Y115.03 E0.8689
;
; 'Wipe', 0.0 [RPM], 25.0 [mm/s]
G1 F15000
G1 X135.63 Y115.03 E0.8689
G1 F1500
G1 X136.9 Y115.01 E0.8689
G1 X137.01 Y114.88 E0.8689
G1 X136.81 Y114.73 E0.8689
G1 X136.66 Y114.52 E0.8689
G1 X136.59 Y114.25 E0.8689
G1 X136.58 Y111.77 E0.8689
G1 X136.35 Y111.99 E0.8689
;
; 'Loop', 62.4 [RPM], 25.0 [mm/s]
G1 F15000
G1 X125.31 Y123.58 E0.8689
G1 F1500
G1 X125.29 Y124.61 E0.9224
G1 X125.2 Y124.69 E0.9289
;
; 'Wipe', 0.0 [RPM], 25.0 [mm/s]
G1 F15000
G1 X125.2 Y124.69 E0.9289
G1 F1500
G1 X125.29 Y124.61 E0.9289
G1 X125.31 Y123.58 E0.9289
;
; 'Loop', 62.4 [RPM], 25.0 [mm/s]
G1 F15000
G1 X125.31 Y123.57 E0.9289
G1 F1500
G1 X125.4 Y123.49 E0.9353
G1 X125.83 Y123.41 E0.9581
G1 X136.46 Y123.41 E1.5105
G1 X137.52 Y123.41 E1.5657
G1 X137.66 Y123.42 E1.573
G1 X137.94 Y123.5 E1.588
G1 X138.3 Y123.49 E1.6065
G1 X138.32 Y123.82 E1.6236
G1 X138.41 Y123.91 E1.6301
G1 X138.42 Y124.26 E1.6482
G1 X138.51 Y124.35 E1.6547
G1 X138.51 Y124.7 E1.6729
;
; 'Wipe', 0.0 [RPM], 25.0 [mm/s]
G1 F15000
G1 X138.51 Y124.7 E1.6729
G1 F1500
G1 X138.51 Y124.35 E1.6729
G1 X138.42 Y124.26 E1.6729
G1 X138.41 Y123.91 E1.6729
G1 X138.32 Y123.82 E1.6729
G1 X138.3 Y123.49 E1.6729
G1 X137.94 Y123.5 E1.6729
G1 X137.52 Y123.41 E1.6729
G1 X136.46 Y123.41 E1.6729
G1 X134.52 Y123.41 E1.6729
;
; 'Perimeter', 62.4 [RPM], 25.0 [mm/s]
G1 F15000
G1 X125.3 Y123.24 E1.6729
G1 F1500
G1 X125.28 Y123.54 E1.6887
G1 X125.28 Y124.6 E1.7434
G1 X125.19 Y124.68 E1.7499
;
; 'Wipe', 0.0 [RPM], 25.0 [mm/s]
G1 F15000
G1 X125.19 Y124.68 E1.7499
G1 F1500
G1 X125.28 Y124.6 E1.7499
G1 X125.28 Y123.54 E1.7499
G1 X125.3 Y123.24 E1.7499
;
; 'Perimeter', 62.4 [RPM], 25.0 [mm/s]
G1 F15000
G1 X125.29 Y123.2 E1.7499
G1 F1500
G1 X125.39 Y123.11 E1.7564
G1 X125.42 Y122.98 E1.7639
G1 X125.63 Y122.91 E1.7752
G1 X137.65 Y122.91 E2.3999
G1 X137.73 Y122.9 E2.4039
G1 X137.81 Y122.92 E2.4085
G1 X137.92 Y122.99 E2.4152
G1 X138.18 Y123 E2.4283
G1 X138.23 Y123.04 E2.4315
G1 X138.25 Y123.37 E2.4488
G1 X138.34 Y123.46 E2.4553
G1 X138.34 Y123.8 E2.4734
G1 X138.43 Y123.89 E2.4799
G1 X138.43 Y124.24 E2.4982
G1 X138.52 Y124.33 E2.5047
G1 X138.52 Y124.68 E2.523
;
; 'Wipe', 0.0 [RPM], 25.0 [mm/s]
G1 F15000
G1 X138.52 Y124.68 E2.523
G1 F1500
G1 X138.52 Y124.33 E2.523
G1 X138.43 Y124.24 E2.523
G1 X138.43 Y123.89 E2.523
G1 X138.34 Y123.8 E2.523
G1 X138.34 Y123.46 E2.523
G1 X138.25 Y123.37 E2.523
G1 X138.23 Y123.04 E2.523
G1 X138.18 Y123 E2.523
G1 X137.92 Y122.99 E2.523
G1 X137.81 Y122.92 E2.523
G1 X137.73 Y122.9 E2.523
G1 X135 Y122.91 E2.523
;
; 'Loop', 62.4 [RPM], 25.0 [mm/s]
G1 F15000
G1 X136.99 Y121.63 E2.523
G1 F1500
G1 X136.87 Y121.7 E2.5297
G1 X125.43 Y121.7 E3.1246
G1 X125.23 Y121.72 E3.1347
G1 X125 Y121.84 E3.1484
G1 X124.84 Y121.86 E3.1566
G1 X117.13 Y121.86 E3.5574
G1 X116.99 Y121.83 E3.565
G1 X116.99 Y108.17 E4.2746
G1 X117.13 Y108.14 E4.2822
G1 X124.49 Y108.14 E4.6646
G1 X124.59 Y108.22 E4.6712
G1 X124.58 Y113.83 E4.9628
G1 X124.51 Y114.11 E4.9779
G1 X124.51 Y114.3 E4.9877
G1 X124.59 Y114.58 E5.0027
G1 X124.6 Y114.92 E5.0206
G1 X124.63 Y115.11 E5.0308
G1 X124.59 Y115.43 E5.0472
G1 X124.6 Y115.81 E5.067
G1 X124.67 Y116.09 E5.082
G1 X124.74 Y116.2 E5.0887
G1 X124.91 Y116.37 E5.1016
G1 X124.94 Y116.52 E5.1094
G1 X124.94 Y119.14 E5.2454
G1 X125.02 Y119.45 E5.2621
G1 X125.17 Y119.65 E5.2752
G1 X125.44 Y119.91 E5.2947
G1 X125.68 Y120.03 E5.3085
G1 X125.86 Y120.06 E5.3182
G1 X136.96 Y120.06 E5.895
G1 X136.99 Y120.21 E5.9032
G1 X136.99 Y121.63 E5.9769
;
; 'Perimeter', 62.4 [RPM], 25.0 [mm/s]
G1 F15000
G1 X137.25 Y121.75 E5.9769
G1 F1500
G1 X137.37 Y122.01 E5.9921
G1 X137.12 Y122.2 E6.0081
G1 X125.45 Y122.2 E6.6144
G1 X125.36 Y122.21 E6.619
G1 X125.25 Y122.27 E6.6257
G1 X125.17 Y122.36 E6.6322
G1 X116.63 Y122.36 E7.0761
G1 X116.48 Y122.34 E7.084
G1 X116.48 Y107.66 E7.8466
G1 X116.63 Y107.64 E7.8545
G1 X124.99 Y107.64 E8.2892
G1 X125.09 Y107.71 E8.2958
G1 X125.09 Y113.9 E8.6173
G1 X125.08 Y113.97 E8.6209
G1 X125.03 Y114.09 E8.6278
G1 X125.03 Y114.32 E8.6396
G1 X125.08 Y114.44 E8.6465
G1 X125.11 Y114.59 E8.6547
G1 X125.1 Y114.87 E8.6693
G1 X125.15 Y115.07 E8.68
G1 X125.15 Y115.28 E8.6906
G1 X125.09 Y115.49 E8.7019
G1 X125.09 Y115.75 E8.7156
G1 X125.17 Y115.94 E8.7262
G1 X125.28 Y116 E8.7329
G1 X125.45 Y116.02 E8.7415
G1 X125.45 Y119.11 E8.9021
G1 X125.46 Y119.19 E8.9063
G1 X125.52 Y119.3 E8.913
G1 X125.63 Y119.37 E8.9197
G1 X125.7 Y119.48 E8.9264
G1 X125.89 Y119.55 E8.9372
G1 X136.15 Y119.55 E9.4701
G1 X137.29 Y119.55 E9.5295
G1 X137.49 Y119.53 E9.54
G1 X137.49 Y121.83 E9.6594
G1 X137.37 Y122.01 E9.6708
G1 X137.09 Y121.93 E9.686
;
; 'Wipe', 0.0 [RPM], 25.0 [mm/s]
G1 F15000
G1 X137.09 Y121.93 E9.686
G1 F1500
G1 X137.37 Y122.01 E9.686
G1 X137.49 Y121.83 E9.686
G1 X137.49 Y119.53 E9.686
G1 X137.29 Y119.55 E9.686
G1 X135.26 Y119.55 E9.686
;
; 'Perimeter', 62.4 [RPM], 25.0 [mm/s]
G1 F15000
G1 X138.03 Y107.65 E9.686
G1 F1500
G1 X138.11 Y107.55 E9.6925
G1 X138.26 Y107.53 E9.7005
G1 X138.37 Y107.46 E9.7072
G1 X138.44 Y107.35 E9.7139
G1 X138.45 Y107.26 E9.7191
G1 X138.48 Y107.22 E9.7216
G1 X138.81 Y107.19 E9.7388
G1 X138.9 Y107.1 E9.7453
G1 X139.25 Y107.1 E9.7635
G1 X139.33 Y107.01 E9.77
G1 X139.69 Y107.01 E9.7882
G1 X139.77 Y106.92 E9.7947
G1 X140.13 Y106.92 E9.813
;
; 'Wipe', 0.0 [RPM], 25.0 [mm/s]
G1 F15000
G1 X140.13 Y106.92 E9.813
G1 F1500
G1 X139.77 Y106.92 E9.813
G1 X139.69 Y107.01 E9.813
G1 X139.33 Y107.01 E9.813
G1 X139.25 Y107.1 E9.813
G1 X138.9 Y107.1 E9.813
G1 X138.81 Y107.19 E9.813
G1 X138.48 Y107.22 E9.813
G1 X138.45 Y107.26 E9.813
G1 X138.44 Y107.35 E9.813
G1 X138.37 Y107.46 E9.813
G1 X138.26 Y107.53 E9.813
G1 X138.11 Y107.55 E9.813
G1 X138.03 Y107.65 E9.813
;
; 'Perimeter', 62.4 [RPM], 25.0 [mm/s]
G1 F15000
G1 X138.03 Y107.68 E9.813
G1 F1500
G1 X138.03 Y114.19 E10.1511
G1 X137.91 Y114.43 E10.1649
G1 X137.8 Y114.49 E10.1716
G1 X137.55 Y114.52 E10.1848
G1 X137.38 Y114.51 E10.1934
G1 X137.16 Y114.38 E10.2068
G1 X137.09 Y114.13 E10.22
G1 X137.09 Y112.9 E10.2843
G1 X137.09 Y111.45 E10.3597
G1 X137.06 Y111.3 E10.3674
G1 X136.6 Y111.7 E10.3989
G1 X135.35 Y112.93 E10.4898
;
; 'Wipe', 0.0 [RPM], 25.0 [mm/s]
G1 F15000
G1 X135.35 Y112.93 E10.4898
G1 F1500
G1 X136.6 Y111.7 E10.4898
G1 X137.06 Y111.3 E10.4898
G1 X137.09 Y111.45 E10.4898
G1 X137.09 Y113.96 E10.4898
;
; 'Perimeter', 62.4 [RPM], 25.0 [mm/s]
G1 F15000
G1 X135.7 Y115.04 E10.4898
G1 F1500
G1 X136.86 Y115.03 E10.5504
G1 X136.93 Y115.03 E10.5538
G1 X137.01 Y114.94 E10.5603
G1 X137.89 Y114.94 E10.6061
G1 X139.49 Y114.95 E10.6894
;
; 'Wipe', 0.0 [RPM], 25.0 [mm/s]
G1 F15000
G1 X139.49 Y114.95 E10.6894
G1 F1500
G1 X137.89 Y114.94 E10.6894
G1 X137.01 Y114.94 E10.6894
G1 X136.93 Y115.03 E10.6894
G1 X136.86 Y115.03 E10.6894
G1 X135.7 Y115.04 E10.6894
;
; 'Perimeter', 62.4 [RPM], 25.0 [mm/s]
G1 F15000
G1 X126.13 Y115.87 E10.6894
G1 F1500
G1 X126.12 Y118.7 E10.8365
G1 X126.13 Y118.87 E10.8452
G1 X136.87 Y118.87 E11.4034
G1 X136.73 Y118.7 E11.4149
G1 X136.74 Y118.51 E11.4246
G1 X135.34 Y117.08 E11.5286
;
; 'Wipe', 0.0 [RPM], 25.0 [mm/s]
G1 F15000
G1 X135.34 Y117.08 E11.5286
G1 F1500
G1 X136.74 Y118.51 E11.5286
G1 X136.73 Y118.7 E11.5286
G1 X136.87 Y118.87 E11.5286
G1 X134.26 Y118.87 E11.5286
;
; 'Loop', 62.4 [RPM], 25.0 [mm/s]
G1 F15000
G1 X126.64 Y115.88 E11.5286
G1 F1500
G1 X126.63 Y116.05 E11.5373
G1 X126.64 Y118.36 E11.6576
G1 X136.55 Y118.36 E12.1725
G1 X135.33 Y117.09 E12.2638
;
; 'Wipe', 0.0 [RPM], 25.0 [mm/s]
G1 F15000
G1 X135.33 Y117.09 E12.2638
G1 F1500
G1 X136.55 Y118.36 E12.2638
G1 X133.19 Y118.36 E12.2638
;
; 'Loop', 62.4 [RPM], 25.0 [mm/s]
G1 F15000
G1 X126.67 Y115.74 E12.2638
G1 F1500
G1 X126.81 Y115.7 E12.2714
G1 X127.85 Y115.68 E12.3254
;
; 'Wipe', 0.0 [RPM], 25.0 [mm/s]
G1 F15000
G1 X127.85 Y115.68 E12.3254
G1 F1500
G1 X126.81 Y115.7 E12.3254
G1 X126.67 Y115.74 E12.3254
;
; 'Perimeter', 62.4 [RPM], 25.0 [mm/s]
G1 F15000
G1 X126.16 Y115.75 E12.3254
G1 F1500
G1 X126.27 Y115.69 E12.3322
G1 X126.61 Y115.68 E12.3498
G1 X126.67 Y115.68 E12.3527
G1 X127.84 Y115.67 E12.4137
;
; 'Wipe', 0.0 [RPM], 25.0 [mm/s]
G1 F15000
G1 X127.84 Y115.67 E12.4137
G1 F1500
G1 X126.96 Y115.67 E12.4137
G1 X126.44 Y115.68 E12.4137
G1 X126.27 Y115.69 E12.4137
G1 X126.16 Y115.75 E12.4137
;
; 'Perimeter', 62.4 [RPM], 25.0 [mm/s]
G1 F15000
G1 X125.68 Y114.63 E12.4137
G1 F1500
G1 X125.86 Y114.93 E12.4317
G1 X125.69 Y114.89 E12.4407
G1 X125.69 Y114.76 E12.4476
G1 X125.73 Y114.62 E12.455
G1 X125.8 Y114.61 E12.4584
G1 X125.86 Y114.72 E12.4651
G1 X125.86 Y114.93 E12.4759
G1 X125.55 Y114.77 E12.4939
;
; 'Wipe', 0.0 [RPM], 25.0 [mm/s]
G1 F15000
G1 X125.55 Y114.77 E12.4939
G1 F1500
G1 X125.86 Y114.93 E12.4939
G1 X125.86 Y114.72 E12.4939
G1 X125.8 Y114.61 E12.4939
G1 X125.73 Y114.62 E12.4939
G1 X125.69 Y114.76 E12.4939
G1 X125.69 Y114.89 E12.4939
G1 X125.86 Y114.93 E12.4939
G1 X125.68 Y114.63 E12.4939
;
; 'Crown', 62.4 [RPM], 25.0 [mm/s]
G1 F15000
G1 X125.78 Y114.14 E12.4939
G1 F1500
G1 X125.78 Y110.91 E12.6617
;
; 'Wipe', 0.0 [RPM], 25.0 [mm/s]
G1 F15000
G1 X125.78 Y110.91 E12.6617
G1 F1500
G1 X125.78 Y114.14 E12.6617
;
; 'Solid', 62.4 [RPM], 25.0 [mm/s]
G1 F15000
G1 X117.48 Y109.14 E12.6617
G1 F1500
G1 X117.96 Y108.65 E12.6972
G1 X118.67 Y108.65 E12.734
G1 X117.5 Y109.82 E12.8199
G1 X117.5 Y110.53 E12.8566
G1 X119.38 Y108.65 E12.9945
G1 X120.08 Y108.65 E13.0312
G1 X117.5 Y111.23 E13.221
G1 X117.5 Y111.94 E13.2578
G1 X120.79 Y108.65 E13.4996
G1 X121.5 Y108.65 E13.5363
G1 X117.5 Y112.65 E13.8301
G1 X117.5 Y113.36 E13.8669
G1 X122.21 Y108.65 E14.2126
G1 X122.91 Y108.65 E14.2493
G1 X117.5 Y114.06 E14.6471
G1 X117.5 Y114.77 E14.6838
G1 X123.64 Y108.63 E15.1349
G1 X124.09 Y108.89 E15.1619
G1 X117.5 Y115.48 E15.6463
G1 X117.5 Y116.18 E15.6831
G1 X124.07 Y109.61 E16.166
G1 X124.07 Y110.32 E16.2028
G1 X117.5 Y116.89 E16.6857
G1 X117.5 Y117.6 E16.7225
G1 X124.07 Y111.03 E17.2054
G1 X124.07 Y111.73 E17.2421
G1 X117.5 Y118.31 E17.7251
G1 X117.5 Y119.01 E17.7618
G1 X124.07 Y112.44 E18.2448
G1 X124.07 Y113.15 E18.2815
G1 X117.5 Y119.72 E18.7645
G1 X117.5 Y120.43 E18.8012
G1 X124.04 Y113.89 E19.2816
G1 X124.04 Y114.6 E19.3183
G1 X117.48 Y121.15 E19.8002
G1 X117.98 Y121.37 E19.8281
G1 X124.09 Y115.25 E20.2774
G1 X124.09 Y115.96 E20.3138
G1 X118.7 Y121.35 E20.7102
G1 X119.41 Y121.35 E20.7469
G1 X124.29 Y116.47 E21.1057
G1 X124.45 Y117.02 E21.1355
G1 X120.12 Y121.35 E21.4537
G1 X120.82 Y121.35 E21.4904
G1 X124.43 Y117.74 E21.7556
G1 X124.43 Y118.45 E21.7923
G1 X121.53 Y121.35 E22.0055
G1 X122.24 Y121.35 E22.0422
G1 X124.45 Y119.14 E22.2046
G1 X124.58 Y119.72 E22.2354
G1 X122.94 Y121.35 E22.3552
G1 X123.65 Y121.35 E22.392
G1 X124.9 Y120.1 E22.4836
G1 X125.29 Y120.42 E22.5098
G1 X124.37 Y121.34 E22.5774
G1 X125.18 Y121.23 E22.62
G1 X125.85 Y120.57 E22.6688
G1 X126.55 Y120.57 E22.7053
G1 X125.94 Y121.18 E22.7504
G1 X126.65 Y121.18 E22.7871
G1 X127.26 Y120.57 E22.8321
G1 X127.97 Y120.57 E22.8689
G1 X127.35 Y121.18 E22.9139
G1 X128.06 Y121.18 E22.9506
G1 X128.67 Y120.57 E22.9956
G1 X129.38 Y120.57 E23.0324
G1 X128.77 Y121.18 E23.0774
G1 X129.47 Y121.18 E23.1141
G1 X130.09 Y120.57 E23.1591
G1 X130.79 Y120.57 E23.1959
G1 X130.18 Y121.18 E23.2409
G1 X130.89 Y121.18 E23.2776
G1 X131.5 Y120.57 E23.3227
G1 X132.21 Y120.57 E23.3594
G1 X131.6 Y121.18 E23.4044
G1 X132.3 Y121.18 E23.4412
G1 X132.91 Y120.57 E23.4862
G1 X133.62 Y120.57 E23.5229
G1 X133.01 Y121.18 E23.5679
G1 X133.72 Y121.18 E23.6047
G1 X134.33 Y120.57 E23.6497
G1 X135.04 Y120.57 E23.6864
G1 X134.42 Y121.18 E23.7314
G1 X135.13 Y121.18 E23.7682
G1 X135.74 Y120.57 E23.8132
G1 X136.45 Y120.57 E23.8499
G1 X135.76 Y121.26 E23.9004
;
; 'Wipe', 0.0 [RPM], 25.0 [mm/s]
G1 F15000
G1 X135.76 Y121.26 E23.9004
G1 F1500
G1 X136.45 Y120.57 E23.9004
G1 X135.74 Y120.57 E23.9004
G1 X135.13 Y121.18 E23.9004
G1 X134.42 Y121.18 E23.9004
G1 X135.04 Y120.57 E23.9004
G1 X134.33 Y120.57 E23.9004
G1 X133.72 Y121.18 E23.9004
;
; 'Solid', 62.4 [RPM], 25.0 [mm/s]
G1 F15000
G1 X141.18 Y113.72 E23.9004
G1 F1500
G1 X140.28 Y114.62 E23.9663
G1 X139.56 Y114.63 E24.0039
G1 X141.1 Y113.09 E24.1175
G1 X141.1 Y112.38 E24.1542
G1 X138.95 Y114.53 E24.3124
G1 X139.06 Y113.72 E24.355
G1 X141.1 Y111.68 E24.5053
G1 X141.1 Y110.97 E24.5421
G1 X139.04 Y113.03 E24.6934
G1 X139.04 Y112.32 E24.7301
G1 X141.1 Y110.26 E24.8814
G1 X141.1 Y109.55 E24.9181
G1 X139.04 Y111.61 E25.0694
G1 X139.04 Y110.91 E25.1061
G1 X141.1 Y108.85 E25.2574
G1 X141.1 Y108.14 E25.2941
G1 X139.04 Y110.2 E25.4454
G1 X139.04 Y109.49 E25.4821
G1 X141.12 Y107.41 E25.635
G1 X140.77 Y107.06 E25.661
G1 X139.07 Y108.76 E25.7858
G1 X139.3 Y107.82 E25.8361
G1 X140.42 Y106.7 E25.9179
;
; 'Sparse Infill', 62.4 [RPM], 25.0 [mm/s]
G1 F15000
G1 X140.6 Y106.52 E25.9179
G1 F1500
G1 X140.85 Y106.74 E25.935
G1 X141.32 Y107.22 E25.9699
G1 X141.31 Y107.23 E25.9704
G1 X141.51 Y107.58 E25.9915
G1 X141.47 Y107.93 E26.0099
G1 X141.67 Y108.28 E26.0309
G1 X141.31 Y108.64 E26.0574
G1 X141.51 Y108.99 E26.0784
G1 X141.47 Y109.34 E26.0968
G1 X141.67 Y109.69 E26.1179
G1 X141.31 Y110.05 E26.1444
G1 X141.51 Y110.4 E26.1654
G1 X141.47 Y110.76 E26.1838
G1 X141.67 Y111.11 E26.2048
G1 X141.31 Y111.47 E26.2313
G1 X141.51 Y111.82 E26.2524
G1 X141.47 Y112.17 E26.2708
G1 X141.67 Y112.52 E26.2918
G1 X141.31 Y112.88 E26.3183
G1 X141.51 Y113.23 E26.3393
G1 X141.47 Y113.58 E26.3577
G1 X141.67 Y113.94 E26.3788
G1 X140.96 Y114.65 E26.4313
;
; 'Wipe', 0.0 [RPM], 25.0 [mm/s]
G1 F15000
G1 X140.96 Y114.65 E26.4313
G1 F1500
G1 X141.67 Y113.94 E26.4313
G1 X141.47 Y113.58 E26.4313
G1 X141.51 Y113.23 E26.4313
G1 X141.31 Y112.88 E26.4313
G1 X141.67 Y112.52 E26.4313
G1 X141.47 Y112.17 E26.4313
G1 X141.51 Y111.82 E26.4313
G1 X141.31 Y111.47 E26.4313
G1 X141.67 Y111.11 E26.4313
G1 X141.47 Y110.76 E26.4313
G1 X141.51 Y110.4 E26.4313
;
; 'Sparse Infill', 62.4 [RPM], 25.0 [mm/s]
G1 F15000
G1 X144.85 Y117.82 E26.4313
G1 F1500
G1 X144.85 Y117.83 E26.4318
G1 X144.85 Y119.24 E26.5049
G1 X144.85 Y119.25 E26.5054
G1 X144.85 Y120.65 E26.5786
G1 X144.49 Y121.01 E26.6051
;
; 'Wipe', 0.0 [RPM], 25.0 [mm/s]
G1 F15000
G1 X144.49 Y121.01 E26.6051
G1 F1500
G1 X144.85 Y120.65 E26.6051
G1 X144.85 Y119.25 E26.6051
G1 X144.85 Y119.24 E26.6051
G1 X144.85 Y117.83 E26.6051
G1 X144.85 Y117.82 E26.6051
;
; 'Sparse Infill', 62.4 [RPM], 25.0 [mm/s]
G1 F15000
G1 X142.37 Y114.65 E26.6051
G1 F1500
G1 X142.38 Y114.64 E26.6056
G1 X142.18 Y114.29 E26.6266
G1 X142.22 Y113.94 E26.645
G1 X142.02 Y113.59 E26.666
G1 X142.38 Y113.23 E26.6925
G1 X142.18 Y112.88 E26.7136
G1 X142.22 Y112.53 E26.732
G1 X142.02 Y112.18 E26.753
G1 X142.38 Y111.81 E26.7795
G1 X142.18 Y111.46 E26.8005
G1 X142.22 Y111.11 E26.8189
G1 X142.02 Y110.76 E26.84
G1 X142.38 Y110.4 E26.8665
G1 X142.18 Y110.05 E26.8875
G1 X142.22 Y109.7 E26.9059
G1 X142.02 Y109.35 E26.9269
G1 X142.38 Y108.99 E26.9534
G1 X142.18 Y108.63 E26.9745
G1 X142.22 Y108.28 E26.9929
G1 X142.02 Y107.93 E27.0139
G1 X142.38 Y107.57 E27.0404
G1 X141.66 Y106.87 E27.0924
G1 X142.02 Y106.51 E27.1189
;
; 'Sparse Infill', 62.4 [RPM], 25.0 [mm/s]
G1 F15000
G1 X142.72 Y114.3 E27.1189
G1 F1500
G1 X143.44 Y113.58 E27.1714
G1 X142.72 Y112.88 E27.2233
G1 X143.44 Y112.17 E27.2758
G1 X142.72 Y111.47 E27.3278
G1 X143.44 Y110.75 E27.3803
G1 X142.72 Y110.05 E27.4323
G1 X143.44 Y109.34 E27.4847
G1 X142.72 Y108.64 E27.5367
G1 X143.44 Y107.93 E27.5892
G1 X142.97 Y107.45 E27.6241
G1 X142.72 Y107.23 E27.6412
;
; 'Wipe', 0.0 [RPM], 25.0 [mm/s]
G1 F15000
G1 X142.72 Y107.23 E27.6412
G1 F1500
G1 X142.97 Y107.45 E27.6412
G1 X143.44 Y107.93 E27.6412
G1 X142.72 Y108.64 E27.6412
G1 X143.44 Y109.34 E27.6412
G1 X142.72 Y110.05 E27.6412
G1 X143.44 Y110.75 E27.6412
;
; 'Sparse Infill', 62.4 [RPM], 25.0 [mm/s]
G1 F15000
G1 X139.19 Y124.9 E27.6412
G1 F1500
G1 X139.19 Y124.9 E27.6412
G1 X137.78 Y126.31 E27.7452
G1 X134.95 Y126.31 E27.8922
G1 X133.54 Y127.73 E27.9961
G1 X133.54 Y130.56 E28.1431
G1 X132.12 Y131.97 E28.247
G1 X129.29 Y131.97 E28.394
G1 X127.88 Y133.38 E28.498
G1 X127.88 Y136.21 E28.645
G1 X126.82 Y137.27 E28.7229
G1 X122.58 Y133.03 E29.0347
G1 X123.64 Y131.97 E29.1127
G1 X126.46 Y131.97 E29.2597
G1 X127.88 Y130.56 E29.3636
G1 X127.88 Y127.73 E29.5106
G1 X129.29 Y126.31 E29.6145
G1 X132.12 Y126.31 E29.7615
G1 X133.54 Y124.9 E29.8655
G1 X133.54 Y124.19 E29.9026
G1 X127.88 Y124.19 E30.1966
G1 X127.88 Y124.9 E30.2337
G1 X126.46 Y126.31 E30.3376
G1 X123.64 Y126.31 E30.4846
G1 X122.22 Y127.73 E30.5885
G1 X122.22 Y130.56 E30.7355
G1 X121.16 Y131.62 E30.8135
G1 X116.92 Y127.37 E31.1253
G1 X117.98 Y126.31 E31.2032
G1 X120.81 Y126.31 E31.3502
G1 X122.22 Y124.9 E31.4542
G1 X122.22 Y124.89 E31.4545
G1 X121.75 Y125.04 E31.4802
G1 X121.28 Y125.04 E31.5047
G1 X120.81 Y124.89 E31.5304
G1 X120.34 Y125.04 E31.5561
G1 X119.86 Y125.04 E31.5806
G1 X119.39 Y124.89 E31.6062
G1 X118.92 Y125.04 E31.6319
G1 X118.45 Y125.04 E31.6564
G1 X117.98 Y124.89 E31.6821
G1 X117.51 Y125.04 E31.7078
G1 X117.04 Y125.04 E31.7323
G1 X116.56 Y124.89 E31.758
G1 X116.56 Y124.9 E31.7583
G1 X115.5 Y125.96 E31.8363
;
; 'Wipe', 0.0 [RPM], 25.0 [mm/s]
G1 F15000
G1 X115.5 Y125.96 E31.8363
G1 F1500
G1 X116.56 Y124.9 E31.8363
G1 X116.56 Y124.89 E31.8363
G1 X117.04 Y125.04 E31.8363
G1 X117.51 Y125.04 E31.8363
G1 X117.98 Y124.89 E31.8363
G1 X118.45 Y125.04 E31.8363
G1 X118.92 Y125.04 E31.8363
G1 X119.39 Y124.89 E31.8363
G1 X119.86 Y125.04 E31.8363
G1 X120.34 Y125.04 E31.8363
;
; 'Sparse Infill', 62.4 [RPM], 25.0 [mm/s]
G1 F15000
G1 X127.88 Y117.84 E31.8363
G1 F1500
G1 X127.88 Y116.41 E31.9101
G1 X129.29 Y115 E32.0141
G1 X132.12 Y115 E32.1611
G1 X133.54 Y113.59 E32.265
G1 X133.54 Y113.58 E32.2654
G1 X134.96 Y115 E32.3698
G1 X134.95 Y115 E32.3702
G1 X133.54 Y116.41 E32.4741
G1 X133.54 Y117.84 E32.548
;
; 'Wipe', 0.0 [RPM], 25.0 [mm/s]
G1 F15000
G1 X133.54 Y117.84 E32.548
G1 F1500
G1 X133.54 Y116.41 E32.548
G1 X134.95 Y115 E32.548
G1 X134.96 Y115 E32.548
G1 X133.82 Y113.86 E32.548
;
; 'Sparse Infill', 62.4 [RPM], 25.0 [mm/s]
G1 F15000
G1 X142.72 Y115 E32.548
G1 F1500
G1 X143.44 Y115 E32.5851
G1 X144.85 Y113.59 E32.689
G1 X144.85 Y110.76 E32.836
G1 X146.26 Y109.34 E32.94
G1 X144.85 Y107.93 E33.0439
G1 X143.79 Y108.99 E33.1221
G1 X143.96 Y109.46 E33.1482
G1 X144.07 Y110.41 E33.1975
G1 X144.63 Y113.24 E33.3474
G1 X145.2 Y116.06 E33.4973
G1 X146.26 Y115 E33.5755
G1 X149.09 Y115 E33.7225
G1 X150.51 Y113.59 E33.8264
;
; 'Wipe', 0.0 [RPM], 25.0 [mm/s]
G1 F15000
G1 X150.51 Y113.59 E33.8264
G1 F1500
G1 X149.09 Y115 E33.8264
G1 X146.26 Y115 E33.8264
G1 X145.91 Y115.35 E33.8264
;
; 'Crown', 62.4 [RPM], 25.0 [mm/s]
G1 F15000
G1 X125.91 Y110.78 E33.8264
G1 F1500
G1 X125.96 Y110.78 E33.829
G1 X137.22 Y110.78 E34.4142
G1 X137.27 Y110.78 E34.4169
;
; 'Wipe', 0.0 [RPM], 25.0 [mm/s]
G1 F15000
G1 X137.27 Y110.78 E34.4169
G1 F1500
G1 X132.27 Y110.78 E34.4169
G1 F210
G1 X132.27 Y110.78 Z0.5 E34.4169
; END_LAYER_OBJECT z=0.25
; Reset extruder pos
G92 E0
; BEGIN_LAYER_OBJECT z=0.50
;
; *** Warming Extruder 1 to 160 C ***
M104 S160
G92 E0
;
; fan on
M106
;
; 'Perimeter', 180.0 [RPM], 72.2 [mm/s]
G1 F15000
G1 X115.63 Y107.7 E0
G1 F4329.5
G1 X115.74 Y107.64 E0.0068
G1 X137.54 Y107.64 E1.1397
G1 X137.52 Y107.67 E1.1418
G1 X137.53 Y107.86 E1.1518
G1 X137.45 Y107.95 E1.1583
G1 X137.45 Y108.13 E1.1678
G1 X137.36 Y108.22 E1.1743
G1 X137.37 Y108.4 E1.1836
G1 X137.28 Y108.49 E1.1901
G1 X137.28 Y108.67 E1.1995
G1 X136.84 Y109.12 E1.232
G1 X136.84 Y109.22 E1.2373
G1 X137.11 Y109.49 E1.2568
G1 X137.28 Y109.48 E1.2661
G1 X137.55 Y109.75 E1.2856
G1 X137.53 Y110.3 E1.314
G1 X137.53 Y110.34 E1.3159
G1 X137.44 Y110.42 E1.3224
G1 X137.38 Y110.54 E1.3293
G1 X137.23 Y110.6 E1.3376
G1 X126.09 Y110.6 E1.9164
G1 X125.78 Y110.61 E1.9326
G1 X125.67 Y110.67 E1.9393
G1 X125.6 Y110.92 E1.9525
G1 X125.59 Y111.1 E1.962
G1 X125.59 Y113.77 E2.101
G1 X125.57 Y113.92 E2.109
G1 X125.43 Y113.92 E2.1162
G1 X125.39 Y113.78 E2.1237
G1 X125.39 Y113.6 E2.1328
G1 X125.2 Y113.43 E2.1458
G1 X125.02 Y113.44 E2.1554
G1 X124.75 Y113.18 E2.1748
G1 X124.57 Y113.18 E2.1842
G1 X124.4 Y113 E2.1972
G1 X124.22 Y113 E2.2064
G1 X124.13 Y112.92 E2.2129
G1 X123.95 Y112.92 E2.2222
G1 X123.86 Y112.83 E2.2287
;
; 'Wipe', 0.0 [RPM], 67.5 [mm/s]
G1 F15000
G1 X123.86 Y112.83 E2.2287
G1 F4050
G1 X123.95 Y112.92 E2.2287
G1 X124.13 Y112.92 E2.2287
G1 X124.22 Y113 E2.2287
G1 X124.4 Y113 E2.2287
G1 X124.57 Y113.18 E2.2287
G1 X124.75 Y113.18 E2.2287
G1 X125.02 Y113.44 E2.2287
G1 X125.2 Y113.43 E2.2287
G1 X125.39 Y113.6 E2.2287
G1 X125.39 Y113.78 E2.2287
G1 X125.43 Y113.92 E2.2287
G1 X125.57 Y113.92 E2.2287
G1 X125.59 Y113.77 E2.2287
G1 X125.59 Y111.12 E2.2287
;
; 'Perimeter', 180.0 [RPM], 72.2 [mm/s]
G1 F15000
G1 X125.65 Y114.51 E2.2287
G1 F4329.5
G1 X125.86 Y114.75 E2.2451
G1 X125.77 Y114.83 E2.2516
G1 X125.74 Y114.84 E2.2529
G1 X125.68 Y114.74 E2.2589
G1 X125.73 Y114.62 E2.2658
G1 X125.8 Y114.61 E2.2692
G1 X125.86 Y114.72 E2.2759
G1 X125.86 Y114.75 E2.2774
G1 X125.54 Y114.72 E2.2938
;
; 'Wipe', 0.0 [RPM], 67.5 [mm/s]
G1 F15000
G1 X125.54 Y114.72 E2.2938
G1 F4050
G1 X125.86 Y114.75 E2.2938
G1 X125.86 Y114.72 E2.2938
G1 X125.8 Y114.61 E2.2938
G1 X125.73 Y114.62 E2.2938
G1 X125.68 Y114.74 E2.2938
G1 X125.74 Y114.84 E2.2938
G1 X125.77 Y114.83 E2.2938
G1 X125.86 Y114.75 E2.2938
G1 X125.65 Y114.51 E2.2938
;
; 'Loop', 180.0 [RPM], 72.2 [mm/s]
G1 F15000
G1 X123.31 Y115.15 E2.2938
G1 F4329.5
G1 X124.18 Y115.16 E2.3391
G1 X124.52 Y115.18 E2.3566
G1 X124.52 Y115.36 E2.3658
G1 X124.58 Y115.64 E2.3811
G1 X124.58 Y115.94 E2.3967
G1 X124.63 Y116.13 E2.4067
G1 X124.77 Y116.34 E2.42
G1 X124.96 Y116.5 E2.433
G1 X124.71 Y116.78 E2.4525
G1 X124.54 Y116.78 E2.4616
G1 X124.37 Y116.97 E2.4746
G1 X124.19 Y116.97 E2.4837
G1 X124.1 Y117.06 E2.4902
G1 X123.93 Y117.06 E2.4994
G1 X123.84 Y117.15 E2.5059
;
; 'Perimeter', 180.0 [RPM], 72.2 [mm/s]
G1 F15000
G1 X123.32 Y115.14 E2.5059
G1 F4329.5
G1 X124.2 Y115.14 E2.5516
G1 X124.55 Y115.15 E2.5697
G1 X124.89 Y115.16 E2.5874
G1 X125.02 Y115.21 E2.5946
G1 X125.03 Y115.37 E2.6034
G1 X125.1 Y115.49 E2.6101
G1 X125.07 Y115.86 E2.6297
G1 X125.12 Y115.99 E2.6368
G1 X125.15 Y116.16 E2.6459
G1 X124.99 Y116.35 E2.6589
G1 X124.99 Y116.53 E2.6683
G1 X124.73 Y116.8 E2.6878
G1 X124.55 Y116.8 E2.697
G1 X124.38 Y116.98 E2.7099
G1 X124.2 Y116.98 E2.7191
G1 X124.12 Y117.07 E2.7256
G1 X123.94 Y117.07 E2.7348
G1 X123.85 Y117.16 E2.7413
;
; 'Wipe', 0.0 [RPM], 67.5 [mm/s]
G1 F15000
G1 X123.85 Y117.16 E2.7413
G1 F4050
G1 X123.94 Y117.07 E2.7413
G1 X124.12 Y117.07 E2.7413
G1 X124.2 Y116.98 E2.7413
G1 X124.38 Y116.98 E2.7413
G1 X124.55 Y116.8 E2.7413
G1 X124.73 Y116.8 E2.7413
G1 X124.99 Y116.53 E2.7413
G1 X124.99 Y116.35 E2.7413
G1 X125.15 Y116.16 E2.7413
G1 X125.12 Y115.99 E2.7413
G1 X125.07 Y115.86 E2.7413
G1 X125.1 Y115.49 E2.7413
G1 X125.03 Y115.37 E2.7413
G1 X125.02 Y115.21 E2.7413
G1 X124.89 Y115.16 E2.7413
G1 X124.38 Y115.14 E2.7413
G1 X124.31 Y115.15 E2.7413
G1 X123.32 Y115.14 E2.7413
;
; 'Loop', 180.0 [RPM], 72.2 [mm/s]
G1 F15000
G1 X125.31 Y123.58 E2.7413
G1 F4329.5
G1 X125.29 Y124.61 E2.7948
G1 X125.2 Y124.69 E2.8013
;
; 'Wipe', 0.0 [RPM], 67.5 [mm/s]
G1 F15000
G1 X125.2 Y124.69 E2.8013
G1 F4050
G1 X125.29 Y124.61 E2.8013
G1 X125.31 Y123.58 E2.8013
;
; 'Loop', 180.0 [RPM], 72.2 [mm/s]
G1 F15000
G1 X125.31 Y123.57 E2.8013
G1 F4329.5
G1 X125.4 Y123.49 E2.8077
G1 X125.83 Y123.41 E2.8305
G1 X132.4 Y123.41 E3.1717
G1 X138.23 Y123.41 E3.4748
G1 X138.37 Y123.42 E3.4823
G1 X138.65 Y123.49 E3.4973
G1 X139.18 Y123.5 E3.5247
G1 X139.2 Y123.65 E3.533
G1 X139.29 Y123.74 E3.5395
G1 X139.3 Y124.08 E3.5574
G1 X139.39 Y124.17 E3.5639
G1 X139.4 Y124.52 E3.5821
G1 X139.48 Y124.61 E3.5886
;
; 'Wipe', 0.0 [RPM], 67.5 [mm/s]
G1 F15000
G1 X139.48 Y124.61 E3.5886
G1 F4050
G1 X139.4 Y124.52 E3.5886
G1 X139.39 Y124.17 E3.5886
G1 X139.3 Y124.08 E3.5886
G1 X139.29 Y123.74 E3.5886
G1 X139.2 Y123.65 E3.5886
G1 X139.18 Y123.5 E3.5886
G1 X138.65 Y123.49 E3.5886
G1 X138.23 Y123.41 E3.5886
G1 X136.46 Y123.41 E3.5886
G1 X135.4 Y123.41 E3.5886
;
; 'Perimeter', 180.0 [RPM], 72.2 [mm/s]
G1 F15000
G1 X125.3 Y123.24 E3.5886
G1 F4329.5
G1 X125.28 Y123.54 E3.6044
G1 X125.28 Y124.6 E3.6591
G1 X125.19 Y124.68 E3.6656
;
; 'Wipe', 0.0 [RPM], 67.5 [mm/s]
G1 F15000
G1 X125.19 Y124.68 E3.6656
G1 F4050
G1 X125.28 Y124.6 E3.6656
G1 X125.28 Y123.54 E3.6656
G1 X125.3 Y123.24 E3.6656
;
; 'Loop', 180.0 [RPM], 72.2 [mm/s]
G1 F15000
G1 X137.78 Y121.55 E3.6656
G1 F4329.5
G1 X137.68 Y121.63 E3.6725
G1 X136.87 Y120.86 E3.7309
G1 X136.87 Y120.81 E3.7334
G1 X137.14 Y120.55 E3.7529
G1 X137.32 Y120.55 E3.7623
G1 X137.78 Y120.13 E3.7948
G1 X137.78 Y119.94 E3.8043
G1 X137.78 Y121.55 E3.8875
;
; 'Perimeter', 180.0 [RPM], 72.2 [mm/s]
G1 F15000
G1 X138.13 Y121.91 E3.8875
G1 F4329.5
G1 X138.29 Y122.23 E3.906
G1 X138.08 Y122.2 E3.9168
G1 X137.91 Y122.21 E3.9256
G1 X137.86 Y122.17 E3.929
G1 X137.84 Y121.83 E3.9464
G1 X137.84 Y121.65 E3.9557
G1 X137.66 Y121.66 E3.9652
G1 X136.86 Y120.87 E4.0237
G1 X136.86 Y120.8 E4.0275
G1 X137.12 Y120.53 E4.047
G1 X137.3 Y120.54 E4.0563
G1 X137.75 Y120.1 E4.0888
G1 X137.75 Y119.92 E4.0982
G1 X137.93 Y119.75 E4.1112
G1 X137.93 Y119.57 E4.1205
G1 X138.02 Y119.49 E4.127
G1 X138.02 Y119.35 E4.1341
G1 X137.94 Y119.25 E4.1406
G1 X137.77 Y119.25 E4.1495
G1 X137.74 Y119.2 E4.1527
G1 X137.72 Y119.12 E4.1569
G1 X137.63 Y118.86 E4.1711
G1 X137.63 Y118.51 E4.1895
G1 X137.63 Y116.09 E4.3155
G1 X137.74 Y116.02 E4.3223
G1 X138.17 Y116.02 E4.3447
G1 X138.29 Y116.08 E4.3516
G1 X138.29 Y122.23 E4.671
G1 X138 Y122.02 E4.6895
;
; 'Wipe', 0.0 [RPM], 67.5 [mm/s]
G1 F15000
G1 X138 Y122.02 E4.6895
G1 F4050
G1 X138.29 Y122.23 E4.6895
G1 X138.29 Y117.49 E4.6895
;
; 'Perimeter', 180.0 [RPM], 72.2 [mm/s]
G1 F15000
G1 X125.29 Y123.2 E4.6895
G1 F4329.5
G1 X125.39 Y123.11 E4.696
G1 X125.42 Y122.98 E4.7035
G1 X125.63 Y122.91 E4.7147
G1 X136.14 Y122.91 E5.2608
G1 X138.26 Y122.91 E5.3711
G1 X138.42 Y123.02 E5.3813
G1 X138.56 Y123.03 E5.3885
G1 X138.64 Y122.98 E5.3932
G1 X139.06 Y123 E5.4154
G1 X139.11 Y123.04 E5.4185
G1 X139.13 Y123.37 E5.4358
G1 X139.22 Y123.46 E5.4423
G1 X139.22 Y123.63 E5.4513
G1 X139.31 Y123.72 E5.4578
G1 X139.32 Y124.07 E5.476
G1 X139.41 Y124.16 E5.4825
G1 X139.41 Y124.51 E5.5008
G1 X139.5 Y124.6 E5.5073
;
; 'Wipe', 0.0 [RPM], 67.5 [mm/s]
G1 F15000
G1 X139.5 Y124.6 E5.5073
G1 F4050
G1 X139.41 Y124.51 E5.5073
G1 X139.41 Y124.16 E5.5073
G1 X139.32 Y124.07 E5.5073
G1 X139.31 Y123.72 E5.5073
G1 X139.22 Y123.63 E5.5073
G1 X139.22 Y123.46 E5.5073
G1 X139.13 Y123.37 E5.5073
G1 X139.11 Y123.04 E5.5073
G1 X139.06 Y123 E5.5073
G1 X138.64 Y122.98 E5.5073
G1 X138.56 Y123.03 E5.5073
G1 X138.42 Y123.02 E5.5073
G1 X138.26 Y122.91 E5.5073
G1 X135.78 Y122.91 E5.5073
;
; 'Loop', 180.0 [RPM], 72.2 [mm/s]
G1 F15000
G1 X116.13 Y108.37 E5.5073
G1 F4329.5
G1 X116.13 Y121.8 E6.2055
G1 X116.24 Y121.86 E6.2123
G1 X125.02 Y121.86 E6.6683
G1 X125.32 Y121.81 E6.684
G1 X125.34 Y120.9 E6.7312
G1 X125.25 Y120.81 E6.7377
G1 X124.9 Y120.81 E6.7561
G1 X124.81 Y120.72 E6.7626
G1 X124.63 Y120.72 E6.7718
G1 X124.55 Y120.63 E6.7783
;
; 'Loop', 180.0 [RPM], 72.2 [mm/s]
G1 F15000
G1 X116.13 Y108.2 E6.7783
G1 F4329.5
G1 X116.24 Y108.14 E6.7851
G1 X137.39 Y108.14 E7.8841
G1 X137.34 Y108.2 E7.8882
G1 X137.35 Y108.38 E7.8977
G1 X137.26 Y108.47 E7.9042
G1 X137.27 Y108.65 E7.9137
G1 X136.83 Y109.1 E7.9462
G1 X136.83 Y109.23 E7.9529
G1 X137.09 Y109.5 E7.9724
G1 X137.27 Y109.5 E7.9816
G1 X137.52 Y109.77 E8.0011
G1 X137.52 Y109.97 E8.011
G1 X137.45 Y110.02 E8.0155
G1 X137.11 Y110.09 E8.0336
G1 X126.07 Y110.09 E8.6074
G1 X125.69 Y110.11 E8.627
G1 X125.42 Y110.24 E8.6428
G1 X125.24 Y110.42 E8.6558
G1 X125.12 Y110.65 E8.6696
G1 X125.09 Y111.08 E8.6916
G1 X125.09 Y113.37 E8.8111
G1 X125.05 Y113.41 E8.8138
G1 X124.77 Y113.16 E8.8333
G1 X124.59 Y113.16 E8.8427
G1 X124.41 Y112.99 E8.8557
G1 X124.23 Y112.99 E8.8651
G1 X124.14 Y112.9 E8.8716
G1 X123.96 Y112.9 E8.8809
G1 X123.87 Y112.82 E8.8874
;
; 'Wipe', 0.0 [RPM], 67.5 [mm/s]
G1 F15000
G1 X123.87 Y112.82 E8.8874
G1 F4050
G1 X123.96 Y112.9 E8.8874
G1 X124.14 Y112.9 E8.8874
G1 X124.23 Y112.99 E8.8874
G1 X124.41 Y112.99 E8.8874
G1 X124.59 Y113.16 E8.8874
G1 X124.77 Y113.16 E8.8874
G1 X125.05 Y113.41 E8.8874
G1 X125.09 Y113.37 E8.8874
G1 X125.09 Y111.08 E8.8874
G1 X125.12 Y110.65 E8.8874
G1 X125.24 Y110.42 E8.8874
G1 X125.42 Y110.24 E8.8874
G1 X125.53 Y110.17 E8.8874
G1 X125.69 Y110.11 E8.8874
;
; 'Perimeter', 180.0 [RPM], 72.2 [mm/s]
G1 F15000
G1 X115.63 Y107.81 E8.8874
G1 F4329.5
G1 X115.63 Y122.3 E9.6407
G1 X115.74 Y122.36 E9.6475
G1 X125.17 Y122.36 E10.1373
G1 X125.3 Y122.32 E10.1446
G1 X125.33 Y122.18 E10.1523
G1 X125.35 Y121.66 E10.1791
G1 X125.35 Y120.89 E10.2194
G1 X125.26 Y120.8 E10.2259
G1 X124.91 Y120.8 E10.2443
G1 X124.82 Y120.71 E10.2508
G1 X124.65 Y120.71 E10.2601
G1 X124.56 Y120.62 E10.2666
;
; 'Wipe', 0.0 [RPM], 67.5 [mm/s]
G1 F15000
G1 X124.56 Y120.62 E10.2666
G1 F4050
G1 X124.65 Y120.71 E10.2666
G1 X124.82 Y120.71 E10.2666
G1 X124.91 Y120.8 E10.2666
G1 X125.26 Y120.8 E10.2666
G1 X125.35 Y120.89 E10.2666
G1 X125.35 Y121.84 E10.2666
G1 X125.33 Y122.18 E10.2666
G1 X125.3 Y122.32 E10.2666
G1 X125.17 Y122.36 E10.2666
G1 X122.64 Y122.36 E10.2666
;
; 'Crown', 180.0 [RPM], 72.2 [mm/s]
G1 F15000
G1 X137.96 Y118.89 E10.2666
G1 F4329.5
G1 X137.97 Y118.88 E10.2675
G1 X137.96 Y118.71 E10.276
G1 X137.96 Y116.41 E10.3955
;
; 'Wipe', 0.0 [RPM], 67.5 [mm/s]
G1 F15000
G1 X137.96 Y116.41 E10.3955
G1 F4050
G1 X137.96 Y118.71 E10.3955
G1 X137.97 Y118.88 E10.3955
G1 X137.96 Y118.89 E10.3955
;
; 'Solid', 168.4 [RPM], 67.5 [mm/s]
G1 F15000
G1 X125.06 Y121.37 E10.3955
G1 F4050
G1 X116.64 Y112.96 E11.0141
G1 X116.64 Y113.66 E11.0508
G1 X124.33 Y121.35 E11.6156
G1 X123.62 Y121.35 E11.6524
G1 X116.64 Y114.37 E12.1652
G1 X116.64 Y115.08 E12.2019
G1 X122.91 Y121.35 E12.6628
G1 X122.21 Y121.35 E12.6996
G1 X116.64 Y115.78 E13.1085
G1 X116.64 Y116.49 E13.1452
G1 X121.5 Y121.35 E13.5021
G1 X120.79 Y121.35 E13.5389
G1 X116.64 Y117.2 E13.8438
G1 X116.64 Y117.91 E13.8806
G1 X120.08 Y121.35 E14.1336
G1 X119.38 Y121.35 E14.1703
G1 X116.64 Y118.61 E14.3713
G1 X116.64 Y119.32 E14.4081
G1 X118.67 Y121.35 E14.5571
G1 X117.96 Y121.35 E14.5939
G1 X116.64 Y120.03 E14.691
G1 X116.64 Y120.73 E14.7277
G1 X117.28 Y121.37 E14.7744
;
; 'Solid', 168.4 [RPM], 67.5 [mm/s]
G1 F15000
G1 X123.71 Y119.32 E14.7744
G1 F4050
G1 X116.64 Y112.25 E15.2938
G1 X116.64 Y111.54 E15.3305
G1 X123.63 Y118.53 E15.8444
G1 X123.63 Y117.83 E15.8812
G1 X116.64 Y110.83 E16.3951
G1 X116.64 Y110.13 E16.4318
G1 X123.66 Y117.14 E16.9473
G1 X123.99 Y116.76 E16.9734
G1 X116.64 Y109.42 E17.513
G1 X116.64 Y108.71 E17.5498
G1 X124.16 Y116.24 E18.1026
G1 X124 Y115.37 E18.1485
G1 X123.98 Y115.34 E18.1502
;
; 'Solid', 168.4 [RPM], 67.5 [mm/s]
G1 F15000
G1 X123 Y114.36 E18.1502
G1 F4050
G1 X117.29 Y108.65 E18.5701
G1 X117.99 Y108.65 E18.6068
G1 X123.29 Y113.94 E18.9956
G1 X123.28 Y113.23 E19.0325
G1 X118.7 Y108.65 E19.3692
G1 X119.41 Y108.65 E19.4059
G1 X123.64 Y112.89 E19.7171
G1 X124.31 Y112.85 E19.7519
G1 X120.12 Y108.65 E20.0603
G1 X120.82 Y108.65 E20.0971
G1 X124.57 Y112.4 E20.3726
G1 X124.57 Y111.69 E20.4094
G1 X121.53 Y108.65 E20.633
G1 X122.24 Y108.65 E20.6697
G1 X124.58 Y111 E20.8421
G1 X124.67 Y110.38 E20.8747
G1 X122.94 Y108.65 E21.0014
G1 X123.65 Y108.65 E21.0381
G1 X124.96 Y109.96 E21.134
G1 X125.39 Y109.68 E21.1606
G1 X124.36 Y108.65 E21.2362
G1 X125.07 Y108.65 E21.2729
G1 X125.99 Y109.58 E21.3412
G1 X126.7 Y109.58 E21.3779
G1 X125.77 Y108.65 E21.446
G1 X126.48 Y108.65 E21.4828
G1 X127.41 Y109.58 E21.551
G1 X128.11 Y109.58 E21.5877
G1 X127.19 Y108.65 E21.6559
G1 X127.89 Y108.65 E21.6926
G1 X128.82 Y109.58 E21.7608
G1 X129.53 Y109.58 E21.7975
G1 X128.6 Y108.65 E21.8657
G1 X129.31 Y108.65 E21.9024
G1 X130.24 Y109.58 E21.9706
G1 X130.94 Y109.58 E22.0074
G1 X130.02 Y108.65 E22.0755
G1 X130.72 Y108.65 E22.1123
G1 X131.65 Y109.58 E22.1804
G1 X132.36 Y109.58 E22.2172
G1 X131.43 Y108.65 E22.2853
G1 X132.14 Y108.65 E22.3221
G1 X133.06 Y109.58 E22.3903
G1 X133.77 Y109.58 E22.427
G1 X132.84 Y108.65 E22.4952
G1 X133.55 Y108.65 E22.5319
G1 X134.48 Y109.58 E22.6001
G1 X135.19 Y109.58 E22.6368
G1 X134.26 Y108.65 E22.705
G1 X134.97 Y108.65 E22.7417
G1 X135.89 Y109.58 E22.8099
G1 X136.6 Y109.58 E22.8467
G1 X135.67 Y108.65 E22.9148
G1 X136.38 Y108.65 E22.9516
G1 X136.71 Y108.98 E22.9759
G1 X137.03 Y108.59 E23.0021
G1 X137.01 Y108.58 E23.0031
;
; 'Wipe', 0.0 [RPM], 67.5 [mm/s]
G1 F15000
G1 X137.01 Y108.58 E23.0031
G1 F4050
G1 X137.03 Y108.59 E23.0031
G1 X136.71 Y108.98 E23.0031
G1 X136.38 Y108.65 E23.0031
G1 X135.67 Y108.65 E23.0031
G1 X136.6 Y109.58 E23.0031
G1 X135.89 Y109.58 E23.0031
G1 X134.97 Y108.65 E23.0031
;
; 'Stacked Sparse Infill', 180.0 [RPM], 72.2 [mm/s]
G1 F15000
G1 X116.56 Y124.89 E23.0031
G1 F4329.5
G1 X116.56 Y124.9 E23.0035
G1 X117.98 Y126.31 E23.1074
G1 X120.81 Y126.31 E23.2544
G1 X122.22 Y127.73 E23.3584
G1 X122.22 Y130.56 E23.5054
G1 X123.64 Y131.97 E23.6093
G1 X126.46 Y131.97 E23.7563
G1 X127.88 Y133.38 E23.8602
G1 X127.88 Y136.21 E24.0072
G1 X129.29 Y137.63 E24.1112
G1 X127.88 Y139.04 E24.2151
G1 X126.46 Y137.63 E24.319
G1 X126.46 Y137.63 E24.3191
G1 X122.22 Y133.39 E24.6308
G1 X122.22 Y133.38 E24.6309
G1 X120.81 Y131.97 E24.7349
G1 X116.56 Y127.73 E25.0466
G1 X116.56 Y127.73 E25.0467
G1 X115.15 Y126.31 E25.1506
G1 X120.81 Y125.18 E25.4505
G1 X121.28 Y125.09 E25.4754
G1 X121.75 Y125.06 E25.5
G1 X122.22 Y124.89 E25.526
G1 X122.22 Y124.9 E25.5263
G1 X123.64 Y126.31 E25.6303
G1 X126.46 Y126.31 E25.7773
G1 X127.88 Y127.73 E25.8812
G1 X127.88 Y130.56 E26.0282
G1 X129.29 Y131.97 E26.1321
G1 X132.12 Y131.97 E26.2791
G1 X133.54 Y133.38 E26.3831
G1 X134.95 Y131.97 E26.487
G1 X133.54 Y130.56 E26.5909
G1 X133.54 Y127.73 E26.7379
G1 X132.12 Y126.31 E26.8419
G1 X129.29 Y126.31 E26.9889
G1 X127.88 Y124.9 E27.0928
G1 X127.88 Y124.19 E27.1299
G1 X133.54 Y124.19 E27.4239
G1 X133.54 Y124.9 E27.461
G1 X134.95 Y126.31 E27.5649
G1 X137.78 Y126.31 E27.7119
G1 X139.19 Y127.73 E27.8159
G1 X140.61 Y126.31 E27.9198
G1 X139.19 Y124.9 E28.0238
G1 X139.19 Y124.19 E28.0609
;
; 'Wipe', 0.0 [RPM], 67.5 [mm/s]
G1 F15000
G1 X139.19 Y124.19 E28.0609
G1 F4050
G1 X139.19 Y124.9 E28.0609
G1 X140.61 Y126.31 E28.0609
G1 X139.19 Y127.73 E28.0609
G1 X138.84 Y127.37 E28.0609
;
; 'Loop', 180.0 [RPM], 72.2 [mm/s]
G1 F15000
G1 X135.45 Y112.85 E28.0609
G1 F4329.5
G1 X136.58 Y111.77 E28.1421
G1 X136.59 Y114.25 E28.2706
G1 X136.66 Y114.52 E28.2855
G1 X136.81 Y114.73 E28.2987
G1 X137.01 Y114.88 E28.3118
G1 X136.9 Y115.01 E28.3207
G1 X135.63 Y115.03 E28.3868
;
; 'Wipe', 0.0 [RPM], 67.5 [mm/s]
G1 F15000
G1 X135.63 Y115.03 E28.3868
G1 F4050
G1 X136.9 Y115.01 E28.3868
G1 X137.01 Y114.88 E28.3868
G1 X136.81 Y114.73 E28.3868
G1 X136.66 Y114.52 E28.3868
G1 X136.59 Y114.25 E28.3868
G1 X136.58 Y111.77 E28.3868
G1 X136.35 Y111.99 E28.3868
;
; 'Loop', 180.0 [RPM], 72.2 [mm/s]
G1 F15000
G1 X126.64 Y115.88 E28.3868
G1 F4329.5
G1 X126.63 Y116.05 E28.3956
G1 X126.64 Y118.36 E28.5158
G1 X136.55 Y118.36 E29.0307
G1 X135.33 Y117.09 E29.122
;
; 'Wipe', 0.0 [RPM], 67.5 [mm/s]
G1 F15000
G1 X135.33 Y117.09 E29.122
G1 F4050
G1 X136.55 Y118.36 E29.122
G1 X133.19 Y118.36 E29.122
;
; 'Loop', 180.0 [RPM], 72.2 [mm/s]
G1 F15000
G1 X126.67 Y115.74 E29.122
G1 F4329.5
G1 X126.81 Y115.7 E29.1296
G1 X127.85 Y115.68 E29.1837
;
; 'Wipe', 0.0 [RPM], 67.5 [mm/s]
G1 F15000
G1 X127.85 Y115.68 E29.1837
G1 F4050
G1 X126.81 Y115.7 E29.1837
G1 X126.67 Y115.74 E29.1837
;
; 'Perimeter', 180.0 [RPM], 72.2 [mm/s]
G1 F15000
G1 X126.16 Y115.75 E29.1837
G1 F4329.5
G1 X126.27 Y115.69 E29.1905
G1 X126.61 Y115.68 E29.2081
G1 X126.67 Y115.68 E29.211
G1 X127.84 Y115.67 E29.2719
;
; 'Wipe', 0.0 [RPM], 67.5 [mm/s]
G1 F15000
G1 X127.84 Y115.67 E29.2719
G1 F4050
G1 X126.96 Y115.67 E29.2719
G1 X126.44 Y115.68 E29.2719
G1 X126.27 Y115.69 E29.2719
G1 X126.16 Y115.75 E29.2719
;
; 'Loop', 180.0 [RPM], 72.2 [mm/s]
G1 F15000
G1 X139.56 Y106.68 E29.2719
G1 F4329.5
G1 X139.72 Y106.87 E29.2849
G1 X139.82 Y107.12 E29.2992
G1 X139.83 Y107.33 E29.3102
G1 X139.76 Y107.61 E29.3251
G1 X139.61 Y107.82 E29.3383
G1 X139.4 Y107.96 E29.3515
G1 X139.33 Y108.07 E29.3581
G1 X139.33 Y114.16 E29.6746
G1 X139.25 Y114.53 E29.6943
G1 X139.1 Y114.73 E29.7075
G1 X138.9 Y114.88 E29.7207
G1 X138.93 Y114.91 E29.7229
G1 X140.31 Y114.94 E29.7951
;
; 'Wipe', 0.0 [RPM], 67.5 [mm/s]
G1 F15000
G1 X140.31 Y114.94 E29.7951
G1 F4050
G1 X138.93 Y114.91 E29.7951
G1 X138.9 Y114.88 E29.7951
G1 X139.1 Y114.73 E29.7951
G1 X139.25 Y114.53 E29.7951
G1 X139.33 Y114.25 E29.7951
G1 X139.33 Y111.42 E29.7951
;
; 'Loop', 180.0 [RPM], 72.2 [mm/s]
G1 F15000
G1 X139.63 Y106.6 E29.7951
G1 F4329.5
G1 X140.4 Y105.78 E29.8536
;
; 'Perimeter', 180.0 [RPM], 72.2 [mm/s]
G1 F15000
G1 X139.52 Y106.66 E29.8536
G1 F4329.5
G1 X140.39 Y105.77 E29.9186
;
; 'Perimeter', 180.0 [RPM], 72.2 [mm/s]
G1 F15000
G1 X139.52 Y106.72 E29.9186
G1 F4329.5
G1 X139.52 Y106.84 E29.9249
G1 X139.29 Y107.12 E29.9435
G1 X139.33 Y107.26 E29.9509
G1 X139.32 Y107.35 E29.9559
G1 X139.26 Y107.46 E29.9626
G1 X139.15 Y107.53 E29.9693
G1 X138.83 Y107.56 E29.986
G1 X138.82 Y107.59 E29.9875
G1 X138.82 Y114.13 E30.3274
G1 X138.82 Y114.27 E30.3346
G1 X138.75 Y114.38 E30.3413
G1 X138.53 Y114.51 E30.3547
G1 X138.18 Y114.52 E30.3726
G1 X137.38 Y114.51 E30.4141
G1 X137.16 Y114.38 E30.4275
G1 X137.09 Y114.13 E30.4407
G1 X137.09 Y112.9 E30.505
G1 X137.09 Y111.45 E30.5804
G1 X137.06 Y111.3 E30.5881
G1 X136.6 Y111.7 E30.6195
G1 X135.35 Y112.93 E30.7105
;
; 'Wipe', 0.0 [RPM], 67.5 [mm/s]
G1 F15000
G1 X135.35 Y112.93 E30.7105
G1 F4050
G1 X136.6 Y111.7 E30.7105
G1 X137.06 Y111.3 E30.7105
G1 X137.09 Y111.45 E30.7105
G1 X137.09 Y113.96 E30.7105
;
; 'Perimeter', 180.0 [RPM], 72.2 [mm/s]
G1 F15000
G1 X135.7 Y115.04 E30.7105
G1 F4329.5
G1 X136.86 Y115.03 E30.7711
G1 X136.93 Y115.03 E30.7745
G1 X137.01 Y114.94 E30.781
G1 X138.6 Y114.94 E30.8635
G1 X140.3 Y114.95 E30.9521
;
; 'Wipe', 0.0 [RPM], 67.5 [mm/s]
G1 F15000
G1 X140.3 Y114.95 E30.9521
G1 F4050
G1 X138.6 Y114.94 E30.9521
G1 X137.01 Y114.94 E30.9521
G1 X136.93 Y115.03 E30.9521
G1 X136.86 Y115.03 E30.9521
G1 X135.7 Y115.04 E30.9521
;
; 'Perimeter', 180.0 [RPM], 72.2 [mm/s]
G1 F15000
G1 X126.13 Y115.87 E30.9521
G1 F4329.5
G1 X126.12 Y118.7 E31.0992
G1 X126.13 Y118.87 E31.108
G1 X136.87 Y118.87 E31.6661
G1 X136.73 Y118.7 E31.6776
G1 X136.74 Y118.51 E31.6873
G1 X135.34 Y117.08 E31.7913
;
; 'Wipe', 0.0 [RPM], 67.5 [mm/s]
G1 F15000
G1 X135.34 Y117.08 E31.7913
G1 F4050
G1 X136.74 Y118.51 E31.7913
G1 X136.73 Y118.7 E31.7913
G1 X136.87 Y118.87 E31.7913
G1 X134.26 Y118.87 E31.7913
;
; 'Solid', 168.4 [RPM], 67.5 [mm/s]
G1 F15000
G1 X140.25 Y114.64 E31.7913
G1 F4050
G1 X139.84 Y114.23 E31.8215
G1 X139.84 Y113.53 E31.8582
G1 X140.95 Y114.64 E31.9397
G1 X141.47 Y114.45 E31.9685
G1 X139.84 Y112.82 E32.0884
G1 X139.84 Y112.11 E32.1251
G1 X141.81 Y114.08 E32.2698
G1 X141.81 Y113.37 E32.3066
G1 X139.84 Y111.41 E32.4513
G1 X139.84 Y110.7 E32.488
G1 X141.81 Y112.67 E32.6327
G1 X141.81 Y111.96 E32.6694
G1 X139.84 Y109.99 E32.8141
G1 X139.84 Y109.28 E32.8509
G1 X141.81 Y111.25 E32.9955
G1 X141.81 Y110.55 E33.0323
G1 X139.82 Y108.56 E33.1784
G1 X140.06 Y108.09 E33.2057
G1 X141.81 Y109.84 E33.3343
G1 X141.81 Y109.13 E33.3711
G1 X140.32 Y107.65 E33.4802
G1 X140.22 Y106.84 E33.5227
G1 X141.81 Y108.42 E33.6394
G1 X141.81 Y107.72 E33.6762
G1 X140.21 Y106.12 E33.7938
;
; 'Wipe', 0.0 [RPM], 67.5 [mm/s]
G1 F15000
G1 X140.21 Y106.12 E33.7938
G1 F4050
G1 X141.81 Y107.72 E33.7938
G1 X141.81 Y108.42 E33.7938
G1 X140.22 Y106.84 E33.7938
;
; 'Sparse Infill', 180.0 [RPM], 72.2 [mm/s]
G1 F15000
G1 X142.02 Y106.51 E33.7938
G1 F4329.5
G1 X142.02 Y106.52 E33.7944
G1 X141.87 Y106.99 E33.82
G1 X142.17 Y107.46 E33.8489
G1 X142.02 Y107.93 E33.8745
G1 X142.38 Y108.29 E33.901
G1 X142.18 Y108.64 E33.922
G1 X142.22 Y108.99 E33.9404
G1 X142.02 Y109.34 E33.9615
G1 X142.38 Y109.7 E33.988
G1 X142.18 Y110.05 E34.009
G1 X142.22 Y110.4 E34.0274
G1 X142.02 Y110.75 E34.0484
G1 X142.38 Y111.11 E34.0749
G1 X142.18 Y111.47 E34.096
G1 X142.22 Y111.82 E34.1144
G1 X142.02 Y112.17 E34.1354
G1 X142.38 Y112.53 E34.1619
G1 X142.18 Y112.88 E34.1829
G1 X142.22 Y113.23 E34.2013
G1 X142.02 Y113.58 E34.2224
G1 X142.38 Y113.94 E34.2489
G1 X141.91 Y114.42 E34.2837
G1 X141.66 Y114.64 E34.3009
;
; 'Sparse Infill', 180.0 [RPM], 72.2 [mm/s]
G1 F15000
G1 X143.44 Y113.59 E34.3009
G1 F4329.5
G1 X142.72 Y112.88 E34.3533
G1 X143.44 Y112.18 E34.4053
G1 X142.72 Y111.46 E34.4578
G1 X143.44 Y110.76 E34.5098
G1 X142.72 Y110.05 E34.5622
G1 X143.44 Y109.35 E34.6142
G1 X142.72 Y108.63 E34.6667
G1 X143.44 Y107.93 E34.7187
G1 X142.37 Y106.86 E34.7971
;
; 'Sparse Infill', 180.0 [RPM], 72.2 [mm/s]
G1 F15000
G1 X143.79 Y113.94 E34.7971
G1 F4329.5
G1 X144.15 Y114.3 E34.8236
G1 X143.99 Y113.82 E34.8494
G1 X143.99 Y113.35 E34.8739
G1 X144.15 Y112.88 E34.8996
G1 X143.79 Y112.52 E34.9261
G1 X143.99 Y112.17 E34.9472
G1 X143.94 Y111.82 E34.9656
G1 X144.15 Y111.47 E34.9866
G1 X143.79 Y111.11 E35.0131
G1 X143.99 Y110.76 E35.0341
G1 X143.94 Y110.4 E35.0525
G1 X144.15 Y110.05 E35.0736
G1 X143.79 Y109.69 E35.1001
G1 X143.99 Y109.34 E35.1211
G1 X143.94 Y108.99 E35.1395
G1 X144.15 Y108.64 E35.1605
G1 X143.79 Y108.28 E35.187
G1 X143.99 Y107.93 E35.2081
G1 X143.94 Y107.58 E35.2265
G1 X144.15 Y107.23 E35.2475
G1 X143.79 Y106.86 E35.274
;
; 'Wipe', 0.0 [RPM], 67.5 [mm/s]
G1 F15000
G1 X143.79 Y106.86 E35.274
G1 F4050
G1 X144.15 Y107.23 E35.274
G1 X143.94 Y107.58 E35.274
G1 X143.99 Y107.93 E35.274
G1 X143.79 Y108.28 E35.274
G1 X144.15 Y108.64 E35.274
G1 X143.94 Y108.99 E35.274
G1 X143.99 Y109.34 E35.274
G1 X143.79 Y109.69 E35.274
G1 X144.15 Y110.05 E35.274
G1 X143.94 Y110.4 E35.274
G1 X143.99 Y110.76 E35.274
G1 X143.79 Y111.11 E35.274
;
; 'Stacked Sparse Infill', 180.0 [RPM], 72.2 [mm/s]
G1 F15000
G1 X144.14 Y105.8 E35.274
G1 F4329.5
G1 X144.85 Y106.51 E35.3262
G1 X144.85 Y107.93 E35.3997
G1 X146.26 Y109.34 E35.5037
G1 X147.68 Y109.34 E35.5772
G1 X150.51 Y112.17 E35.785
G1 X150.51 Y113.59 E35.8585
G1 X151.92 Y115 E35.9625
G1 X150.51 Y116.41 E36.0664
G1 X149.09 Y115 E36.1704
G1 X146.26 Y115 E36.3173
G1 X144.85 Y113.59 E36.4213
G1 X144.85 Y110.76 E36.5683
G1 X144.49 Y110.4 E36.5945
;
; 'Wipe', 0.0 [RPM], 67.5 [mm/s]
G1 F15000
G1 X144.49 Y110.4 E36.5945
G1 F4050
G1 X144.85 Y110.76 E36.5945
G1 X144.85 Y113.59 E36.5945
G1 X146.26 Y115 E36.5945
;
; 'Stacked Sparse Infill', 180.0 [RPM], 72.2 [mm/s]
G1 F15000
G1 X145.55 Y119.95 E36.5945
G1 F4329.5
G1 X146.26 Y120.66 E36.6467
;
; 'Wipe', 0.0 [RPM], 67.5 [mm/s]
G1 F15000
G1 X146.26 Y120.66 E36.6467
G1 F4050
G1 X145.55 Y119.95 E36.6467
;
; 'Stacked Sparse Infill', 180.0 [RPM], 72.2 [mm/s]
G1 F15000
G1 X134.96 Y115 E36.6467
G1 F4329.5
G1 X134.95 Y115 E36.6471
G1 X133.54 Y113.59 E36.7511
G1 X133.54 Y113.58 E36.7514
G1 X133.54 Y117.84 E36.9726
G1 X133.54 Y116.41 E37.0465
G1 X132.12 Y115 E37.1504
G1 X129.29 Y115 E37.2974
G1 X128.23 Y113.94 E37.3756
;
; 'Wipe', 0.0 [RPM], 67.5 [mm/s]
G1 F15000
G1 X128.23 Y113.94 E37.3756
G1 F4050
G1 X129.29 Y115 E37.3756
G1 X132.12 Y115 E37.3756
G1 X132.83 Y115.71 E37.3756
;
; 'Stacked Sparse Infill', 180.0 [RPM], 72.2 [mm/s]
G1 F15000
G1 X127.17 Y115.71 E37.3756
G1 F4329.5
G1 X127.88 Y116.41 E37.4277
G1 X127.88 Y117.84 E37.5015
;
; 'Wipe', 0.0 [RPM], 67.5 [mm/s]
G1 F15000
G1 X127.88 Y117.84 E37.5015
G1 F4050
G1 X127.88 Y116.41 E37.5015
G1 X127.17 Y115.71 E37.5015
; fan off
M107
G1 F210
G1 X127.17 Y115.71 Z0.75 E37.5015
; END_LAYER_OBJECT z=0.50
; Reset extruder pos
G92 E0
; BEGIN_LAYER_OBJECT z=0.75
; fan on
M106
;
; 'Perimeter', 180.0 [RPM], 72.2 [mm/s]
G1 F15000
G1 X115.14 Y108.1 E0
G1 F4329.5
G1 X115.14 Y107.74 E0.0184
G1 X115.21 Y107.64 E0.025
G1 X138.43 Y107.64 E1.2314
G1 X138.4 Y107.67 E1.2335
G1 X138.42 Y107.86 E1.2435
G1 X138.33 Y107.95 E1.25
G1 X138.34 Y108.13 E1.2595
G1 X138.25 Y108.22 E1.266
G1 X138.25 Y108.4 E1.2753
G1 X137.64 Y109.03 E1.3208
G1 X137.64 Y109.73 E1.3575
G1 X137.55 Y109.82 E1.364
G1 X137.53 Y110.34 E1.3908
G1 X137.44 Y110.42 E1.3974
G1 X137.38 Y110.54 E1.4042
G1 X137.23 Y110.6 E1.4125
G1 X126.09 Y110.6 E1.9913
G1 X125.78 Y110.61 E2.0075
G1 X125.67 Y110.67 E2.0142
G1 X125.6 Y110.92 E2.0274
G1 X125.59 Y111.1 E2.0369
G1 X125.59 Y113.77 E2.1759
G1 X125.57 Y113.92 E2.1839
G1 X125.43 Y113.92 E2.1911
G1 X125.39 Y113.78 E2.1986
G1 X125.39 Y113.6 E2.2077
G1 X125.2 Y113.43 E2.2207
G1 X125.02 Y113.44 E2.2303
G1 X124.75 Y113.18 E2.2497
G1 X124.57 Y113.18 E2.2591
G1 X124.4 Y113 E2.2721
G1 X124.22 Y113 E2.2813
G1 X124.13 Y112.92 E2.2878
G1 X123.95 Y112.92 E2.2971
G1 X123.86 Y112.83 E2.3036
;
; 'Wipe', 0.0 [RPM], 67.5 [mm/s]
G1 F15000
G1 X123.86 Y112.83 E2.3036
G1 F4050
G1 X123.95 Y112.92 E2.3036
G1 X124.13 Y112.92 E2.3036
G1 X124.22 Y113 E2.3036
G1 X124.4 Y113 E2.3036
G1 X124.57 Y113.18 E2.3036
G1 X124.75 Y113.18 E2.3036
G1 X125.02 Y113.44 E2.3036
G1 X125.2 Y113.43 E2.3036
G1 X125.39 Y113.6 E2.3036
G1 X125.39 Y113.78 E2.3036
G1 X125.43 Y113.92 E2.3036
G1 X125.57 Y113.92 E2.3036
G1 X125.59 Y113.77 E2.3036
G1 X125.59 Y111.12 E2.3036
;
; 'Perimeter', 180.0 [RPM], 72.2 [mm/s]
G1 F15000
G1 X125.65 Y114.51 E2.3036
G1 F4329.5
G1 X125.86 Y114.75 E2.32
G1 X125.77 Y114.83 E2.3265
G1 X125.74 Y114.84 E2.3278
G1 X125.68 Y114.74 E2.3338
G1 X125.73 Y114.62 E2.3407
G1 X125.8 Y114.61 E2.3441
G1 X125.86 Y114.72 E2.3508
G1 X125.86 Y114.75 E2.3523
G1 X125.54 Y114.72 E2.3687
;
; 'Wipe', 0.0 [RPM], 67.5 [mm/s]
G1 F15000
G1 X125.54 Y114.72 E2.3687
G1 F4050
G1 X125.86 Y114.75 E2.3687
G1 X125.86 Y114.72 E2.3687
G1 X125.8 Y114.61 E2.3687
G1 X125.73 Y114.62 E2.3687
G1 X125.68 Y114.74 E2.3687
G1 X125.74 Y114.84 E2.3687
G1 X125.77 Y114.83 E2.3687
G1 X125.86 Y114.75 E2.3687
G1 X125.65 Y114.51 E2.3687
;
; 'Loop', 180.0 [RPM], 72.2 [mm/s]
G1 F15000
G1 X123.31 Y115.15 E2.3687
G1 F4329.5
G1 X124.18 Y115.16 E2.414
G1 X124.52 Y115.18 E2.4315
G1 X124.52 Y115.36 E2.4407
G1 X124.58 Y115.64 E2.456
G1 X124.58 Y115.94 E2.4716
G1 X124.63 Y116.13 E2.4816
G1 X124.77 Y116.34 E2.4949
G1 X124.96 Y116.5 E2.5079
G1 X124.71 Y116.78 E2.5275
G1 X124.54 Y116.78 E2.5365
G1 X124.37 Y116.97 E2.5495
G1 X124.19 Y116.97 E2.5586
G1 X124.1 Y117.06 E2.5651
G1 X123.93 Y117.06 E2.5743
G1 X123.84 Y117.15 E2.5808
;
; 'Perimeter', 180.0 [RPM], 72.2 [mm/s]
G1 F15000
G1 X123.32 Y115.14 E2.5808
G1 F4329.5
G1 X124.2 Y115.14 E2.6265
G1 X124.55 Y115.15 E2.6446
G1 X124.89 Y115.16 E2.6623
G1 X125.02 Y115.21 E2.6695
G1 X125.03 Y115.37 E2.6783
G1 X125.1 Y115.49 E2.685
G1 X125.07 Y115.86 E2.7046
G1 X125.12 Y115.99 E2.7117
G1 X125.15 Y116.16 E2.7208
G1 X124.99 Y116.35 E2.7338
G1 X124.99 Y116.53 E2.7432
G1 X124.73 Y116.8 E2.7627
G1 X124.55 Y116.8 E2.7719
G1 X124.38 Y116.98 E2.7849
G1 X124.2 Y116.98 E2.794
G1 X124.12 Y117.07 E2.8005
G1 X123.94 Y117.07 E2.8097
G1 X123.85 Y117.16 E2.8162
;
; 'Wipe', 0.0 [RPM], 67.5 [mm/s]
G1 F15000
G1 X123.85 Y117.16 E2.8162
G1 F4050
G1 X123.94 Y117.07 E2.8162
G1 X124.12 Y117.07 E2.8162
G1 X124.2 Y116.98 E2.8162
G1 X124.38 Y116.98 E2.8162
G1 X124.55 Y116.8 E2.8162
G1 X124.73 Y116.8 E2.8162
G1 X124.99 Y116.53 E2.8162
G1 X124.99 Y116.35 E2.8162
G1 X125.15 Y116.16 E2.8162
G1 X125.12 Y115.99 E2.8162
G1 X125.07 Y115.86 E2.8162
G1 X125.1 Y115.49 E2.8162
G1 X125.03 Y115.37 E2.8162
G1 X125.02 Y115.21 E2.8162
G1 X124.89 Y115.16 E2.8162
G1 X124.38 Y115.14 E2.8162
G1 X124.31 Y115.15 E2.8162
G1 X123.32 Y115.14 E2.8162
;
; 'Loop', 180.0 [RPM], 72.2 [mm/s]
G1 F15000
G1 X125.31 Y123.58 E2.8162
G1 F4329.5
G1 X125.29 Y124.61 E2.8697
G1 X125.2 Y124.69 E2.8762
;
; 'Wipe', 0.0 [RPM], 67.5 [mm/s]
G1 F15000
G1 X125.2 Y124.69 E2.8762
G1 F4050
G1 X125.29 Y124.61 E2.8762
G1 X125.31 Y123.58 E2.8762
;
; 'Loop', 180.0 [RPM], 72.2 [mm/s]
G1 F15000
G1 X125.31 Y123.57 E2.8762
G1 F4329.5
G1 X125.4 Y123.49 E2.8827
G1 X125.83 Y123.41 E2.9054
G1 X136.46 Y123.41 E3.4579
G1 X139.12 Y123.41 E3.5957
G1 X139.26 Y123.42 E3.603
G1 X139.53 Y123.5 E3.618
G1 X139.89 Y123.49 E3.6365
G1 X139.91 Y123.82 E3.6537
G1 X140 Y123.91 E3.6601
G1 X140.01 Y124.43 E3.6873
G1 X140.1 Y124.52 E3.6938
G1 X140.1 Y124.7 E3.7029
;
; 'Wipe', 0.0 [RPM], 67.5 [mm/s]
G1 F15000
G1 X140.1 Y124.7 E3.7029
G1 F4050
G1 X140.1 Y124.52 E3.7029
G1 X140.01 Y124.43 E3.7029
G1 X140 Y123.91 E3.7029
G1 X139.91 Y123.82 E3.7029
G1 X139.89 Y123.49 E3.7029
G1 X139.53 Y123.5 E3.7029
G1 X139.12 Y123.41 E3.7029
G1 X136.46 Y123.41 E3.7029
G1 X136.11 Y123.41 E3.7029
;
; 'Perimeter', 180.0 [RPM], 72.2 [mm/s]
G1 F15000
G1 X125.3 Y123.24 E3.7029
G1 F4329.5
G1 X125.28 Y123.54 E3.7187
G1 X125.28 Y124.6 E3.7734
G1 X125.19 Y124.68 E3.7799
;
; 'Wipe', 0.0 [RPM], 67.5 [mm/s]
G1 F15000
G1 X125.19 Y124.68 E3.7799
G1 F4050
G1 X125.28 Y124.6 E3.7799
G1 X125.28 Y123.54 E3.7799
G1 X125.3 Y123.24 E3.7799
;
; 'Loop', 180.0 [RPM], 72.2 [mm/s]
G1 F15000
G1 X138.52 Y121.75 E3.7799
G1 F4329.5
G1 X138.4 Y121.81 E3.7868
G1 X138.3 Y121.72 E3.7933
G1 X138.3 Y121.55 E3.8022
G1 X137.67 Y120.95 E3.8477
G1 X137.67 Y120.9 E3.8502
G1 X138.03 Y120.55 E3.8762
G1 X138.02 Y120.37 E3.8854
G1 X138.3 Y120.12 E3.9049
G1 X138.3 Y119.94 E3.9141
G1 X138.39 Y119.85 E3.9206
G1 X138.39 Y119.5 E3.939
G1 X138.48 Y119.41 E3.9455
G1 X138.48 Y119.25 E3.9543
G1 X138.3 Y119.25 E3.9634
G1 X138.24 Y119.17 E3.9686
G1 X138.21 Y118.99 E3.9782
G1 X138.13 Y118.71 E3.9931
G1 X138.13 Y116.59 E4.1035
G1 X138.24 Y116.52 E4.1102
G1 X138.55 Y116.52 E4.1264
G1 X138.58 Y116.67 E4.1342
G1 X138.58 Y121.64 E4.3923
G1 X138.52 Y121.75 E4.399
;
; 'Perimeter', 180.0 [RPM], 72.2 [mm/s]
G1 F15000
G1 X138.84 Y121.75 E4.399
G1 F4329.5
G1 X138.96 Y122.01 E4.4142
G1 X138.87 Y122.1 E4.4207
G1 X138.65 Y122.24 E4.434
G1 X138.37 Y122.01 E4.4527
G1 X138.37 Y121.84 E4.4618
G1 X138.28 Y121.75 E4.4683
G1 X138.28 Y121.57 E4.4774
G1 X137.65 Y120.96 E4.5229
G1 X137.65 Y120.88 E4.5267
G1 X138.01 Y120.53 E4.5527
G1 X138.01 Y120.36 E4.562
G1 X138.28 Y120.1 E4.5815
G1 X138.28 Y119.92 E4.5908
G1 X138.37 Y119.83 E4.5973
G1 X138.36 Y119.47 E4.6158
G1 X138.46 Y119.39 E4.6223
G1 X138.46 Y119.27 E4.6285
G1 X138.1 Y119.27 E4.6468
G1 X137.77 Y119.25 E4.6641
G1 X137.74 Y119.2 E4.6673
G1 X137.72 Y119.12 E4.6715
G1 X137.63 Y118.86 E4.6857
G1 X137.63 Y118.51 E4.7041
G1 X137.63 Y116.09 E4.8301
G1 X137.74 Y116.02 E4.8368
G1 X139.05 Y116.02 E4.9052
G1 X139.09 Y116.17 E4.9129
G1 X139.09 Y121.82 E5.2069
G1 X138.96 Y122.01 E5.2189
G1 X138.68 Y121.93 E5.2341
;
; 'Wipe', 0.0 [RPM], 67.5 [mm/s]
G1 F15000
G1 X138.68 Y121.93 E5.2341
G1 F4050
G1 X138.96 Y122.01 E5.2341
G1 X139.09 Y121.82 E5.2341
G1 X139.09 Y117.23 E5.2341
;
; 'Perimeter', 180.0 [RPM], 72.2 [mm/s]
G1 F15000
G1 X125.29 Y123.2 E5.2341
G1 F4329.5
G1 X125.39 Y123.11 E5.2406
G1 X125.42 Y122.98 E5.2481
G1 X125.63 Y122.91 E5.2593
G1 X139.24 Y122.91 E5.9667
G1 X139.32 Y122.9 E5.9707
G1 X139.41 Y122.92 E5.9753
G1 X139.52 Y122.99 E5.982
G1 X139.77 Y123 E5.9952
G1 X139.82 Y123.04 E5.9983
G1 X139.84 Y123.37 E6.0156
G1 X139.93 Y123.46 E6.0221
G1 X139.93 Y123.8 E6.0403
G1 X140.02 Y123.89 E6.0468
G1 X140.03 Y124.42 E6.0742
G1 X140.11 Y124.51 E6.0807
G1 X140.12 Y124.68 E6.0898
;
; 'Wipe', 0.0 [RPM], 67.5 [mm/s]
G1 F15000
G1 X140.12 Y124.68 E6.0898
G1 F4050
G1 X140.11 Y124.51 E6.0898
G1 X140.03 Y124.42 E6.0898
G1 X140.02 Y123.89 E6.0898
G1 X139.93 Y123.8 E6.0898
G1 X139.93 Y123.46 E6.0898
G1 X139.84 Y123.37 E6.0898
G1 X139.82 Y123.04 E6.0898
G1 X139.77 Y123 E6.0898
G1 X139.52 Y122.99 E6.0898
G1 X139.41 Y122.92 E6.0898
G1 X139.32 Y122.9 E6.0898
G1 X136.59 Y122.91 E6.0898
;
; 'Loop', 180.0 [RPM], 72.2 [mm/s]
G1 F15000
G1 X115.65 Y108.32 E6.0898
G1 F4329.5
G1 X115.65 Y121.75 E6.788
G1 X115.71 Y121.86 E6.7947
G1 X125.02 Y121.86 E7.2782
G1 X125.32 Y121.81 E7.294
G1 X125.34 Y120.9 E7.3412
G1 X125.25 Y120.81 E7.3477
G1 X124.9 Y120.81 E7.366
G1 X124.81 Y120.72 E7.3725
G1 X124.63 Y120.72 E7.3818
G1 X124.55 Y120.63 E7.3883
;
; 'Loop', 180.0 [RPM], 72.2 [mm/s]
G1 F15000
G1 X115.65 Y108.25 E7.3883
G1 F4329.5
G1 X115.71 Y108.14 E7.395
G1 X138.28 Y108.14 E8.5675
G1 X138.22 Y108.2 E8.5716
G1 X138.23 Y108.38 E8.5811
G1 X137.62 Y109.01 E8.6266
G1 X137.62 Y109.71 E8.6629
G1 X137.52 Y109.8 E8.6694
G1 X137.52 Y109.97 E8.6782
G1 X137.45 Y110.02 E8.6827
G1 X137.11 Y110.09 E8.7007
G1 X126.07 Y110.09 E9.2746
G1 X125.69 Y110.11 E9.2941
G1 X125.42 Y110.24 E9.31
G1 X125.24 Y110.42 E9.323
G1 X125.12 Y110.65 E9.3368
G1 X125.09 Y111.08 E9.3588
G1 X125.09 Y113.37 E9.4782
G1 X125.05 Y113.41 E9.481
G1 X124.77 Y113.16 E9.5005
G1 X124.59 Y113.16 E9.5099
G1 X124.41 Y112.99 E9.5229
G1 X124.23 Y112.99 E9.5322
G1 X124.14 Y112.9 E9.5387
G1 X123.96 Y112.9 E9.548
G1 X123.87 Y112.82 E9.5545
;
; 'Wipe', 0.0 [RPM], 67.5 [mm/s]
G1 F15000
G1 X123.87 Y112.82 E9.5545
G1 F4050
G1 X123.96 Y112.9 E9.5545
G1 X124.14 Y112.9 E9.5545
G1 X124.23 Y112.99 E9.5545
G1 X124.41 Y112.99 E9.5545
G1 X124.59 Y113.16 E9.5545
G1 X124.77 Y113.16 E9.5545
G1 X125.05 Y113.41 E9.5545
G1 X125.09 Y113.37 E9.5545
G1 X125.09 Y111.08 E9.5545
G1 X125.12 Y110.65 E9.5545
G1 X125.24 Y110.42 E9.5545
G1 X125.42 Y110.24 E9.5545
G1 X125.53 Y110.17 E9.5545
G1 X125.69 Y110.11 E9.5545
;
; 'Perimeter', 180.0 [RPM], 72.2 [mm/s]
G1 F15000
G1 X115.14 Y108.12 E9.5545
G1 F4329.5
G1 X115.14 Y122.26 E10.2895
G1 X115.21 Y122.36 E10.2961
G1 X125.17 Y122.36 E10.8135
G1 X125.3 Y122.32 E10.8208
G1 X125.33 Y122.18 E10.8285
G1 X125.35 Y121.66 E10.8553
G1 X125.35 Y120.89 E10.8956
G1 X125.26 Y120.8 E10.9021
G1 X124.91 Y120.8 E10.9205
G1 X124.82 Y120.71 E10.927
G1 X124.65 Y120.71 E10.9363
G1 X124.56 Y120.62 E10.9428
;
; 'Solid', 168.4 [RPM], 67.5 [mm/s]
G1 F15000
G1 X125.06 Y121.36 E10.9428
G1 F4050
G1 X124.36 Y121.35 E10.979
G1 X124.69 Y121.02 E11.003
G1 X124.36 Y120.64 E11.0291
G1 X123.65 Y121.35 E11.0815
G1 X122.94 Y121.35 E11.1182
G1 X124.01 Y120.28 E11.1968
G1 X123.66 Y119.93 E11.2227
G1 X122.24 Y121.35 E11.327
G1 X121.53 Y121.35 E11.3637
G1 X123.63 Y119.24 E11.5184
G1 X123.63 Y118.54 E11.5551
G1 X120.82 Y121.35 E11.7617
G1 X120.12 Y121.35 E11.7985
G1 X123.56 Y117.91 E12.0514
G1 X124.15 Y116.6 E12.1259
G1 X119.41 Y121.35 E12.4747
G1 X118.7 Y121.35 E12.5114
G1 X124.08 Y115.97 E12.9069
G1 X123.94 Y115.4 E12.9372
G1 X117.99 Y121.35 E13.3742
G1 X117.29 Y121.35 E13.411
G1 X123.31 Y115.33 E13.8533
G1 X122.95 Y114.98 E13.8793
G1 X116.56 Y121.37 E14.3487
G1 X116.14 Y121.08 E14.3752
G1 X123.36 Y113.86 E14.9056
;
; 'Solid', 168.4 [RPM], 67.5 [mm/s]
G1 F15000
G1 X124.31 Y112.91 E14.9056
G1 F4050
G1 X124.57 Y112.65 E14.925
G1 X124.57 Y111.94 E14.9618
G1 X116.16 Y120.35 E15.58
G1 X116.16 Y119.65 E15.6168
G1 X124.55 Y111.26 E16.2332
G1 X124.76 Y110.34 E16.282
G1 X116.16 Y118.94 E16.9138
G1 X116.16 Y118.23 E16.9505
G1 X125.74 Y108.65 E17.6547
G1 X125.03 Y108.65 E17.6914
G1 X116.16 Y117.53 E18.3436
G1 X116.16 Y116.82 E18.3803
G1 X124.33 Y108.65 E18.9805
G1 X123.62 Y108.65 E19.0173
G1 X116.16 Y116.11 E19.5655
G1 X116.16 Y115.4 E19.6023
G1 X122.91 Y108.65 E20.0985
G1 X122.21 Y108.65 E20.1353
G1 X116.16 Y114.7 E20.5796
G1 X116.16 Y113.99 E20.6163
G1 X121.5 Y108.65 E21.0087
G1 X120.79 Y108.65 E21.0454
G1 X116.16 Y113.28 E21.3858
G1 X116.16 Y112.58 E21.4225
G1 X120.08 Y108.65 E21.7109
G1 X119.38 Y108.65 E21.7477
G1 X116.16 Y111.87 E21.9841
G1 X116.16 Y111.16 E22.0208
G1 X118.67 Y108.65 E22.2053
G1 X117.96 Y108.65 E22.2421
G1 X116.16 Y110.45 E22.3745
G1 X116.16 Y109.75 E22.4113
G1 X117.26 Y108.65 E22.4918
G1 X116.55 Y108.65 E22.5286
G1 X116.14 Y109.06 E22.5587
;
; 'Wipe', 0.0 [RPM], 67.5 [mm/s]
G1 F15000
G1 X116.14 Y109.06 E22.5587
G1 F4050
G1 X116.55 Y108.65 E22.5587
G1 X117.26 Y108.65 E22.5587
G1 X116.16 Y109.75 E22.5587
G1 X116.16 Y110.45 E22.5587
G1 X117.96 Y108.65 E22.5587
;
; 'Solid', 168.4 [RPM], 67.5 [mm/s]
G1 F15000
G1 X125.24 Y109.86 E22.5587
G1 F4050
G1 X126.45 Y108.65 E22.6472
G1 X127.16 Y108.65 E22.684
G1 X126.23 Y109.58 E22.7522
G1 X126.94 Y109.58 E22.7889
G1 X127.86 Y108.65 E22.8571
G1 X128.57 Y108.65 E22.8938
G1 X127.64 Y109.58 E22.962
G1 X128.35 Y109.58 E22.9987
G1 X129.28 Y108.65 E23.0669
G1 X129.98 Y108.65 E23.1036
G1 X129.06 Y109.58 E23.1718
G1 X129.76 Y109.58 E23.2086
G1 X130.69 Y108.65 E23.2767
G1 X131.4 Y108.65 E23.3135
G1 X130.47 Y109.58 E23.3816
G1 X131.18 Y109.58 E23.4184
G1 X132.11 Y108.65 E23.4865
G1 X132.81 Y108.65 E23.5233
G1 X131.89 Y109.58 E23.5915
G1 X132.59 Y109.58 E23.6282
G1 X133.52 Y108.65 E23.6964
G1 X134.23 Y108.65 E23.7331
G1 X133.3 Y109.58 E23.8013
G1 X134.01 Y109.58 E23.838
G1 X134.93 Y108.65 E23.9062
G1 X135.64 Y108.65 E23.9429
G1 X134.71 Y109.58 E24.0111
G1 X135.42 Y109.58 E24.0479
G1 X136.35 Y108.65 E24.116
G1 X137.06 Y108.65 E24.1528
G1 X136.13 Y109.58 E24.2209
G1 X136.84 Y109.58 E24.2578
G1 X137.84 Y108.58 E24.3313
;
; 'Wipe', 0.0 [RPM], 67.5 [mm/s]
G1 F15000
G1 X137.84 Y108.58 E24.3313
G1 F4050
G1 X136.84 Y109.58 E24.3313
G1 X136.13 Y109.58 E24.3313
G1 X137.06 Y108.65 E24.3313
G1 X136.35 Y108.65 E24.3313
G1 X135.42 Y109.58 E24.3313
;
; 'Stacked Sparse Infill', 180.0 [RPM], 72.2 [mm/s]
G1 F15000
G1 X142.02 Y124.9 E24.3313
G1 F4329.5
G1 X127.88 Y139.04 E25.3709
G1 X126.46 Y137.63 E25.4749
G1 X127.88 Y136.21 E25.5788
G1 X127.88 Y133.38 E25.7258
G1 X129.29 Y131.97 E25.8297
G1 X132.12 Y131.97 E25.9767
G1 X133.54 Y130.56 E26.0807
G1 X133.54 Y127.73 E26.2276
G1 X134.95 Y126.31 E26.3316
G1 X137.78 Y126.31 E26.4786
G1 X139.19 Y124.9 E26.5825
G1 X139.19 Y124.19 E26.6196
G1 X133.54 Y124.19 E26.9136
G1 X133.54 Y124.9 E26.9507
G1 X132.12 Y126.31 E27.0547
G1 X129.29 Y126.31 E27.2016
G1 X127.88 Y127.73 E27.3056
G1 X127.88 Y130.56 E27.4526
G1 X126.46 Y131.97 E27.5565
G1 X123.64 Y131.97 E27.7035
G1 X122.22 Y133.38 E27.8074
G1 X120.81 Y131.97 E27.9114
G1 X122.22 Y130.56 E28.0153
G1 X122.22 Y127.73 E28.1623
G1 X123.64 Y126.31 E28.2662
G1 X126.46 Y126.31 E28.4132
G1 X127.88 Y124.9 E28.5172
G1 X127.88 Y124.19 E28.5543
G1 X125.52 Y124.48 E28.6777
G1 X125.23 Y124.72 E28.6973
G1 X124.58 Y125.04 E28.735
G1 X124.11 Y125.04 E28.7595
G1 X123.64 Y124.94 E28.7846
G1 X123.16 Y125.03 E28.8096
G1 X122.69 Y125.04 E28.8341
G1 X122.22 Y124.89 E28.8597
G1 X122.22 Y124.9 E28.86
G1 X120.81 Y126.31 E28.964
G1 X117.98 Y126.31 E29.111
G1 X116.56 Y127.73 E29.2149
G1 X115.15 Y126.31 E29.3189
G1 X116.56 Y124.9 E29.4228
G1 X116.56 Y124.89 E29.4232
;
; 'Wipe', 0.0 [RPM], 67.5 [mm/s]
G1 F15000
G1 X116.56 Y124.89 E29.4232
G1 F4050
G1 X116.56 Y124.9 E29.4232
G1 X115.15 Y126.31 E29.4232
G1 X116.56 Y127.73 E29.4232
G1 X117.27 Y127.02 E29.4232
;
; 'Loop', 180.0 [RPM], 72.2 [mm/s]
G1 F15000
G1 X135.45 Y112.85 E29.4232
G1 F4329.5
G1 X136.58 Y111.77 E29.5043
G1 X136.59 Y114.25 E29.6328
G1 X136.66 Y114.52 E29.6478
G1 X136.81 Y114.73 E29.661
G1 X137.01 Y114.88 E29.6741
G1 X136.9 Y115.01 E29.683
G1 X135.63 Y115.03 E29.7491
;
; 'Wipe', 0.0 [RPM], 67.5 [mm/s]
G1 F15000
G1 X135.63 Y115.03 E29.7491
G1 F4050
G1 X136.9 Y115.01 E29.7491
G1 X137.01 Y114.88 E29.7491
G1 X136.81 Y114.73 E29.7491
G1 X136.66 Y114.52 E29.7491
G1 X136.59 Y114.25 E29.7491
G1 X136.58 Y111.77 E29.7491
G1 X136.35 Y111.99 E29.7491
;
; 'Loop', 180.0 [RPM], 72.2 [mm/s]
G1 F15000
G1 X126.64 Y115.88 E29.7491
G1 F4329.5
G1 X126.63 Y116.05 E29.7578
G1 X126.64 Y118.36 E29.8781
G1 X136.55 Y118.36 E30.393
G1 X135.33 Y117.09 E30.4843
;
; 'Wipe', 0.0 [RPM], 67.5 [mm/s]
G1 F15000
G1 X135.33 Y117.09 E30.4843
G1 F4050
G1 X136.55 Y118.36 E30.4843
G1 X133.19 Y118.36 E30.4843
;
; 'Loop', 180.0 [RPM], 72.2 [mm/s]
G1 F15000
G1 X126.67 Y115.74 E30.4843
G1 F4329.5
G1 X126.81 Y115.7 E30.4919
G1 X127.85 Y115.68 E30.546
;
; 'Wipe', 0.0 [RPM], 67.5 [mm/s]
G1 F15000
G1 X127.85 Y115.68 E30.546
G1 F4050
G1 X126.81 Y115.7 E30.546
G1 X126.67 Y115.74 E30.546
;
; 'Perimeter', 180.0 [RPM], 72.2 [mm/s]
G1 F15000
G1 X126.16 Y115.75 E30.546
G1 F4329.5
G1 X126.27 Y115.69 E30.5528
G1 X126.61 Y115.68 E30.5704
G1 X126.67 Y115.68 E30.5733
G1 X127.84 Y115.67 E30.6342
;
; 'Wipe', 0.0 [RPM], 67.5 [mm/s]
G1 F15000
G1 X127.84 Y115.67 E30.6342
G1 F4050
G1 X126.96 Y115.67 E30.6342
G1 X126.44 Y115.68 E30.6342
G1 X126.27 Y115.69 E30.6342
G1 X126.16 Y115.75 E30.6342
;
; 'Loop', 180.0 [RPM], 72.2 [mm/s]
G1 F15000
G1 X140.34 Y106.6 E30.6342
G1 F4329.5
G1 X141.11 Y105.78 E30.6927
;
; 'Perimeter', 180.0 [RPM], 72.2 [mm/s]
G1 F15000
G1 X140.31 Y106.57 E30.6927
G1 F4329.5
G1 X141.1 Y105.77 E30.7512
;
; 'Loop', 180.0 [RPM], 72.2 [mm/s]
G1 F15000
G1 X140.34 Y106.61 E30.7512
G1 F4329.5
G1 X140.36 Y106.76 E30.7593
G1 X140.49 Y106.98 E30.7727
G1 X140.54 Y107.15 E30.7817
G1 X140.54 Y107.33 E30.7912
G1 X140.47 Y107.61 E30.8062
G1 X140.32 Y107.82 E30.8194
G1 X140.13 Y107.98 E30.8324
G1 X140.13 Y114.17 E31.1539
G1 X140.06 Y114.45 E31.1692
G1 X139.94 Y114.69 E31.1828
G1 X139.76 Y114.86 E31.1958
G1 X139.81 Y114.92 E31.1994
G1 X141.07 Y114.94 E31.2652
;
; 'Wipe', 0.0 [RPM], 67.5 [mm/s]
G1 F15000
G1 X141.07 Y114.94 E31.2652
G1 F4050
G1 X139.81 Y114.92 E31.2652
G1 X139.76 Y114.86 E31.2652
G1 X139.94 Y114.69 E31.2652
G1 X140.06 Y114.45 E31.2652
G1 X140.13 Y114.17 E31.2652
G1 X140.13 Y111.24 E31.2652
;
; 'Perimeter', 180.0 [RPM], 72.2 [mm/s]
G1 F15000
G1 X140.31 Y106.64 E31.2652
G1 F4329.5
G1 X140.31 Y106.75 E31.2712
G1 X140 Y107.12 E31.2963
G1 X140.04 Y107.26 E31.3037
G1 X140.03 Y107.35 E31.3088
G1 X139.97 Y107.46 E31.3155
G1 X139.86 Y107.53 E31.3222
G1 X139.7 Y107.56 E31.3303
G1 X139.62 Y107.65 E31.3368
G1 X139.62 Y114.19 E31.6767
G1 X139.51 Y114.43 E31.6904
G1 X139.33 Y114.5 E31.7001
G1 X139.14 Y114.52 E31.7102
G1 X137.48 Y114.52 E31.7967
G1 X137.38 Y114.51 E31.8016
G1 X137.16 Y114.38 E31.8149
G1 X137.09 Y114.13 E31.8281
G1 X137.09 Y112.9 E31.8925
G1 X137.09 Y111.45 E31.9678
G1 X137.06 Y111.3 E31.9755
G1 X136.6 Y111.7 E32.007
G1 X135.35 Y112.93 E32.0979
;
; 'Wipe', 0.0 [RPM], 67.5 [mm/s]
G1 F15000
G1 X135.35 Y112.93 E32.0979
G1 F4050
G1 X136.6 Y111.7 E32.0979
G1 X137.06 Y111.3 E32.0979
G1 X137.09 Y111.45 E32.0979
G1 X137.09 Y113.96 E32.0979
;
; 'Perimeter', 180.0 [RPM], 72.2 [mm/s]
G1 F15000
G1 X135.7 Y115.04 E32.0979
G1 F4329.5
G1 X136.86 Y115.03 E32.1586
G1 X136.93 Y115.03 E32.162
G1 X137.01 Y114.94 E32.1685
G1 X139.48 Y114.94 E32.2969
G1 X140.31 Y114.95 E32.3397
G1 X141.09 Y114.95 E32.3802
;
; 'Wipe', 0.0 [RPM], 67.5 [mm/s]
G1 F15000
G1 X141.09 Y114.95 E32.3802
G1 F4050
G1 X139.48 Y114.94 E32.3802
G1 X137.31 Y114.94 E32.3802
G1 X137.01 Y114.94 E32.3802
G1 X136.93 Y115.03 E32.3802
G1 X136.05 Y115.04 E32.3802
;
; 'Perimeter', 180.0 [RPM], 72.2 [mm/s]
G1 F15000
G1 X126.13 Y115.87 E32.3802
G1 F4329.5
G1 X126.12 Y118.7 E32.5273
G1 X126.13 Y118.87 E32.5361
G1 X136.87 Y118.87 E33.0942
G1 X136.73 Y118.7 E33.1057
G1 X136.74 Y118.51 E33.1154
G1 X135.34 Y117.08 E33.2194
;
; 'Wipe', 0.0 [RPM], 67.5 [mm/s]
G1 F15000
G1 X135.34 Y117.08 E33.2194
G1 F4050
G1 X136.74 Y118.51 E33.2194
G1 X136.73 Y118.7 E33.2194
G1 X136.87 Y118.87 E33.2194
G1 X134.26 Y118.87 E33.2194
;
; 'Solid', 168.4 [RPM], 67.5 [mm/s]
G1 F15000
G1 X142.16 Y114.86 E33.2194
G1 F4050
G1 X142.52 Y114.5 E33.2458
G1 X142.52 Y113.8 E33.2826
G1 X141.71 Y114.6 E33.3416
G1 X140.98 Y114.62 E33.3795
G1 X142.52 Y113.09 E33.4921
G1 X142.52 Y112.38 E33.5288
G1 X140.61 Y114.29 E33.669
G1 X140.65 Y113.55 E33.7077
G1 X142.52 Y111.68 E33.8452
G1 X142.52 Y110.97 E33.8819
G1 X140.64 Y112.84 E34.0198
G1 X140.64 Y112.14 E34.0565
G1 X142.52 Y110.26 E34.1943
G1 X142.52 Y109.55 E34.2311
G1 X140.64 Y111.43 E34.3689
G1 X140.64 Y110.72 E34.4056
G1 X142.52 Y108.85 E34.5434
G1 X142.52 Y108.14 E34.5802
G1 X140.64 Y110.02 E34.718
G1 X140.64 Y109.31 E34.7548
G1 X142.54 Y107.41 E34.8942
G1 X142.19 Y107.06 E34.9202
G1 X140.69 Y108.56 E35.0303
G1 X141.05 Y107.49 E35.089
G1 X141.66 Y106.87 E35.1342
G1 X141.31 Y106.52 E35.1601
G1 X140.98 Y106.85 E35.1843
G1 X140.72 Y106.4 E35.2113
G1 X140.95 Y106.17 E35.2278
;
; 'Wipe', 0.0 [RPM], 67.5 [mm/s]
G1 F15000
G1 X140.95 Y106.17 E35.2278
G1 F4050
G1 X140.72 Y106.4 E35.2278
G1 X140.98 Y106.85 E35.2278
G1 X141.31 Y106.52 E35.2278
G1 X141.66 Y106.87 E35.2278
G1 X141.05 Y107.49 E35.2278
G1 X140.69 Y108.56 E35.2278
G1 X142.19 Y107.06 E35.2278
;
; 'Sparse Infill', 180.0 [RPM], 72.2 [mm/s]
G1 F15000
G1 X142.72 Y107.23 E35.2278
G1 F4329.5
G1 X142.97 Y107.45 E35.2449
G1 X143.44 Y107.93 E35.2798
G1 X142.72 Y108.64 E35.3323
G1 X143.44 Y109.34 E35.3842
G1 X142.72 Y110.05 E35.4367
G1 X143.44 Y110.75 E35.4887
G1 X142.72 Y111.47 E35.5412
G1 X143.44 Y112.17 E35.5931
G1 X142.72 Y112.88 E35.6456
G1 X143.44 Y113.58 E35.6976
G1 X142.02 Y115 E35.802
;
; 'Wipe', 0.0 [RPM], 67.5 [mm/s]
G1 F15000
G1 X142.02 Y115 E35.802
G1 F4050
G1 X143.44 Y113.58 E35.802
G1 X142.72 Y112.88 E35.802
G1 X143.44 Y112.17 E35.802
G1 X142.72 Y111.47 E35.802
;
; 'Sparse Infill', 180.0 [RPM], 72.2 [mm/s]
G1 F15000
G1 X143.79 Y114.65 E35.802
G1 F4329.5
G1 X144.15 Y114.29 E35.8285
G1 X143.94 Y113.94 E35.8496
G1 X143.99 Y113.59 E35.868
G1 X143.79 Y113.24 E35.889
G1 X144.15 Y112.88 E35.9155
G1 X143.94 Y112.52 E35.9366
G1 X143.99 Y112.17 E35.9549
G1 X143.79 Y111.82 E35.976
G1 X144.15 Y111.46 E36.0025
G1 X143.94 Y111.11 E36.0235
G1 X143.99 Y110.76 E36.0419
G1 X143.79 Y110.41 E36.063
G1 X144.15 Y110.05 E36.0895
G1 X143.94 Y109.7 E36.1105
G1 X143.99 Y109.34 E36.1289
G1 X143.79 Y108.99 E36.1499
G1 X144.15 Y108.63 E36.1764
G1 X143.94 Y108.28 E36.1975
G1 X143.99 Y107.93 E36.2159
G1 X143.79 Y107.58 E36.2369
G1 X144.15 Y107.22 E36.2634
;
; 'Sparse Infill', 180.0 [RPM], 72.2 [mm/s]
G1 F15000
G1 X144.49 Y106.87 E36.2634
G1 F4329.5
G1 X144.5 Y106.86 E36.2639
G1 X144.7 Y107.22 E36.2849
G1 X144.65 Y107.57 E36.3034
G1 X144.85 Y107.93 E36.3246
G1 X144.49 Y108.29 E36.3511
G1 X144.69 Y108.64 E36.3721
G1 X144.65 Y108.99 E36.3905
G1 X144.85 Y109.34 E36.4115
G1 X144.49 Y109.7 E36.438
G1 X144.69 Y110.05 E36.4591
G1 X144.65 Y110.4 E36.4775
G1 X144.85 Y110.75 E36.4985
G1 X144.49 Y111.11 E36.525
G1 X144.69 Y111.47 E36.546
G1 X144.65 Y111.82 E36.5644
G1 X144.85 Y112.17 E36.5855
G1 X144.49 Y112.53 E36.612
G1 X144.69 Y112.88 E36.633
G1 X144.65 Y113.23 E36.6514
G1 X144.85 Y113.58 E36.6724
G1 X144.49 Y113.94 E36.6989
;
; 'Wipe', 0.0 [RPM], 67.5 [mm/s]
G1 F15000
G1 X144.49 Y113.94 E36.6989
G1 F4050
G1 X144.85 Y113.58 E36.6989
G1 X144.65 Y113.23 E36.6989
G1 X144.69 Y112.88 E36.6989
G1 X144.49 Y112.53 E36.6989
G1 X144.85 Y112.17 E36.6989
G1 X144.65 Y111.82 E36.6989
G1 X144.69 Y111.47 E36.6989
G1 X144.49 Y111.11 E36.6989
G1 X144.85 Y110.75 E36.6989
G1 X144.65 Y110.4 E36.6989
G1 X144.69 Y110.05 E36.6989
G1 X144.49 Y109.7 E36.6989
;
; 'Stacked Sparse Infill', 180.0 [RPM], 72.2 [mm/s]
G1 F15000
G1 X145.55 Y121.37 E36.6989
G1 F4329.5
G1 X152.63 Y114.29 E37.2189
G1 X150.51 Y112.17 E37.3748
G1 X150.51 Y113.59 E37.4483
G1 X149.09 Y115 E37.5522
G1 X146.26 Y115 E37.6992
G1 X145.2 Y116.06 E37.7774
G1 X145.2 Y114.65 E37.8511
G1 X145.35 Y114.18 E37.8768
G1 X145.35 Y113.71 E37.9013
G1 X145.2 Y113.24 E37.927
G1 X145.35 Y112.76 E37.9528
G1 X145.35 Y112.29 E37.9772
G1 X145.2 Y111.82 E38.003
G1 X145.35 Y111.35 E38.0287
G1 X145.35 Y110.88 E38.0532
G1 X145.2 Y110.41 E38.079
G1 X146.26 Y109.34 E38.1572
G1 X147.68 Y109.34 E38.2307
G1 X144.85 Y106.52 E38.4383
G1 X144.85 Y106.51 E38.4387
;
; 'Wipe', 0.0 [RPM], 67.5 [mm/s]
G1 F15000
G1 X144.85 Y106.51 E38.4387
G1 F4050
G1 X144.85 Y106.52 E38.4387
G1 X147.68 Y109.34 E38.4387
G1 X146.26 Y109.34 E38.4387
;
; 'Stacked Sparse Infill', 180.0 [RPM], 72.2 [mm/s]
G1 F15000
G1 X134.96 Y115 E38.4387
G1 F4329.5
G1 X134.95 Y115 E38.439
G1 X133.54 Y116.41 E38.543
G1 X133.54 Y117.84 E38.6168
G1 X133.54 Y113.58 E38.838
G1 X133.54 Y113.59 E38.8384
G1 X132.12 Y115 E38.9423
G1 X129.29 Y115 E39.0893
G1 X127.88 Y116.41 E39.1933
G1 X127.88 Y117.84 E39.2671
;
; 'Wipe', 0.0 [RPM], 67.5 [mm/s]
G1 F15000
G1 X127.88 Y117.84 E39.2671
G1 F4050
G1 X127.88 Y116.41 E39.2671
G1 X129.29 Y115 E39.2671
G1 X131.41 Y115 E39.2671
; fan off
M107
G1 F210
G1 X131.41 Y115 Z1 E39.2671
; END_LAYER_OBJECT z=0.75
; Reset extruder pos
G92 E0
; BEGIN_LAYER_OBJECT z=1.00
; fan on
M106
;
; 'Perimeter', 180.0 [RPM], 72.2 [mm/s]
G1 F15000
G1 X114.72 Y107.68 E0
G1 F4329.5
G1 X114.86 Y107.64 E0.0074
G1 X139.13 Y107.64 E1.2689
G1 X139.11 Y107.67 E1.271
G1 X139.12 Y107.86 E1.281
G1 X139.04 Y107.95 E1.2875
G1 X139.04 Y108.13 E1.297
G1 X138.96 Y108.22 E1.3035
G1 X138.96 Y108.4 E1.3128
G1 X138.87 Y108.49 E1.3193
G1 X138.87 Y108.67 E1.3287
G1 X138.35 Y109.2 E1.3677
G1 X138.27 Y109.2 E1.3716
G1 X138.18 Y109.11 E1.3781
G1 X137.73 Y109.12 E1.4018
G1 X137.64 Y109.2 E1.4083
G1 X137.64 Y109.73 E1.4357
G1 X137.55 Y109.82 E1.4422
G1 X137.53 Y110.34 E1.4691
G1 X137.44 Y110.42 E1.4756
G1 X137.38 Y110.54 E1.4825
G1 X137.23 Y110.6 E1.4908
G1 X126.09 Y110.6 E2.0696
G1 X125.78 Y110.61 E2.0858
G1 X125.67 Y110.67 E2.0925
G1 X125.6 Y110.92 E2.1057
G1 X125.59 Y111.1 E2.1152
G1 X125.59 Y113.77 E2.2542
G1 X125.57 Y113.92 E2.2621
G1 X125.39 Y113.78 E2.2741
G1 X125.39 Y113.6 E2.2833
G1 X125.2 Y113.43 E2.2963
G1 X125.02 Y113.44 E2.3058
G1 X124.75 Y113.18 E2.3253
G1 X124.57 Y113.18 E2.3346
G1 X124.4 Y113 E2.3476
G1 X124.22 Y113 E2.3569
G1 X124.13 Y112.92 E2.3634
G1 X123.95 Y112.92 E2.3727
G1 X123.86 Y112.83 E2.3792
;
; 'Loop', 180.0 [RPM], 72.2 [mm/s]
G1 F15000
G1 X123.35 Y114.36 E2.3792
G1 F4329.5
G1 X124.44 Y114.38 E2.4359
G1 X124.52 Y114.47 E2.4425
G1 X124.44 Y114.56 E2.449
G1 X123.34 Y114.58 E2.5057
;
; 'Perimeter', 180.0 [RPM], 72.2 [mm/s]
G1 F15000
G1 X123.33 Y114.34 E2.5057
G1 F4329.5
G1 X124.29 Y114.35 E2.5553
G1 X124.81 Y114.36 E2.5823
G1 X124.89 Y114.45 E2.5888
G1 X125.03 Y114.49 E2.5963
G1 X124.97 Y114.57 E2.6016
G1 X124.64 Y114.59 E2.6191
G1 X124.58 Y114.58 E2.622
G1 X123.33 Y114.6 E2.6869
;
; 'Wipe', 0.0 [RPM], 67.5 [mm/s]
G1 F15000
G1 X123.33 Y114.6 E2.6869
G1 F4050
G1 X124.29 Y114.59 E2.6869
G1 X124.64 Y114.59 E2.6869
G1 X124.97 Y114.57 E2.6869
G1 X125.03 Y114.49 E2.6869
G1 X124.89 Y114.45 E2.6869
G1 X124.81 Y114.36 E2.6869
G1 X124.29 Y114.35 E2.6869
G1 X123.33 Y114.34 E2.6869
;
; 'Perimeter', 180.0 [RPM], 72.2 [mm/s]
G1 F15000
G1 X125.68 Y114.46 E2.6869
G1 F4329.5
G1 X125.86 Y114.75 E2.7043
G1 X125.82 Y114.76 E2.7064
G1 X125.73 Y114.62 E2.7148
G1 X125.8 Y114.61 E2.7182
G1 X125.86 Y114.72 E2.7249
G1 X125.86 Y114.75 E2.7264
G1 X125.55 Y114.63 E2.7438
;
; 'Wipe', 0.0 [RPM], 67.5 [mm/s]
G1 F15000
G1 X125.55 Y114.63 E2.7438
G1 F4050
G1 X125.86 Y114.75 E2.7438
G1 X125.86 Y114.72 E2.7438
G1 X125.8 Y114.61 E2.7438
G1 X125.73 Y114.62 E2.7438
G1 X125.82 Y114.76 E2.7438
G1 X125.86 Y114.75 E2.7438
G1 X125.68 Y114.46 E2.7438
;
; 'Loop', 180.0 [RPM], 72.2 [mm/s]
G1 F15000
G1 X124.44 Y115.27 E2.7438
G1 F4329.5
G1 X123.35 Y115.29 E2.8005
G1 X123.31 Y115.15 E2.8081
G1 X124.18 Y115.16 E2.8534
G1 X124.52 Y115.18 E2.8709
G1 X124.44 Y115.27 E2.8773
;
; 'Wipe', 0.0 [RPM], 67.5 [mm/s]
G1 F15000
G1 X124.44 Y115.27 E2.8773
G1 F4050
G1 X124.52 Y115.18 E2.8773
G1 X124.18 Y115.16 E2.8773
G1 X123.31 Y115.15 E2.8773
G1 X123.35 Y115.29 E2.8773
G1 X124.44 Y115.27 E2.8773
;
; 'Perimeter', 180.0 [RPM], 72.2 [mm/s]
G1 F15000
G1 X124.8 Y114.96 E2.8773
G1 F4329.5
G1 X124.81 Y115.29 E2.8942
G1 X124.29 Y115.3 E2.9212
G1 X123.33 Y115.3 E2.9708
G1 X123.32 Y115.14 E2.9794
G1 X124.2 Y115.14 E3.0251
G1 X124.55 Y115.15 E3.0432
G1 X124.89 Y115.16 E3.0609
G1 X124.89 Y115.19 E3.0627
G1 X124.81 Y115.29 E3.0692
G1 X124.59 Y115.04 E3.0861
;
; 'Loop', 180.0 [RPM], 72.2 [mm/s]
G1 F15000
G1 X123.49 Y115.86 E3.0861
G1 F4329.5
G1 X123.97 Y115.87 E3.1114
G1 X124.06 Y115.78 E3.1179
G1 X124.44 Y115.79 E3.1375
G1 X124.57 Y115.84 E3.1447
G1 X124.63 Y116.13 E3.1602
G1 X124.77 Y116.34 E3.1735
G1 X124.96 Y116.5 E3.1865
G1 X124.71 Y116.78 E3.2061
G1 X124.54 Y116.78 E3.2151
G1 X124.37 Y116.97 E3.2281
G1 X124.19 Y116.97 E3.2372
G1 X124.1 Y117.06 E3.2437
G1 X123.93 Y117.06 E3.2529
G1 X123.84 Y117.15 E3.2594
;
; 'Perimeter', 180.0 [RPM], 72.2 [mm/s]
G1 F15000
G1 X123.5 Y115.85 E3.2594
G1 F4329.5
G1 X123.96 Y115.85 E3.2831
G1 X124.04 Y115.76 E3.2896
G1 X124.58 Y115.77 E3.3176
G1 X124.67 Y115.68 E3.3241
G1 X125.06 Y115.7 E3.3441
G1 X125.08 Y115.74 E3.3465
G1 X125.07 Y115.86 E3.3529
G1 X125.12 Y115.99 E3.36
G1 X125.15 Y116.16 E3.3691
G1 X124.99 Y116.35 E3.3821
G1 X124.99 Y116.53 E3.3915
G1 X124.73 Y116.8 E3.411
G1 X124.55 Y116.8 E3.4202
G1 X124.38 Y116.98 E3.4332
G1 X124.2 Y116.98 E3.4424
G1 X124.12 Y117.07 E3.4489
G1 X123.94 Y117.07 E3.4581
G1 X123.85 Y117.16 E3.4646
;
; 'Wipe', 0.0 [RPM], 67.5 [mm/s]
G1 F15000
G1 X123.85 Y117.16 E3.4646
G1 F4050
G1 X123.94 Y117.07 E3.4646
G1 X124.12 Y117.07 E3.4646
G1 X124.2 Y116.98 E3.4646
G1 X124.38 Y116.98 E3.4646
G1 X124.55 Y116.8 E3.4646
G1 X124.73 Y116.8 E3.4646
G1 X124.99 Y116.53 E3.4646
G1 X124.99 Y116.35 E3.4646
G1 X125.15 Y116.16 E3.4646
G1 X125.12 Y115.99 E3.4646
G1 X125.07 Y115.86 E3.4646
G1 X125.08 Y115.74 E3.4646
G1 X125.06 Y115.7 E3.4646
G1 X124.67 Y115.68 E3.4646
G1 X124.58 Y115.77 E3.4646
G1 X124.04 Y115.76 E3.4646
G1 X123.96 Y115.85 E3.4646
G1 X123.5 Y115.85 E3.4646
;
; 'Loop', 180.0 [RPM], 72.2 [mm/s]
G1 F15000
G1 X125.31 Y123.58 E3.4646
G1 F4329.5
G1 X125.29 Y124.61 E3.5181
G1 X125.2 Y124.69 E3.5246
;
; 'Wipe', 0.0 [RPM], 67.5 [mm/s]
G1 F15000
G1 X125.2 Y124.69 E3.5246
G1 F4050
G1 X125.29 Y124.61 E3.5246
G1 X125.31 Y123.58 E3.5246
;
; 'Loop', 180.0 [RPM], 72.2 [mm/s]
G1 F15000
G1 X125.31 Y123.57 E3.5246
G1 F4329.5
G1 X125.4 Y123.49 E3.531
G1 X125.83 Y123.41 E3.5538
G1 X136.29 Y123.41 E4.097
G1 X139.82 Y123.41 E4.2807
G1 X139.97 Y123.42 E4.2882
G1 X140.25 Y123.49 E4.3032
G1 X140.77 Y123.5 E4.3306
G1 X140.79 Y123.65 E4.3389
G1 X140.88 Y123.74 E4.3454
G1 X140.89 Y123.91 E4.3543
G1 X140.98 Y124 E4.3608
G1 X140.98 Y124.35 E4.3789
G1 X141.07 Y124.43 E4.3854
G1 X141.08 Y124.61 E4.3945
;
; 'Wipe', 0.0 [RPM], 67.5 [mm/s]
G1 F15000
G1 X141.08 Y124.61 E4.3945
G1 F4050
G1 X141.07 Y124.43 E4.3945
G1 X140.98 Y124.35 E4.3945
G1 X140.98 Y124 E4.3945
G1 X140.89 Y123.91 E4.3945
G1 X140.88 Y123.74 E4.3945
G1 X140.79 Y123.65 E4.3945
G1 X140.77 Y123.5 E4.3945
G1 X140.25 Y123.49 E4.3945
G1 X139.82 Y123.41 E4.3945
G1 X139.8 Y123.41 E4.3945
G1 X136.99 Y123.41 E4.3945
;
; 'Perimeter', 180.0 [RPM], 72.2 [mm/s]
G1 F15000
G1 X125.3 Y123.24 E4.3945
G1 F4329.5
G1 X125.28 Y123.54 E4.4103
G1 X125.28 Y124.6 E4.4651
G1 X125.19 Y124.68 E4.4716
;
; 'Wipe', 0.0 [RPM], 67.5 [mm/s]
G1 F15000
G1 X125.19 Y124.68 E4.4716
G1 F4050
G1 X125.28 Y124.6 E4.4716
G1 X125.28 Y123.54 E4.4716
G1 X125.3 Y123.24 E4.4716
;
; 'Loop', 180.0 [RPM], 72.2 [mm/s]
G1 F15000
G1 X139.36 Y121.71 E4.4716
G1 F4329.5
G1 X138.37 Y120.77 E4.5427
G1 X138.37 Y120.72 E4.5453
G1 X138.55 Y120.55 E4.5583
G1 X138.55 Y120.37 E4.5675
G1 X138.64 Y120.28 E4.574
G1 X138.64 Y120.1 E4.5832
G1 X138.73 Y120.02 E4.5897
G1 X138.73 Y119.84 E4.599
G1 X138.82 Y119.76 E4.6055
G1 X138.82 Y119.44 E4.622
G1 X138.73 Y119.35 E4.6285
G1 X138.56 Y119.35 E4.6374
G1 X138.47 Y119.25 E4.6439
G1 X138.3 Y119.25 E4.6528
G1 X138.24 Y119.17 E4.658
G1 X138.21 Y118.99 E4.6676
G1 X138.13 Y118.71 E4.6825
G1 X138.13 Y116.59 E4.7929
G1 X138.24 Y116.52 E4.7996
G1 X139.26 Y116.52 E4.8525
G1 X139.38 Y116.58 E4.8594
G1 X139.38 Y121.55 E5.1179
G1 X139.36 Y121.71 E5.1263
;
; 'Perimeter', 180.0 [RPM], 72.2 [mm/s]
G1 F15000
G1 X139.73 Y121.92 E5.1263
G1 F4329.5
G1 X139.89 Y122.24 E5.1448
G1 X139.67 Y122.2 E5.156
G1 X139.5 Y122.21 E5.1648
G1 X139.45 Y122.17 E5.1683
G1 X139.43 Y121.83 E5.1856
G1 X138.36 Y120.78 E5.2636
G1 X138.36 Y120.71 E5.2675
G1 X138.54 Y120.53 E5.2805
G1 X138.54 Y120.35 E5.2897
G1 X138.63 Y120.27 E5.2962
G1 X138.62 Y120.09 E5.3055
G1 X138.72 Y120 E5.312
G1 X138.71 Y119.82 E5.3212
G1 X138.8 Y119.74 E5.3277
G1 X138.8 Y119.45 E5.3425
G1 X138.71 Y119.37 E5.349
G1 X138.54 Y119.37 E5.3581
G1 X138.45 Y119.28 E5.3646
G1 X137.93 Y119.26 E5.3915
G1 X137.77 Y119.25 E5.4
G1 X137.74 Y119.2 E5.4032
G1 X137.72 Y119.12 E5.4074
G1 X137.63 Y118.86 E5.4216
G1 X137.63 Y118.51 E5.44
G1 X137.63 Y116.09 E5.566
G1 X137.74 Y116.02 E5.5727
G1 X139.76 Y116.02 E5.6779
G1 X139.89 Y116.07 E5.6849
G1 X139.89 Y122.24 E6.0052
G1 X139.61 Y122.02 E6.0237
;
; 'Wipe', 0.0 [RPM], 67.5 [mm/s]
G1 F15000
G1 X139.61 Y122.02 E6.0237
G1 F4050
G1 X139.89 Y122.24 E6.0237
G1 X139.89 Y117.49 E6.0237
;
; 'Perimeter', 180.0 [RPM], 72.2 [mm/s]
G1 F15000
G1 X125.29 Y123.2 E6.0237
G1 F4329.5
G1 X125.39 Y123.11 E6.0302
G1 X125.42 Y122.98 E6.0377
G1 X125.63 Y122.91 E6.049
G1 X139.67 Y122.91 E6.7788
G1 X139.85 Y122.91 E6.788
G1 X140.01 Y123.02 E6.7983
G1 X140.15 Y123.03 E6.8054
G1 X140.23 Y122.98 E6.8101
G1 X140.65 Y123 E6.8323
G1 X140.7 Y123.04 E6.8353
G1 X140.72 Y123.2 E6.8438
G1 X140.81 Y123.28 E6.8503
G1 X140.82 Y123.63 E6.8683
G1 X140.91 Y123.72 E6.8748
G1 X140.91 Y123.89 E6.8839
G1 X141 Y123.98 E6.8904
G1 X141 Y124.33 E6.9087
G1 X141.09 Y124.42 E6.9152
G1 X141.09 Y124.6 E6.9243
;
; 'Wipe', 0.0 [RPM], 67.5 [mm/s]
G1 F15000
G1 X141.09 Y124.6 E6.9243
G1 F4050
G1 X141.09 Y124.42 E6.9243
G1 X141 Y124.33 E6.9243
G1 X141 Y123.98 E6.9243
G1 X140.91 Y123.89 E6.9243
G1 X140.91 Y123.72 E6.9243
G1 X140.82 Y123.63 E6.9243
G1 X140.81 Y123.28 E6.9243
G1 X140.72 Y123.2 E6.9243
G1 X140.7 Y123.04 E6.9243
G1 X140.65 Y123 E6.9243
G1 X140.23 Y122.98 E6.9243
G1 X140.15 Y123.03 E6.9243
G1 X140.01 Y123.02 E6.9243
G1 X139.85 Y122.91 E6.9243
G1 X137.47 Y122.91 E6.9243
;
; 'Loop', 180.0 [RPM], 72.2 [mm/s]
G1 F15000
G1 X115.23 Y108.21 E6.9243
G1 F4329.5
G1 X115.23 Y121.82 E7.6317
G1 X115.36 Y121.86 E7.639
G1 X125.02 Y121.86 E8.1409
G1 X125.32 Y121.81 E8.1566
G1 X125.34 Y120.9 E8.2038
G1 X125.25 Y120.81 E8.2103
G1 X124.9 Y120.81 E8.2287
G1 X124.81 Y120.72 E8.2352
G1 X124.63 Y120.72 E8.2444
G1 X124.55 Y120.63 E8.2509
;
; 'Loop', 180.0 [RPM], 72.2 [mm/s]
G1 F15000
G1 X115.23 Y108.18 E8.2509
G1 F4329.5
G1 X115.36 Y108.14 E8.2582
G1 X138.98 Y108.14 E9.4858
G1 X138.93 Y108.2 E9.4899
G1 X138.94 Y108.38 E9.4994
G1 X138.85 Y108.47 E9.5059
G1 X138.86 Y108.65 E9.5154
G1 X138.33 Y109.19 E9.5544
G1 X138.28 Y109.19 E9.557
G1 X138.2 Y109.1 E9.5635
G1 X137.71 Y109.1 E9.5886
G1 X137.63 Y109.19 E9.5951
G1 X137.62 Y109.71 E9.6221
G1 X137.52 Y109.8 E9.6286
G1 X137.52 Y109.97 E9.6374
G1 X137.45 Y110.02 E9.6419
G1 X137.11 Y110.09 E9.66
G1 X126.07 Y110.09 E10.2338
G1 X125.69 Y110.11 E10.2534
G1 X125.42 Y110.24 E10.2692
G1 X125.24 Y110.42 E10.2822
G1 X125.12 Y110.65 E10.296
G1 X125.09 Y111.08 E10.318
G1 X125.09 Y113.37 E10.4375
G1 X125.05 Y113.41 E10.4402
G1 X124.77 Y113.16 E10.4597
G1 X124.59 Y113.16 E10.4691
G1 X124.41 Y112.99 E10.4821
G1 X124.23 Y112.99 E10.4915
G1 X124.14 Y112.9 E10.498
G1 X123.96 Y112.9 E10.5073
G1 X123.87 Y112.82 E10.5138
;
; 'Wipe', 0.0 [RPM], 67.5 [mm/s]
G1 F15000
G1 X123.87 Y112.82 E10.5138
G1 F4050
G1 X123.96 Y112.9 E10.5138
G1 X124.14 Y112.9 E10.5138
G1 X124.23 Y112.99 E10.5138
G1 X124.41 Y112.99 E10.5138
G1 X124.59 Y113.16 E10.5138
G1 X124.77 Y113.16 E10.5138
G1 X125.05 Y113.41 E10.5138
G1 X125.09 Y113.37 E10.5138
G1 X125.09 Y111.08 E10.5138
G1 X125.12 Y110.65 E10.5138
G1 X125.24 Y110.42 E10.5138
G1 X125.42 Y110.24 E10.5138
G1 X125.53 Y110.17 E10.5138
G1 X125.69 Y110.11 E10.5138
;
; 'Perimeter', 180.0 [RPM], 72.2 [mm/s]
G1 F15000
G1 X114.72 Y107.83 E10.5138
G1 F4329.5
G1 X114.72 Y122.32 E11.2671
G1 X114.86 Y122.36 E11.2745
G1 X125.17 Y122.36 E11.8103
G1 X125.3 Y122.32 E11.8176
G1 X125.33 Y122.18 E11.8252
G1 X125.35 Y121.66 E11.852
G1 X125.35 Y120.89 E11.8923
G1 X125.26 Y120.8 E11.8988
G1 X124.91 Y120.8 E11.9173
G1 X124.82 Y120.71 E11.9238
G1 X124.65 Y120.71 E11.933
G1 X124.56 Y120.62 E11.9395
;
; 'Wipe', 0.0 [RPM], 67.5 [mm/s]
G1 F15000
G1 X124.56 Y120.62 E11.9395
G1 F4050
G1 X124.65 Y120.71 E11.9395
G1 X124.82 Y120.71 E11.9395
G1 X124.91 Y120.8 E11.9395
G1 X125.26 Y120.8 E11.9395
G1 X125.35 Y120.89 E11.9395
G1 X125.35 Y121.84 E11.9395
G1 X125.33 Y122.18 E11.9395
G1 X125.3 Y122.32 E11.9395
G1 X125.17 Y122.36 E11.9395
G1 X122.64 Y122.36 E11.9395
;
; 'Crown', 180.0 [RPM], 72.2 [mm/s]
G1 F15000
G1 X125.4 Y114.29 E11.9395
G1 F4329.5
G1 X125.33 Y114.72 E11.9621
G1 X125.43 Y114.79 E11.9686
G1 X125.35 Y115.13 E11.9863
G1 X125.33 Y115.45 E12.0033
G1 X125.59 Y115.7 E12.0221
;
; 'Wipe', 0.0 [RPM], 67.5 [mm/s]
G1 F15000
G1 X125.59 Y115.7 E12.0221
G1 F4050
G1 X125.33 Y115.45 E12.0221
G1 X125.35 Y115.13 E12.0221
G1 X125.43 Y114.79 E12.0221
G1 X125.33 Y114.72 E12.0221
G1 X125.4 Y114.29 E12.0221
;
; 'Solid', 168.4 [RPM], 67.5 [mm/s]
G1 F15000
G1 X123.71 Y119.32 E12.0221
G1 F4050
G1 X115.74 Y111.35 E12.6075
G1 X115.74 Y110.64 E12.6443
G1 X123.63 Y118.53 E13.2243
G1 X123.63 Y117.83 E13.2611
G1 X115.74 Y109.94 E13.8411
G1 X115.74 Y109.23 E13.8778
G1 X123.66 Y117.14 E14.4594
G1 X123.99 Y116.76 E14.4855
G1 X115.87 Y108.65 E15.0817
G1 X116.58 Y108.65 E15.1184
G1 X122.93 Y115 E15.5847
G1 X122.93 Y114.29 E15.6214
G1 X117.29 Y108.65 E16.0358
G1 X117.99 Y108.65 E16.0725
G1 X123.29 Y113.94 E16.4613
G1 X123.28 Y113.23 E16.4982
G1 X118.7 Y108.65 E16.8348
G1 X119.41 Y108.65 E16.8716
G1 X123.64 Y112.89 E17.1828
G1 X124.31 Y112.85 E17.2176
G1 X120.12 Y108.65 E17.526
G1 X120.82 Y108.65 E17.5627
G1 X124.57 Y112.4 E17.8383
G1 X124.57 Y111.69 E17.8751
G1 X121.53 Y108.65 E18.0987
G1 X122.24 Y108.65 E18.1354
G1 X124.58 Y111 E18.3078
G1 X124.67 Y110.38 E18.3404
G1 X122.94 Y108.65 E18.4671
G1 X123.65 Y108.65 E18.5038
G1 X124.96 Y109.96 E18.5997
G1 X125.39 Y109.68 E18.6263
G1 X124.36 Y108.65 E18.7019
G1 X125.07 Y108.65 E18.7386
G1 X125.99 Y109.58 E18.8068
G1 X126.7 Y109.58 E18.8435
G1 X125.77 Y108.65 E18.9117
G1 X126.48 Y108.65 E18.9485
G1 X127.41 Y109.58 E19.0166
G1 X128.11 Y109.58 E19.0534
G1 X127.19 Y108.65 E19.1215
G1 X127.89 Y108.65 E19.1583
G1 X128.82 Y109.58 E19.2265
G1 X129.53 Y109.58 E19.2632
G1 X128.6 Y108.65 E19.3314
G1 X129.31 Y108.65 E19.3681
G1 X130.24 Y109.58 E19.4363
G1 X130.94 Y109.58 E19.473
G1 X130.02 Y108.65 E19.5412
G1 X130.72 Y108.65 E19.5779
G1 X131.65 Y109.58 E19.6461
G1 X132.36 Y109.58 E19.6829
G1 X131.43 Y108.65 E19.751
G1 X132.14 Y108.65 E19.7878
G1 X133.06 Y109.58 E19.8559
G1 X133.77 Y109.58 E19.8927
G1 X132.84 Y108.65 E19.9608
G1 X133.55 Y108.65 E19.9976
G1 X134.48 Y109.58 E20.0658
G1 X135.19 Y109.58 E20.1025
G1 X134.26 Y108.65 E20.1707
G1 X134.97 Y108.65 E20.2074
G1 X135.89 Y109.58 E20.2756
G1 X136.6 Y109.58 E20.3123
G1 X135.67 Y108.65 E20.3805
G1 X136.38 Y108.65 E20.4173
G1 X137.27 Y109.54 E20.4824
G1 X137.41 Y108.97 E20.5126
G1 X137.09 Y108.65 E20.5363
G1 X137.79 Y108.65 E20.5731
G1 X138.12 Y108.98 E20.5972
G1 X138.44 Y108.59 E20.6233
G1 X138.43 Y108.58 E20.6244
;
; 'Wipe', 0.0 [RPM], 67.5 [mm/s]
G1 F15000
G1 X138.43 Y108.58 E20.6244
G1 F4050
G1 X138.44 Y108.59 E20.6244
G1 X138.12 Y108.98 E20.6244
G1 X137.79 Y108.65 E20.6244
G1 X137.09 Y108.65 E20.6244
G1 X137.41 Y108.97 E20.6244
G1 X137.27 Y109.54 E20.6244
G1 X136.38 Y108.65 E20.6244
G1 X135.67 Y108.65 E20.6244
G1 X136.6 Y109.58 E20.6244
;
; 'Solid', 168.4 [RPM], 67.5 [mm/s]
G1 F15000
G1 X138.64 Y117.28 E20.6244
G1 F4050
G1 X138.89 Y117.53 E20.6425
G1 X138.7 Y118.04 E20.671
G1 X138.94 Y118.29 E20.6892
G1 X138.64 Y118.69 E20.7155
G1 X138.89 Y118.94 E20.7336
G1 X138.77 Y119.52 E20.7646
G1 X138.94 Y119.7 E20.7775
G1 X138.82 Y120.29 E20.8088
G1 X138.87 Y120.33 E20.8119
G1 X138.87 Y121.04 E20.8487
G1 X138.48 Y120.66 E20.8769
;
; 'Solid', 168.4 [RPM], 67.5 [mm/s]
G1 F15000
G1 X125.06 Y121.37 E20.8769
G1 F4050
G1 X115.74 Y112.06 E21.5615
G1 X115.74 Y112.76 E21.5983
G1 X124.33 Y121.35 E22.2292
G1 X123.62 Y121.35 E22.266
G1 X115.74 Y113.47 E22.8449
G1 X115.74 Y114.18 E22.8817
G1 X122.91 Y121.35 E23.4086
G1 X122.21 Y121.35 E23.4454
G1 X115.74 Y114.89 E23.9204
G1 X115.74 Y115.59 E23.9571
G1 X121.5 Y121.35 E24.3802
G1 X120.79 Y121.35 E24.4169
G1 X115.74 Y116.3 E24.788
G1 X115.74 Y117.01 E24.8248
G1 X120.08 Y121.35 E25.1439
G1 X119.38 Y121.35 E25.1806
G1 X115.74 Y117.71 E25.4478
G1 X115.74 Y118.42 E25.4845
G1 X118.67 Y121.35 E25.6997
G1 X117.96 Y121.35 E25.7364
G1 X115.74 Y119.13 E25.8996
G1 X115.74 Y119.83 E25.9364
G1 X117.26 Y121.35 E26.0476
G1 X116.55 Y121.35 E26.0843
G1 X115.75 Y120.55 E26.1428
G1 X115.85 Y121.36 E26.1848
G1 X115.86 Y121.37 E26.1859
;
; 'Wipe', 0.0 [RPM], 67.5 [mm/s]
G1 F15000
G1 X115.86 Y121.37 E26.1859
G1 F4050
G1 X115.85 Y121.36 E26.1859
G1 X115.75 Y120.55 E26.1859
G1 X116.55 Y121.35 E26.1859
G1 X117.26 Y121.35 E26.1859
G1 X115.74 Y119.83 E26.1859
G1 X115.74 Y119.13 E26.1859
;
; 'Stacked Sparse Infill', 180.0 [RPM], 72.2 [mm/s]
G1 F15000
G1 X116.56 Y124.89 E26.1859
G1 F4329.5
G1 X116.56 Y124.9 E26.1863
G1 X117.98 Y126.31 E26.2902
G1 X120.81 Y126.31 E26.4372
G1 X122.22 Y127.73 E26.5411
G1 X122.22 Y130.56 E26.6881
G1 X123.64 Y131.97 E26.7921
G1 X126.46 Y131.97 E26.9391
G1 X127.88 Y133.38 E27.043
G1 X127.88 Y136.21 E27.19
G1 X129.29 Y137.63 E27.2939
G1 X127.88 Y139.04 E27.3979
G1 X126.46 Y137.63 E27.5018
G1 X126.46 Y137.63 E27.5019
G1 X122.22 Y133.39 E27.8136
G1 X122.22 Y133.38 E27.8136
G1 X120.81 Y131.97 E27.9176
G1 X116.56 Y127.73 E28.2294
G1 X116.56 Y127.73 E28.2294
G1 X115.15 Y126.31 E28.3334
G1 X120.81 Y125.18 E28.6333
G1 X121.28 Y125.09 E28.6582
G1 X121.75 Y125.06 E28.6828
G1 X122.22 Y124.89 E28.7088
G1 X122.22 Y124.9 E28.7091
G1 X123.64 Y126.31 E28.8131
G1 X126.46 Y126.31 E28.96
G1 X127.88 Y127.73 E29.064
G1 X127.88 Y130.56 E29.211
G1 X129.29 Y131.97 E29.3149
G1 X132.12 Y131.97 E29.4619
G1 X133.54 Y133.38 E29.5658
G1 X134.95 Y131.97 E29.6698
G1 X133.54 Y130.56 E29.7737
G1 X133.54 Y127.73 E29.9207
G1 X132.12 Y126.31 E30.0246
G1 X129.29 Y126.31 E30.1716
G1 X127.88 Y124.9 E30.2756
G1 X127.88 Y124.19 E30.3127
G1 X133.54 Y124.19 E30.6067
G1 X133.54 Y124.9 E30.6438
G1 X134.95 Y126.31 E30.7477
G1 X137.78 Y126.31 E30.8947
G1 X139.19 Y127.73 E30.9986
G1 X140.61 Y126.31 E31.1026
G1 X139.19 Y124.9 E31.2065
G1 X139.19 Y124.19 E31.2436
;
; 'Wipe', 0.0 [RPM], 67.5 [mm/s]
G1 F15000
G1 X139.19 Y124.19 E31.2436
G1 F4050
G1 X139.19 Y124.9 E31.2436
G1 X140.61 Y126.31 E31.2436
G1 X139.19 Y127.73 E31.2436
G1 X138.84 Y127.37 E31.2436
;
; 'Loop', 180.0 [RPM], 72.2 [mm/s]
G1 F15000
G1 X141.42 Y107.15 E31.2436
G1 F4329.5
G1 X141.57 Y107.13 E31.2516
G1 X141.66 Y107.03 E31.2581
G1 X141.83 Y107.03 E31.2671
G1 X141.91 Y106.94 E31.2736
G1 X142.26 Y106.93 E31.2917
G1 X142.35 Y106.84 E31.2982
G1 X142.52 Y106.84 E31.3073
;
; 'Wipe', 0.0 [RPM], 67.5 [mm/s]
G1 F15000
G1 X142.52 Y106.84 E31.3073
G1 F4050
G1 X142.35 Y106.84 E31.3073
G1 X142.26 Y106.93 E31.3073
G1 X141.91 Y106.94 E31.3073
G1 X141.83 Y107.03 E31.3073
G1 X141.66 Y107.03 E31.3073
G1 X141.57 Y107.13 E31.3073
G1 X141.42 Y107.15 E31.3073
;
; 'Loop', 180.0 [RPM], 72.2 [mm/s]
G1 F15000
G1 X141.43 Y107.28 E31.3073
G1 F4329.5
G1 X141.4 Y107.48 E31.3177
G1 X141.28 Y107.72 E31.3315
G1 X141.11 Y107.9 E31.3445
G1 X141 Y107.96 E31.3512
G1 X140.93 Y108.07 E31.3578
G1 X140.93 Y114.15 E31.6738
G1 X140.9 Y114.41 E31.6871
G1 X140.78 Y114.64 E31.7009
G1 X140.49 Y114.89 E31.7204
G1 X140.52 Y114.91 E31.7222
G1 X141.91 Y114.94 E31.7944
;
; 'Wipe', 0.0 [RPM], 67.5 [mm/s]
G1 F15000
G1 X141.91 Y114.94 E31.7944
G1 F4050
G1 X140.52 Y114.91 E31.7944
G1 X140.49 Y114.89 E31.7944
G1 X140.7 Y114.74 E31.7944
G1 X140.85 Y114.53 E31.7944
G1 X140.92 Y114.26 E31.7944
G1 X140.93 Y111.43 E31.7944
;
; 'Loop', 180.0 [RPM], 72.2 [mm/s]
G1 F15000
G1 X135.45 Y112.85 E31.7944
G1 F4329.5
G1 X136.58 Y111.77 E31.8756
G1 X136.59 Y114.25 E32.0041
G1 X136.66 Y114.52 E32.019
G1 X136.81 Y114.73 E32.0322
G1 X137.01 Y114.88 E32.0454
G1 X136.9 Y115.01 E32.0543
G1 X135.63 Y115.03 E32.1203
;
; 'Wipe', 0.0 [RPM], 67.5 [mm/s]
G1 F15000
G1 X135.63 Y115.03 E32.1203
G1 F4050
G1 X136.9 Y115.01 E32.1203
G1 X137.01 Y114.88 E32.1203
G1 X136.81 Y114.73 E32.1203
G1 X136.66 Y114.52 E32.1203
G1 X136.59 Y114.25 E32.1203
G1 X136.58 Y111.77 E32.1203
G1 X136.35 Y111.99 E32.1203
;
; 'Loop', 180.0 [RPM], 72.2 [mm/s]
G1 F15000
G1 X126.64 Y115.88 E32.1203
G1 F4329.5
G1 X126.63 Y116.05 E32.1291
G1 X126.64 Y118.36 E32.2493
G1 X136.55 Y118.36 E32.7643
G1 X135.33 Y117.09 E32.8556
;
; 'Wipe', 0.0 [RPM], 67.5 [mm/s]
G1 F15000
G1 X135.33 Y117.09 E32.8556
G1 F4050
G1 X136.55 Y118.36 E32.8556
G1 X133.19 Y118.36 E32.8556
;
; 'Loop', 180.0 [RPM], 72.2 [mm/s]
G1 F15000
G1 X126.67 Y115.74 E32.8556
G1 F4329.5
G1 X126.81 Y115.7 E32.8631
G1 X127.85 Y115.68 E32.9172
;
; 'Wipe', 0.0 [RPM], 67.5 [mm/s]
G1 F15000
G1 X127.85 Y115.68 E32.9172
G1 F4050
G1 X126.81 Y115.7 E32.9172
G1 X126.67 Y115.74 E32.9172
;
; 'Perimeter', 180.0 [RPM], 72.2 [mm/s]
G1 F15000
G1 X126.16 Y115.75 E32.9172
G1 F4329.5
G1 X126.27 Y115.69 E32.924
G1 X126.61 Y115.68 E32.9416
G1 X126.67 Y115.68 E32.9445
G1 X127.84 Y115.67 E33.0054
;
; 'Wipe', 0.0 [RPM], 67.5 [mm/s]
G1 F15000
G1 X127.84 Y115.67 E33.0054
G1 F4050
G1 X126.96 Y115.67 E33.0054
G1 X126.44 Y115.68 E33.0054
G1 X126.27 Y115.69 E33.0054
G1 X126.16 Y115.75 E33.0054
;
; 'Perimeter', 180.0 [RPM], 72.2 [mm/s]
G1 F15000
G1 X140.42 Y107.57 E33.0054
G1 F4329.5
G1 X140.74 Y107.53 E33.022
G1 X140.85 Y107.46 E33.0287
G1 X140.91 Y107.35 E33.0354
G1 X140.93 Y107.26 E33.0405
G1 X140.95 Y107.22 E33.0431
G1 X141.12 Y107.2 E33.0515
G1 X141.2 Y107.11 E33.058
G1 X141.55 Y107.1 E33.076
G1 X141.63 Y107.01 E33.0825
G1 X141.81 Y107.01 E33.0916
G1 X141.9 Y106.92 E33.0981
G1 X142.25 Y106.92 E33.1163
G1 X142.34 Y106.83 E33.1228
G1 X142.51 Y106.83 E33.132
;
; 'Wipe', 0.0 [RPM], 67.5 [mm/s]
G1 F15000
G1 X142.51 Y106.83 E33.132
G1 F4050
G1 X142.34 Y106.83 E33.132
G1 X142.25 Y106.92 E33.132
G1 X141.9 Y106.92 E33.132
G1 X141.81 Y107.01 E33.132
G1 X141.63 Y107.01 E33.132
G1 X141.55 Y107.1 E33.132
G1 X141.2 Y107.11 E33.132
G1 X141.12 Y107.2 E33.132
G1 X140.95 Y107.22 E33.132
G1 X140.93 Y107.26 E33.132
G1 X140.91 Y107.35 E33.132
G1 X140.85 Y107.46 E33.132
G1 X140.74 Y107.53 E33.132
G1 X140.42 Y107.57 E33.132
;
; 'Perimeter', 180.0 [RPM], 72.2 [mm/s]
G1 F15000
G1 X140.42 Y107.59 E33.132
G1 F4329.5
G1 X140.42 Y114.13 E33.4719
G1 X140.41 Y114.28 E33.4797
G1 X140.35 Y114.39 E33.4864
G1 X140.12 Y114.51 E33.4999
G1 X140.02 Y114.52 E33.5048
G1 X137.48 Y114.52 E33.6372
G1 X137.38 Y114.51 E33.642
G1 X137.16 Y114.38 E33.6554
G1 X137.09 Y114.13 E33.6686
G1 X137.09 Y112.9 E33.7329
G1 X137.09 Y111.45 E33.8083
G1 X137.06 Y111.3 E33.816
G1 X136.6 Y111.7 E33.8475
G1 X135.35 Y112.93 E33.9384
;
; 'Wipe', 0.0 [RPM], 67.5 [mm/s]
G1 F15000
G1 X135.35 Y112.93 E33.9384
G1 F4050
G1 X136.6 Y111.7 E33.9384
G1 X137.06 Y111.3 E33.9384
G1 X137.09 Y111.45 E33.9384
G1 X137.09 Y113.96 E33.9384
;
; 'Perimeter', 180.0 [RPM], 72.2 [mm/s]
G1 F15000
G1 X135.7 Y115.04 E33.9384
G1 F4329.5
G1 X136.86 Y115.03 E33.9991
G1 X136.93 Y115.03 E34.0024
G1 X137.01 Y114.94 E34.0089
G1 X140.19 Y114.94 E34.1741
G1 X141.01 Y114.95 E34.217
G1 X141.89 Y114.95 E34.2627
;
; 'Wipe', 0.0 [RPM], 67.5 [mm/s]
G1 F15000
G1 X141.89 Y114.95 E34.2627
G1 F4050
G1 X140.19 Y114.94 E34.2627
G1 X137.31 Y114.94 E34.2627
G1 X137.01 Y114.94 E34.2627
G1 X136.93 Y115.03 E34.2627
;
; 'Perimeter', 180.0 [RPM], 72.2 [mm/s]
G1 F15000
G1 X126.13 Y115.87 E34.2627
G1 F4329.5
G1 X126.12 Y118.7 E34.4098
G1 X126.13 Y118.87 E34.4186
G1 X136.87 Y118.87 E34.9767
G1 X136.73 Y118.7 E34.9882
G1 X136.74 Y118.51 E34.998
G1 X135.34 Y117.08 E35.1019
;
; 'Wipe', 0.0 [RPM], 67.5 [mm/s]
G1 F15000
G1 X135.34 Y117.08 E35.1019
G1 F4050
G1 X136.74 Y118.51 E35.1019
G1 X136.73 Y118.7 E35.1019
G1 X136.87 Y118.87 E35.1019
G1 X134.26 Y118.87 E35.1019
;
; 'Solid', 168.4 [RPM], 67.5 [mm/s]
G1 F15000
G1 X142.02 Y115 E35.1019
G1 F4050
G1 X141.43 Y114.41 E35.1451
G1 X141.44 Y113.71 E35.1814
G1 X142.52 Y114.79 E35.2608
G1 X143.22 Y114.79 E35.2976
G1 X141.44 Y113 E35.4288
G1 X141.44 Y112.3 E35.4656
G1 X143.58 Y114.44 E35.6228
G1 X143.58 Y113.73 E35.6596
G1 X141.44 Y111.59 E35.8168
G1 X141.44 Y110.88 E35.8536
G1 X143.58 Y113.02 E36.0108
G1 X143.58 Y112.31 E36.0476
G1 X141.44 Y110.17 E36.2048
G1 X141.44 Y109.47 E36.2416
G1 X143.58 Y111.61 E36.3989
G1 X143.58 Y110.9 E36.4356
G1 X141.42 Y108.75 E36.5939
G1 X141.57 Y108.19 E36.6239
G1 X143.58 Y110.19 E36.7713
G1 X143.58 Y109.49 E36.808
G1 X141.84 Y107.75 E36.9355
G1 X142.06 Y107.26 E36.9635
G1 X143.58 Y108.78 E37.0753
G1 X143.58 Y108.07 E37.1121
G1 X142.43 Y106.93 E37.1961
G1 X143.31 Y107.1 E37.2426
G1 X143.65 Y107.44 E37.2676
;
; 'Sparse Infill', 180.0 [RPM], 72.2 [mm/s]
G1 F15000
G1 X144.15 Y107.23 E37.2676
G1 F4329.5
G1 X143.79 Y106.86 E37.2941
G1 X143.94 Y107.34 E37.3199
G1 X143.94 Y107.81 E37.3444
G1 X143.79 Y108.28 E37.3701
G1 X144.15 Y108.64 E37.3966
G1 X143.94 Y108.99 E37.4176
G1 X143.99 Y109.34 E37.436
G1 X143.79 Y109.69 E37.4571
G1 X144.15 Y110.05 E37.4836
G1 X143.94 Y110.4 E37.5046
G1 X143.99 Y110.76 E37.523
G1 X143.79 Y111.11 E37.544
G1 X144.15 Y111.47 E37.5705
G1 X143.94 Y111.82 E37.5916
G1 X143.99 Y112.17 E37.61
G1 X143.79 Y112.52 E37.631
G1 X144.15 Y112.88 E37.6575
G1 X143.94 Y113.23 E37.6785
G1 X143.99 Y113.58 E37.6969
G1 X143.79 Y113.94 E37.718
G1 X144.15 Y114.3 E37.7445
;
; 'Sparse Infill', 180.0 [RPM], 72.2 [mm/s]
G1 F15000
G1 X144.85 Y113.59 E37.7445
G1 F4329.5
G1 X144.49 Y113.23 E37.771
G1 X144.69 Y112.88 E37.792
G1 X144.65 Y112.53 E37.8104
G1 X144.85 Y112.18 E37.8314
G1 X144.49 Y111.81 E37.8579
G1 X144.69 Y111.46 E37.879
G1 X144.65 Y111.11 E37.8974
G1 X144.85 Y110.76 E37.9184
G1 X144.49 Y110.4 E37.9449
G1 X144.69 Y110.05 E37.966
G1 X144.65 Y109.7 E37.9843
G1 X144.85 Y109.35 E38.0054
G1 X144.49 Y108.99 E38.0319
G1 X144.69 Y108.63 E38.0529
G1 X144.65 Y108.28 E38.0713
G1 X144.85 Y107.93 E38.0924
G1 X144.49 Y107.57 E38.1189
;
; 'Sparse Infill', 180.0 [RPM], 72.2 [mm/s]
G1 F15000
G1 X145.2 Y106.86 E38.1189
G1 F4329.5
G1 X145.56 Y107.23 E38.1453
G1 X145.36 Y107.58 E38.1664
G1 X145.4 Y107.93 E38.1848
