; KISSlicer - FREE
; Linux
; version 1.0.9.7
; Built: Jun 12 2012, 22:45:36
;
; Saved: Sat Nov 17 20:49:53 2012
; 'footbroken_sm(0).gco'
;
; *** Printer Settings ***
;
; printer_name = Series
; extension = gco
; cost_per_hour = 0
; g_code_prefix = 4D333031205032342E37322049302E383820443233312E310A473238200A473020583132302059313135205A3135204631303030300A4739322045300A4731205935205A31352046353030300A4D31303920533138350A47312046313030204535300A4739322045300A473120583530205A302E3320463130303030
; g_code_postfix = 47312059323330204631303030300A4739322045300A473120452D31300A4D3130370A4D3130342053300A4731205A323330204631303030300A4D3834204520582059
; g_code_ext_change = NULL
; post_process = NULL
; num_extruders = 1
; firmware_type = 2
; M104_M109 = 0
; add_comments = 1
; z_speed_mm_per_s = 3.5
; z_settle_mm = 0
; bed_size_x_mm = 260
; bed_size_y_mm = 230
; bed_size_z_mm = 230
; bed_offset_x_mm = 130
; bed_offset_y_mm = 115
; bed_offset_z_mm = 0
; bed_roughness_mm = 0
; travel_speed_mm_per_s = 250
; first_layer_speed_mm_per_s = 25
; lo_speed_perim_mm_per_s = 45
; lo_speed_solid_mm_per_s = 45
; lo_speed_sparse_mm_per_s = 90
; hi_speed_perim_mm_per_s = 180
; hi_speed_solid_mm_per_s = 90
; hi_speed_sparse_mm_per_s = 180
; ext_mm_per_rev_1 = 1.25
; ext_material_1 = 2
; ext_axis_1 = 0
; ext_mm_per_rev_2 = 1.25
; ext_material_2 = 0
; ext_axis_2 = 0
; ext_mm_per_rev_3 = 1.25
; ext_material_3 = 0
; ext_axis_3 = 0
; model_ext = 0
; support_ext = 0
; support_body_ext = 0
; raft_ext = 0
; solid_loop_overlap_fraction = 0.25
;
; *** Material Settings for Extruder 1 ***
;
; material_name = PLA
; fan_off_ISOs_all = 2
; temperature_C = 160
; keep_warm_C = 159
; first_layer_C = 185
; bed_C = 81
; sec_per_C_per_C = 0
; RPM_min = 3
; RPM_max = 180
; destring_suck = 1
; destring_prime = 1
; destring_min_mm = 0
; destring_speed_mm_per_s = 15
; min_layer_time_s = 12
; wipe_mm = 5
; cost_per_cm3 = 0
; flowrate_tweak = 1
; fiber_dia_mm = 1.75
; color = 0
;
; *** Style Settings ***
;
; style_name = Fine
; layer_thickness_mm = 0.2
; extrusion_width_mm = 0.5
; num_loops = 2
; skin_thickness_mm = 1
; infill_extrusion_width = 0.5
; infill_density_denominator = 4
; stacked_layers = 1
; use_destring = 0
; loops_insideout = 0
; round_infill = 1
;
; *** Actual Slicing Settings As Used ***
;
; layer_thickness_mm = 0.2
; extrusion_width = 0.5
; num_ISOs = 2
; wall_thickness = 1
; infill_style = 5
; support_style = 6
; support_angle = 44.9
; destring_min_mm = 0
; stacked_infill_layers = 1
; ISO_wipe_mm = 10
; raft_style = 0
; extra_raft_depth = 0
; oversample_res_mm = 0.125
; crowning_threshold_mm = 1
; loops_insideout = 0
; sheathed_support = 0
; solid_loop_overlap_fraction = 0.25
; inflate_raft_mm = 0
; inflate_support_mm = 2
; model_support_gap_mm = 0.5
; round_infill = 1
; Speed vs Quality = 0.50
;
; *** Header ***
;
; fan off
M107
; [mm] mode
G21
; absolute mode
G90
; *** User-Supplied G-code Prefix ***
;
M301 P24.72 I0.88 D231.1
G28 
G0 X120 Y115 Z15 F10000
G92 E0
G1 Y5 Z15 F5000
M109 S185
G1 F100 E50
G92 E0
G1 X50 Z0.3 F10000
;
; *** Main G-code ***
;
; Reset extruder pos
G92 E0
; BEGIN_LAYER_OBJECT z=0.20
;
; *** Warming Extruder 1 to 185 C ***
M104 S185
G92 E0
;
;
; 'Support Interface', 62.4 [RPM], 25.0 [mm/s]
G1 F15000
G1 X110.3 Y114.39 Z0.2 E0
G1 F1500
G1 X115.56 Y119.65 E0.3863
G1 X115.56 Y118.24 E0.4598
G1 X110.3 Y112.98 E0.8461
G1 X110.3 Y111.57 E0.9196
G1 X115.56 Y116.82 E1.306
G1 X115.56 Y115.41 E1.3795
G1 X110.3 Y110.15 E1.7658
G1 X110.3 Y108.74 E1.8393
G1 X115.56 Y113.99 E2.2256
G1 X115.56 Y112.58 E2.2991
G1 X110.3 Y107.32 E2.6854
G1 X110.46 Y107.03 E2.7026
G1 X110.77 Y106.85 E2.7214
G1 X110.91 Y106.51 E2.74
G1 X115.56 Y111.17 E3.0818
G1 X115.56 Y109.75 E3.1553
G1 X111.62 Y105.81 E3.4451
G1 X112.32 Y105.1 E3.4971
G1 X115.56 Y108.34 E3.7349
G1 X115.58 Y107.47 E3.7798
G1 X115.69 Y107.05 E3.8024
G1 X113.03 Y104.39 E3.9979
G1 X113.36 Y104.25 E4.0166
G1 X113.55 Y103.94 E4.0354
G1 X113.84 Y103.79 E4.0526
G1 X116.67 Y106.62 E4.2605
G1 X117.06 Y106.48 E4.2823
G1 X117.54 Y106.89 E4.315
G1 X117.98 Y106.52 E4.3449
G1 X117.98 Y106.51 E4.345
G1 X118.69 Y105.81 E4.397
G1 X119.49 Y106.61 E4.4561
G1 X120.9 Y106.61 E4.5296
G1 X119.39 Y105.1 E4.6406
G1 X119.63 Y104.86 E4.658
G1 X119.91 Y104.65 E4.6764
G1 X120.2 Y104.49 E4.6935
G1 X122.32 Y106.61 E4.8491
G1 X123.73 Y106.61 E4.9226
G1 X121.16 Y104.04 E5.1116
G1 X121.87 Y103.33 E5.1636
G1 X125.15 Y106.61 E5.4046
G1 X126.56 Y106.61 E5.4781
G1 X122.58 Y102.63 E5.7711
G1 X123.28 Y101.92 E5.823
G1 X127.98 Y106.61 E6.168
G1 X129.39 Y106.61 E6.2415
G1 X124.44 Y101.67 E6.6049
G1 X125.86 Y101.67 E6.6784
G1 X130.8 Y106.61 E7.0419
G1 X132.22 Y106.61 E7.1154
G1 X127.27 Y101.67 E7.4788
G1 X128.69 Y101.67 E7.5523
G1 X133.63 Y106.61 E7.9158
G1 X135.05 Y106.61 E7.9893
G1 X130.1 Y101.67 E8.3528
G1 X131.52 Y101.67 E8.4263
G1 X136.46 Y106.61 E8.7897
G1 X137.68 Y106.63 E8.8533
G1 X138.05 Y106.78 E8.8736
G1 X132.93 Y101.67 E9.2495
G1 X134.34 Y101.67 E9.323
G1 X146.97 Y114.29 E10.2511
G1 X147.34 Y114.5 E10.2733
G1 X148.01 Y114.5 E10.3081
G1 X148.39 Y114.29 E10.3302
G1 X135.76 Y101.67 E11.2583
G1 X136.59 Y101.66 E11.3015
G1 X137.07 Y101.72 E11.3267
G1 X137.42 Y101.92 E11.3477
G1 X147.33 Y111.82 E12.0755
G1 X147.7 Y112.03 E12.0977
G1 X148.37 Y112.03 E12.1325
G1 X148.74 Y111.82 E12.1546
G1 X141.41 Y104.49 E12.6929
G1 X142.3 Y104.47 E12.7387
G1 X142.73 Y104.39 E12.7615
G1 X148.99 Y110.66 E13.2218
G1 X149 Y110.34 E13.2384
G1 X149.17 Y109.86 E13.2645
G1 X149.45 Y109.7 E13.2813
G1 X143.43 Y103.69 E13.7231
G1 X143.76 Y103.5 E13.7424
G1 X144.13 Y103.39 E13.7627
G1 X144.5 Y103.33 E13.7818
G1 X150.15 Y108.99 E14.1976
G1 X150.39 Y108.75 E14.215
G1 X150.6 Y108.47 E14.2334
G1 X150.76 Y108.18 E14.2505
G1 X145.2 Y102.63 E14.6589
G1 X145.57 Y102.42 E14.6811
G1 X146.24 Y102.42 E14.7158
G1 X146.62 Y102.62 E14.738
G1 X149.45 Y105.46 E14.9461
;
; 'Support Interface', 62.4 [RPM], 25.0 [mm/s]
G1 F15000
G1 X148.38 Y112.88 E14.9461
G1 F1500
G1 X148.39 Y112.88 E14.9463
;
; 'Support Interface', 62.4 [RPM], 25.0 [mm/s]
G1 F15000
G1 X147.68 Y116.42 E14.9463
G1 F1500
G1 X138.23 Y106.96 E15.6409
G1 X138.39 Y107.32 E15.6614
G1 X138.42 Y107.76 E15.6844
G1 X138.42 Y108.57 E15.7265
G1 X147.68 Y117.83 E16.4067
G1 X147.44 Y118.06 E16.424
G1 X147.16 Y118.54 E16.4527
G1 X147.33 Y118.89 E16.473
G1 X138.42 Y109.99 E17.1273
G1 X138.42 Y111.4 E17.2008
G1 X147.32 Y120.3 E17.855
G1 X146.62 Y121.01 E17.9069
G1 X138.42 Y112.82 E18.5092
G1 X138.42 Y114.23 E18.5825
G1 X145.91 Y121.72 E19.133
G1 X145.67 Y121.96 E19.1509
G1 X145.51 Y122.34 E19.1722
G1 X145.46 Y122.68 E19.1899
G1 X138.35 Y115.57 E19.7118
G1 X138.22 Y115.31 E19.7273
G1 X137.85 Y115.07 E19.7504
G1 X137.76 Y114.98 E19.7571
G1 X137.63 Y115.11 E19.7666
G1 X136.8 Y114.87 E19.812
G1 X136.41 Y114.64 E19.8351
G1 X135.95 Y114.59 E19.8595
G1 X136.75 Y115.38 E19.9181
G1 X136.63 Y115.79 E19.9403
G1 X136.61 Y116.66 E19.9854
G1 X135.57 Y115.62 E20.0621
;
; 'Wipe', 0.0 [RPM], 25.0 [mm/s]
G1 F15000
G1 X135.57 Y115.62 E20.0621
G1 F1500
G1 X136.61 Y116.66 E20.0621
G1 X136.63 Y115.79 E20.0621
G1 X136.75 Y115.38 E20.0621
G1 X135.95 Y114.59 E20.0621
G1 X136.41 Y114.64 E20.0621
G1 X136.8 Y114.87 E20.0621
G1 X137.63 Y115.11 E20.0621
G1 X137.76 Y114.98 E20.0621
G1 X137.85 Y115.07 E20.0621
G1 X138.22 Y115.31 E20.0621
G1 X138.35 Y115.57 E20.0621
G1 X140.75 Y117.97 E20.0621
;
; 'Support Interface', 62.4 [RPM], 25.0 [mm/s]
G1 F15000
G1 X135.57 Y117.03 E20.0621
G1 F1500
G1 X136.61 Y118.08 E20.1389
G1 X136.32 Y118.28 E20.1573
G1 X135.87 Y118.38 E20.1813
G1 X135.51 Y118.38 E20.2004
G1 X134.19 Y117.07 E20.2972
;
; 'Wipe', 0.0 [RPM], 25.0 [mm/s]
G1 F15000
G1 X134.19 Y117.07 E20.2972
G1 F1500
G1 X135.51 Y118.38 E20.2972
G1 X135.87 Y118.38 E20.2972
G1 X136.32 Y118.28 E20.2972
G1 X136.61 Y118.08 E20.2972
G1 X135.57 Y117.03 E20.2972
;
; 'Support Interface', 62.4 [RPM], 25.0 [mm/s]
G1 F15000
G1 X132.77 Y117.07 E20.2972
G1 F1500
G1 X134.09 Y118.38 E20.394
G1 X132.68 Y118.38 E20.4675
G1 X131.36 Y117.07 E20.5643
;
; 'Wipe', 0.0 [RPM], 25.0 [mm/s]
G1 F15000
G1 X131.36 Y117.07 E20.5643
G1 F1500
G1 X132.68 Y118.38 E20.5643
G1 X134.09 Y118.38 E20.5643
G1 X132.77 Y117.07 E20.5643
;
; 'Support Interface', 62.4 [RPM], 25.0 [mm/s]
G1 F15000
G1 X129.95 Y117.07 E20.5643
G1 F1500
G1 X131.26 Y118.38 E20.661
G1 X129.85 Y118.38 E20.7345
G1 X128.53 Y117.07 E20.8313
;
; 'Wipe', 0.0 [RPM], 25.0 [mm/s]
G1 F15000
G1 X128.53 Y117.07 E20.8313
G1 F1500
G1 X129.85 Y118.38 E20.8313
G1 X131.26 Y118.38 E20.8313
G1 X129.95 Y117.07 E20.8313
;
; 'Support Interface', 62.4 [RPM], 25.0 [mm/s]
G1 F15000
G1 X127.61 Y116.15 E20.8313
G1 F1500
G1 X126.37 Y114.91 E20.9224
G1 X126.63 Y115.73 E20.9671
G1 X126.6 Y116.55 E21.01
G1 X128.43 Y118.38 E21.1445
G1 X127.02 Y118.38 E21.218
G1 X126.61 Y117.97 E21.2482
;
; 'Wipe', 0.0 [RPM], 25.0 [mm/s]
G1 F15000
G1 X126.61 Y117.97 E21.2482
G1 F1500
G1 X127.02 Y118.38 E21.2482
G1 X128.43 Y118.38 E21.2482
G1 X126.6 Y116.55 E21.2482
G1 X126.63 Y115.73 E21.2482
G1 X126.37 Y114.91 E21.2482
G1 X127.61 Y116.15 E21.2482
;
; 'Support Interface', 62.4 [RPM], 25.0 [mm/s]
G1 F15000
G1 X126.6 Y113.73 E21.2482
G1 F1500
G1 X127.61 Y114.73 E21.3224
;
; 'Wipe', 0.0 [RPM], 25.0 [mm/s]
G1 F15000
G1 X127.61 Y114.73 E21.3224
G1 F1500
G1 X126.6 Y113.73 E21.3224
;
; 'Support Interface', 62.4 [RPM], 25.0 [mm/s]
G1 F15000
G1 X127.61 Y113.32 E21.3224
G1 F1500
G1 X126.6 Y112.31 E21.3965
G1 X126.6 Y112.08 E21.4088
G1 X127.08 Y111.61 E21.4434
G1 X127.31 Y111.61 E21.4557
G1 X128.64 Y112.93 E21.5531
;
; 'Wipe', 0.0 [RPM], 25.0 [mm/s]
G1 F15000
G1 X128.64 Y112.93 E21.5531
G1 F1500
G1 X127.31 Y111.61 E21.5531
G1 X127.08 Y111.61 E21.5531
G1 X126.6 Y112.08 E21.5531
G1 X126.6 Y112.31 E21.5531
G1 X127.61 Y113.32 E21.5531
;
; 'Support Interface', 62.4 [RPM], 25.0 [mm/s]
G1 F15000
G1 X130.05 Y112.93 E21.5531
G1 F1500
G1 X128.73 Y111.61 E21.6506
G1 X130.14 Y111.61 E21.7241
G1 X131.47 Y112.93 E21.8215
;
; 'Wipe', 0.0 [RPM], 25.0 [mm/s]
G1 F15000
G1 X131.47 Y112.93 E21.8215
G1 F1500
G1 X130.14 Y111.61 E21.8215
G1 X128.73 Y111.61 E21.8215
G1 X130.05 Y112.93 E21.8215
;
; 'Support Interface', 62.4 [RPM], 25.0 [mm/s]
G1 F15000
G1 X132.88 Y112.93 E21.8215
G1 F1500
G1 X131.56 Y111.61 E21.919
G1 X132.97 Y111.61 E21.9925
G1 X134.3 Y112.93 E22.09
;
; 'Wipe', 0.0 [RPM], 25.0 [mm/s]
G1 F15000
G1 X134.3 Y112.93 E22.09
G1 F1500
G1 X132.97 Y111.61 E22.09
G1 X131.56 Y111.61 E22.09
G1 X132.88 Y112.93 E22.09
;
; 'Support Interface', 62.4 [RPM], 25.0 [mm/s]
G1 F15000
G1 X135.4 Y112.62 E22.09
G1 F1500
G1 X134.38 Y111.61 E22.1645
G1 X135.8 Y111.61 E22.238
G1 X136.05 Y111.86 E22.2564
;
; 'Wipe', 0.0 [RPM], 25.0 [mm/s]
G1 F15000
G1 X136.05 Y111.86 E22.2564
G1 F1500
G1 X135.8 Y111.61 E22.2564
G1 X134.38 Y111.61 E22.2564
G1 X135.4 Y112.62 E22.2564
;
; 'Support Interface', 62.4 [RPM], 25.0 [mm/s]
G1 F15000
G1 X138.42 Y117.06 E22.2564
G1 F1500
G1 X144.85 Y123.49 E22.7286
G1 X144.14 Y124.19 E22.7806
G1 X138.42 Y118.47 E23.2009
G1 X138.42 Y119.89 E23.2744
G1 X143.44 Y124.9 E23.6428
G1 X143.17 Y125.1 E23.6602
G1 X142.92 Y125.35 E23.6785
G1 X142.63 Y125.51 E23.6956
G1 X141.97 Y124.85 E23.7442
;
; 'Wipe', 0.0 [RPM], 25.0 [mm/s]
G1 F15000
G1 X141.97 Y124.85 E23.7442
G1 F1500
G1 X142.63 Y125.51 E23.7442
G1 X142.92 Y125.35 E23.7442
G1 X143.17 Y125.1 E23.7442
G1 X143.44 Y124.9 E23.7442
G1 X138.42 Y119.89 E23.7442
G1 X138.42 Y118.47 E23.7442
;
; 'Support Interface', 62.4 [RPM], 25.0 [mm/s]
G1 F15000
G1 X140.7 Y123.58 E23.7442
G1 F1500
G1 X138.42 Y121.3 E23.9115
G1 X138.42 Y121.72 E23.9335
G1 X138.49 Y122.18 E23.9576
G1 X138.71 Y122.53 E23.9786
G1 X138.7 Y122.99 E24.0028
G1 X139.58 Y123.87 E24.0676
;
; 'Support Interface', 62.4 [RPM], 25.0 [mm/s]
G1 F15000
G1 X115.5 Y123.84 E24.0676
G1 F1500
G1 X110.3 Y118.64 E24.4499
G1 X110.3 Y120.05 E24.5234
G1 X113.83 Y123.58 E24.7827
;
; 'Wipe', 0.0 [RPM], 25.0 [mm/s]
G1 F15000
G1 X113.83 Y123.58 E24.7827
G1 F1500
G1 X110.3 Y120.05 E24.7827
G1 X110.3 Y118.64 E24.7827
G1 X112.89 Y121.22 E24.7827
;
; 'Support Interface', 62.4 [RPM], 25.0 [mm/s]
G1 F15000
G1 X114.44 Y124.19 E24.7827
G1 F1500
G1 X114.44 Y124.19 E24.7828
;
; 'Wipe', 0.0 [RPM], 25.0 [mm/s]
G1 F15000
G1 X114.44 Y124.19 E24.7828
G1 F1500
G1 X114.44 Y124.19 E24.7828
;
; 'Support Interface', 62.4 [RPM], 25.0 [mm/s]
G1 F15000
G1 X114.44 Y125.61 E24.7828
G1 F1500
G1 X110.3 Y121.47 E25.0872
G1 X110.29 Y122.3 E25.1304
G1 X110.35 Y122.78 E25.1556
G1 X110.55 Y123.13 E25.1766
G1 X113.74 Y126.31 E25.4106
G1 X113.36 Y126.52 E25.4328
G1 X112.7 Y126.52 E25.4676
G1 X112.32 Y126.32 E25.4897
G1 X110.91 Y124.9 E25.5939
;
; 'Support Interface', 62.4 [RPM], 25.0 [mm/s]
G1 F15000
G1 X115.56 Y121.06 E25.5939
G1 F1500
G1 X110.3 Y115.81 E25.9802
G1 X110.3 Y117.22 E26.0537
G1 X115.28 Y122.2 E26.4195
;
; 'Wipe', 0.0 [RPM], 25.0 [mm/s]
G1 F15000
G1 X115.28 Y122.2 E26.4195
G1 F1500
G1 X110.3 Y117.22 E26.4195
G1 X110.3 Y115.81 E26.4195
G1 X111.4 Y116.91 E26.4195
;
; 'Perimeter', 49.9 [RPM], 25.0 [mm/s]
G1 F15000
G1 X115.76 Y123.04 E26.4195
G1 F1500
G1 X115.82 Y123 E26.4223
G1 X116.06 Y122.98 E26.4325
G1 X116.17 Y122.92 E26.4379
G1 X116.32 Y122.88 E26.4441
G1 X116.43 Y122.82 E26.4494
G1 X116.52 Y122.82 E26.4532
G1 X116.68 Y122.9 E26.4606
G1 X137.37 Y122.9 E27.3205
G1 X137.54 Y123.02 E27.3293
G1 X137.66 Y123.02 E27.3345
G1 X137.81 Y122.92 E27.342
G1 X137.93 Y122.98 E27.3474
G1 X137.99 Y122.99 E27.3502
G1 X138.05 Y123.04 E27.3532
G1 X138.07 Y123.54 E27.3742
G1 X138.16 Y123.63 E27.3794
G1 X138.17 Y124.16 E27.4013
G1 X138.26 Y124.24 E27.4065
G1 X138.26 Y124.67 E27.4243
;
; 'Wipe', 0.0 [RPM], 25.0 [mm/s]
G1 F15000
G1 X138.26 Y124.67 E27.4243
G1 F1500
G1 X138.26 Y124.24 E27.4243
G1 X138.17 Y124.16 E27.4243
G1 X138.16 Y123.63 E27.4243
G1 X138.07 Y123.54 E27.4243
G1 X138.05 Y123.04 E27.4243
G1 X137.99 Y122.99 E27.4243
G1 X137.93 Y122.98 E27.4243
G1 X137.81 Y122.92 E27.4243
G1 X137.66 Y123.02 E27.4243
G1 X137.54 Y123.02 E27.4243
G1 X137.37 Y122.9 E27.4243
G1 X129.76 Y122.9 E27.4243
;
; 'Perimeter', 49.9 [RPM], 25.0 [mm/s]
G1 F15000
G1 X137.19 Y122.01 E27.4243
G1 F1500
G1 X137.42 Y122.24 E27.4378
G1 X137.32 Y122.32 E27.443
G1 X117.34 Y122.32 E28.2735
G1 X116.69 Y122.3 E28.3005
G1 X116.56 Y122.25 E28.3064
G1 X116.56 Y107.75 E28.9094
G1 X116.69 Y107.63 E28.9167
G1 X135.96 Y107.63 E29.7178
G1 X137.02 Y107.63 E29.7619
G1 X137.09 Y107.73 E29.7672
G1 X137.09 Y110.6 E29.8865
G1 X126.09 Y110.6 E30.3436
G1 X125.78 Y110.61 E30.3565
G1 X125.67 Y110.67 E30.3618
G1 X125.6 Y110.95 E30.3739
G1 X125.6 Y111.1 E30.3798
G1 X125.6 Y113.78 E30.4913
G1 X125.55 Y113.91 E30.497
G1 X125.2 Y113.91 E30.5114
G1 X125.09 Y113.98 E30.5168
G1 X125.02 Y114.15 E30.5244
G1 X125.03 Y115.56 E30.5829
G1 X125.01 Y115.74 E30.5907
G1 X125.02 Y115.91 E30.5977
G1 X125.09 Y116.02 E30.603
G1 X125.2 Y116.09 E30.6084
G1 X125.55 Y116.1 E30.6228
G1 X125.6 Y116.22 E30.6284
G1 X125.6 Y118.9 E30.74
G1 X125.61 Y119.21 E30.7526
G1 X125.68 Y119.32 E30.758
G1 X125.91 Y119.39 E30.768
G1 X125.96 Y119.4 E30.77
G1 X137.22 Y119.4 E31.2384
G1 X137.35 Y119.49 E31.2451
G1 X137.42 Y119.59 E31.25
G1 X137.42 Y122.24 E31.3602
G1 X137.09 Y122.21 E31.3737
;
; 'Loop', 49.9 [RPM], 25.0 [mm/s]
G1 F15000
G1 X136.91 Y121.73 E31.3737
G1 F1500
G1 X136.81 Y121.81 E31.3789
G1 X117.35 Y121.81 E32.188
G1 X117.07 Y121.74 E32.2001
G1 X117.07 Y108.26 E32.7608
G1 X117.12 Y108.13 E32.7665
G1 X136.52 Y108.13 E33.573
G1 X136.59 Y108.23 E33.5783
G1 X136.58 Y110.09 E33.6555
G1 X126.07 Y110.09 E34.0926
G1 X125.69 Y110.11 E34.1083
G1 X125.42 Y110.24 E34.1209
G1 X125.24 Y110.42 E34.1313
G1 X125.11 Y110.69 E34.144
G1 X125.09 Y111.07 E34.1597
G1 X125.09 Y113.27 E34.2512
G1 X125.07 Y113.43 E34.2579
G1 X124.83 Y113.55 E34.2689
G1 X124.66 Y113.72 E34.2793
G1 X124.54 Y113.96 E34.2903
G1 X124.51 Y114.12 E34.2971
G1 X124.52 Y115.53 E34.3557
G1 X124.51 Y115.89 E34.3706
G1 X124.59 Y116.17 E34.3826
G1 X124.74 Y116.37 E34.3931
G1 X124.94 Y116.52 E34.4037
G1 X125.07 Y116.57 E34.4094
G1 X125.09 Y116.73 E34.416
G1 X125.09 Y119.02 E34.5114
G1 X125.13 Y119.34 E34.5246
G1 X125.25 Y119.58 E34.5356
G1 X125.42 Y119.75 E34.546
G1 X125.68 Y119.87 E34.5579
G1 X125.98 Y119.9 E34.5705
G1 X136.77 Y119.9 E35.0188
G1 X136.91 Y119.93 E35.0249
G1 X136.91 Y121.73 E35.0998
;
; 'Wipe', 0.0 [RPM], 25.0 [mm/s]
G1 F15000
G1 X136.91 Y121.73 E35.0998
G1 F1500
G1 X136.91 Y119.93 E35.0998
G1 X136.77 Y119.9 E35.0998
G1 X128.71 Y119.9 E35.0998
;
; 'Perimeter', 49.9 [RPM], 25.0 [mm/s]
G1 F15000
G1 X125.76 Y115.06 E35.0998
G1 F1500
G1 X125.8 Y115.4 E35.114
G1 X125.73 Y115.38 E35.117
G1 X125.63 Y115.13 E35.1282
G1 X125.63 Y114.88 E35.1387
G1 X125.73 Y114.62 E35.1502
G1 X125.8 Y114.6 E35.1534
G1 X125.86 Y114.72 E35.1589
G1 X125.86 Y114.89 E35.1662
G1 X125.96 Y114.98 E35.1714
G1 X125.96 Y115.02 E35.1733
G1 X125.87 Y115.11 E35.1785
G1 X125.86 Y115.28 E35.1858
G1 X125.8 Y115.4 E35.1912
G1 X125.58 Y115.13 E35.2054
;
; 'Wipe', 0.0 [RPM], 25.0 [mm/s]
G1 F15000
G1 X125.58 Y115.13 E35.2054
G1 F1500
G1 X125.8 Y115.4 E35.2054
G1 X125.86 Y115.28 E35.2054
G1 X125.87 Y115.11 E35.2054
G1 X125.96 Y115.02 E35.2054
G1 X125.96 Y114.98 E35.2054
G1 X125.86 Y114.89 E35.2054
G1 X125.86 Y114.72 E35.2054
G1 X125.8 Y114.6 E35.2054
G1 X125.73 Y114.62 E35.2054
G1 X125.63 Y114.88 E35.2054
G1 X125.63 Y115.13 E35.2054
G1 X125.73 Y115.38 E35.2054
G1 X125.8 Y115.4 E35.2054
G1 X125.76 Y115.06 E35.2054
;
; 'Perimeter', 49.9 [RPM], 25.0 [mm/s]
G1 F15000
G1 X115.76 Y123.05 E35.2054
G1 F1500
G1 X115.75 Y123.2 E35.2117
G1 X115.66 Y123.28 E35.2169
G1 X115.65 Y123.63 E35.2313
G1 X115.56 Y123.72 E35.2365
G1 X115.56 Y124.07 E35.2511
G1 X115.47 Y124.16 E35.2563
G1 X115.47 Y124.33 E35.2636
G1 X115.38 Y124.42 E35.2688
G1 X115.38 Y124.6 E35.2761
;
; 'Loop', 49.9 [RPM], 25.0 [mm/s]
G1 F15000
G1 X115.58 Y123.74 E35.2761
G1 F1500
G1 X115.67 Y123.65 E35.2813
G1 X115.69 Y123.49 E35.2882
G1 X116.04 Y123.49 E35.303
G1 X116.45 Y123.37 E35.3207
G1 X116.65 Y123.4 E35.3292
G1 X116.66 Y123.4 E35.3293
G1 X137.51 Y123.4 E36.1966
G1 X137.67 Y123.42 E36.203
G1 X137.97 Y123.5 E36.2158
G1 X138.14 Y123.65 E36.2256
G1 X138.15 Y124.17 E36.2471
G1 X138.24 Y124.26 E36.2523
G1 X138.25 Y124.66 E36.269
;
; 'Solid', 49.9 [RPM], 25.0 [mm/s]
G1 F15000
G1 X136.38 Y121.35 E36.269
G1 F1500
G1 X135.72 Y121.3 E36.2963
G1 X136.42 Y120.61 E36.3371
G1 X135.92 Y120.39 E36.3595
G1 X135.01 Y121.3 E36.4127
G1 X134.31 Y121.3 E36.4421
G1 X135.19 Y120.41 E36.4943
G1 X134.49 Y120.41 E36.5237
G1 X133.6 Y121.3 E36.5758
G1 X132.89 Y121.3 E36.6052
G1 X133.78 Y120.41 E36.6574
G1 X133.07 Y120.41 E36.6868
G1 X132.19 Y121.3 E36.7389
G1 X131.48 Y121.3 E36.7683
G1 X132.37 Y120.41 E36.8205
G1 X131.66 Y120.41 E36.8499
G1 X130.77 Y121.3 E36.9021
G1 X130.07 Y121.3 E36.9315
G1 X130.95 Y120.41 E36.9836
G1 X130.25 Y120.41 E37.013
G1 X129.36 Y121.3 E37.0652
G1 X128.65 Y121.3 E37.0946
G1 X129.54 Y120.41 E37.1467
G1 X128.83 Y120.41 E37.1761
G1 X127.94 Y121.3 E37.2283
G1 X127.24 Y121.3 E37.2577
G1 X128.12 Y120.41 E37.3099
G1 X127.42 Y120.41 E37.3393
G1 X126.53 Y121.3 E37.3914
G1 X125.82 Y121.3 E37.4208
G1 X126.71 Y120.41 E37.473
G1 X126 Y120.41 E37.5024
G1 X125.12 Y121.3 E37.5546
G1 X124.41 Y121.3 E37.584
G1 X125.4 Y120.31 E37.642
G1 X124.96 Y120.04 E37.6633
G1 X123.7 Y121.3 E37.7375
G1 X122.99 Y121.3 E37.7669
G1 X124.68 Y119.62 E37.8658
G1 X124.59 Y119 E37.8918
G1 X122.29 Y121.3 E38.0271
G1 X121.58 Y121.3 E38.0565
G1 X124.58 Y118.3 E38.2328
G1 X124.58 Y117.59 E38.2622
G1 X120.87 Y121.3 E38.48
G1 X120.17 Y121.3 E38.5094
G1 X124.56 Y116.91 E38.7675
G1 X124.22 Y116.54 E38.7883
G1 X119.46 Y121.3 E39.068
G1 X118.75 Y121.3 E39.0974
G1 X124.01 Y116.04 E39.4068
G1 X124.01 Y115.33 E39.436
G1 X118.02 Y121.32 E39.7879
G1 X117.56 Y121.07 E39.8096
G1 X124 Y114.64 E40.1878
G1 X124.09 Y113.84 E40.2212
G1 X117.58 Y120.35 E40.6035
G1 X117.58 Y119.64 E40.6329
G1 X124.58 Y112.64 E41.0442
G1 X124.58 Y111.94 E41.0736
G1 X117.58 Y118.93 E41.4849
G1 X117.58 Y118.22 E41.5143
G1 X124.55 Y111.25 E41.9241
G1 X124.76 Y110.34 E41.9629
G1 X117.58 Y117.52 E42.3848
G1 X117.58 Y116.81 E42.4142
G1 X125.75 Y108.64 E42.8945
G1 X125.04 Y108.64 E42.9239
G1 X117.58 Y116.1 E43.3625
G1 X117.58 Y115.4 E43.3919
G1 X124.34 Y108.64 E43.789
G1 X123.63 Y108.64 E43.8184
G1 X117.58 Y114.69 E44.1739
G1 X117.58 Y113.98 E44.2033
G1 X122.92 Y108.64 E44.5173
G1 X122.22 Y108.64 E44.5467
G1 X117.58 Y113.27 E44.8191
G1 X117.58 Y112.57 E44.8485
G1 X121.51 Y108.64 E45.0793
G1 X120.8 Y108.64 E45.1087
G1 X117.58 Y111.86 E45.2979
G1 X117.58 Y111.15 E45.3273
G1 X120.09 Y108.64 E45.4749
G1 X119.39 Y108.64 E45.5043
G1 X117.58 Y110.45 E45.6104
G1 X117.58 Y109.74 E45.6398
G1 X118.68 Y108.64 E45.7043
G1 X117.97 Y108.64 E45.7337
G1 X117.56 Y109.05 E45.7579
;
; 'Solid', 49.9 [RPM], 25.0 [mm/s]
G1 F15000
G1 X125.24 Y109.86 E45.7579
G1 F1500
G1 X126.46 Y108.64 E45.8293
G1 X127.17 Y108.64 E45.8587
G1 X126.23 Y109.58 E45.9139
G1 X126.93 Y109.58 E45.9433
G1 X127.87 Y108.64 E45.9984
G1 X128.58 Y108.64 E46.0278
G1 X127.64 Y109.58 E46.083
G1 X128.35 Y109.58 E46.1123
G1 X129.29 Y108.64 E46.1675
G1 X129.99 Y108.64 E46.1969
G1 X129.06 Y109.58 E46.252
G1 X129.76 Y109.58 E46.2814
G1 X130.7 Y108.64 E46.3366
G1 X131.41 Y108.64 E46.366
G1 X130.47 Y109.58 E46.4211
G1 X131.18 Y109.58 E46.4505
G1 X132.12 Y108.64 E46.5057
G1 X132.82 Y108.64 E46.5351
G1 X131.88 Y109.58 E46.5902
G1 X132.59 Y109.58 E46.6196
G1 X133.53 Y108.64 E46.6747
G1 X134.24 Y108.64 E46.7041
G1 X133.3 Y109.58 E46.7593
G1 X134.01 Y109.58 E46.7887
G1 X134.94 Y108.64 E46.8438
G1 X135.65 Y108.64 E46.8732
G1 X134.71 Y109.58 E46.9284
G1 X135.42 Y109.58 E46.9578
G1 X136.15 Y108.85 E47.0008
;
; 'Wipe', 0.0 [RPM], 25.0 [mm/s]
G1 F15000
G1 X136.15 Y108.85 E47.0008
G1 F1500
G1 X135.42 Y109.58 E47.0008
G1 X134.71 Y109.58 E47.0008
G1 X135.65 Y108.64 E47.0008
G1 X134.94 Y108.64 E47.0008
G1 X134.01 Y109.58 E47.0008
G1 X133.3 Y109.58 E47.0008
G1 X134.24 Y108.64 E47.0008
G1 X133.53 Y108.64 E47.0008
G1 X132.59 Y109.58 E47.0008
G1 X131.88 Y109.58 E47.0008
G1 X132.82 Y108.64 E47.0008
;
; 'Sparse Infill', 49.9 [RPM], 25.0 [mm/s]
G1 F15000
G1 X133.54 Y124.19 E47.0008
G1 F1500
G1 X133.54 Y124.62 E47.0188
G1 X133.5 Y124.86 E47.0292
G1 X133.39 Y125.04 E47.0377
G1 X132.26 Y126.17 E47.1043
G1 X132.09 Y126.28 E47.1128
G1 X131.84 Y126.31 E47.1232
G1 X129.58 Y126.31 E47.2173
G1 X129.33 Y126.35 E47.2277
G1 X129.15 Y126.46 E47.2363
G1 X128.02 Y127.59 E47.3028
G1 X127.91 Y127.76 E47.3113
G1 X127.88 Y128.01 E47.3217
G1 X127.88 Y130.27 E47.4158
G1 X127.84 Y130.52 E47.4262
G1 X127.74 Y130.7 E47.4348
G1 X126.61 Y131.83 E47.5013
G1 X126.43 Y131.94 E47.5099
G1 X126.18 Y131.97 E47.5203
G1 X123.92 Y131.97 E47.6143
G1 X123.67 Y132.01 E47.6247
G1 X123.49 Y132.11 E47.6333
G1 X122.58 Y133.03 E47.6873
G1 X121.16 Y131.62 E47.7705
G1 X122.08 Y130.7 E47.8245
G1 X122.19 Y130.52 E47.8331
G1 X122.22 Y130.27 E47.8435
G1 X122.22 Y128.01 E47.9376
G1 X122.26 Y127.76 E47.948
G1 X122.36 Y127.59 E47.9566
G1 X123.49 Y126.46 E48.0231
G1 X123.67 Y126.35 E48.0316
G1 X123.92 Y126.31 E48.042
G1 X126.18 Y126.31 E48.1361
G1 X126.43 Y126.28 E48.1465
G1 X126.61 Y126.17 E48.1551
G1 X127.74 Y125.04 E48.2216
G1 X127.84 Y124.86 E48.2302
G1 X127.88 Y124.62 E48.2406
G1 X127.88 Y124.19 E48.2585
G1 X122.22 Y124.19 E48.4937
G1 X122.22 Y124.62 E48.5116
G1 X122.19 Y124.86 E48.522
G1 X122.08 Y125.04 E48.5306
G1 X120.95 Y126.17 E48.5971
G1 X120.77 Y126.28 E48.6057
G1 X120.52 Y126.31 E48.6161
G1 X118.26 Y126.31 E48.7101
G1 X118.01 Y126.35 E48.7205
G1 X117.84 Y126.46 E48.7291
G1 X116.92 Y127.37 E48.7831
G1 X115.5 Y125.96 E48.8663
G1 X116.42 Y125.04 E48.9203
G1 X116.53 Y124.86 E48.9289
G1 X116.56 Y124.62 E48.9393
G1 X116.56 Y124.19 E48.9572
;
; 'Wipe', 0.0 [RPM], 25.0 [mm/s]
G1 F15000
G1 X116.56 Y124.19 E48.9572
G1 F1500
G1 X116.56 Y124.62 E48.9572
G1 X116.53 Y124.86 E48.9572
G1 X116.42 Y125.04 E48.9572
G1 X115.5 Y125.96 E48.9572
G1 X116.92 Y127.37 E48.9572
G1 X117.84 Y126.46 E48.9572
G1 X118.01 Y126.35 E48.9572
G1 X118.26 Y126.31 E48.9572
G1 X120.52 Y126.31 E48.9572
G1 X120.77 Y126.28 E48.9572
G1 X120.95 Y126.17 E48.9572
G1 X122.01 Y125.11 E48.9572
;
; 'Sparse Infill', 49.9 [RPM], 25.0 [mm/s]
G1 F15000
G1 X126.82 Y137.27 E48.9572
G1 F1500
G1 X127.74 Y136.35 E49.0113
G1 X127.84 Y136.18 E49.0199
G1 X127.88 Y135.93 E49.0302
G1 X127.88 Y133.67 E49.1243
G1 X127.91 Y133.42 E49.1347
G1 X128.02 Y133.24 E49.1433
G1 X129.15 Y132.11 E49.2098
G1 X129.33 Y132.01 E49.2184
G1 X129.58 Y131.97 E49.2288
G1 X131.84 Y131.97 E49.3228
G1 X132.09 Y131.94 E49.3332
G1 X132.26 Y131.83 E49.3418
G1 X133.39 Y130.7 E49.4083
G1 X133.5 Y130.52 E49.4169
G1 X133.54 Y130.27 E49.4273
G1 X133.54 Y128.01 E49.5214
G1 X133.57 Y127.76 E49.5318
G1 X133.68 Y127.59 E49.5403
G1 X134.81 Y126.46 E49.6069
G1 X134.99 Y126.35 E49.6154
G1 X135.23 Y126.31 E49.6258
G1 X137.5 Y126.31 E49.7199
G1 X137.74 Y126.28 E49.7303
G1 X137.92 Y126.17 E49.7389
G1 X139.19 Y124.9 E49.8137
;
; 'Wipe', 0.0 [RPM], 25.0 [mm/s]
G1 F15000
G1 X139.19 Y124.9 E49.8137
G1 F1500
G1 X137.92 Y126.17 E49.8137
G1 X137.74 Y126.28 E49.8137
G1 X137.5 Y126.31 E49.8137
G1 X135.23 Y126.31 E49.8137
G1 X134.99 Y126.35 E49.8137
G1 X134.81 Y126.46 E49.8137
G1 X133.68 Y127.59 E49.8137
G1 X133.57 Y127.76 E49.8137
G1 X133.54 Y128.01 E49.8137
G1 X133.54 Y130.27 E49.8137
G1 X133.5 Y130.52 E49.8137
G1 X133.39 Y130.7 E49.8137
G1 X133.18 Y130.91 E49.8137
;
; 'Crown', 49.9 [RPM], 25.0 [mm/s]
G1 F15000
G1 X137.52 Y115.97 E49.8137
G1 F1500
G1 X137.52 Y119.16 E49.9464
;
; 'Wipe', 0.0 [RPM], 25.0 [mm/s]
G1 F15000
G1 X137.52 Y119.16 E49.9464
G1 F1500
G1 X137.52 Y115.97 E49.9464
;
; 'Perimeter', 49.9 [RPM], 25.0 [mm/s]
G1 F15000
G1 X135.44 Y112.84 E49.9464
G1 F1500
G1 X136.69 Y111.62 E50.0192
G1 X137.06 Y111.3 E50.0394
G1 X137.09 Y111.44 E50.0455
G1 X137.09 Y114.09 E50.1557
G1 X137.03 Y114.25 E50.1629
G1 X136.91 Y114.31 E50.1685
G1 X136.74 Y114.32 E50.1754
G1 X136.66 Y114.41 E50.1806
G1 X136.6 Y114.41 E50.1828
G1 X135.78 Y114.42 E50.217
G1 X135.69 Y114.51 E50.2222
G1 X135.34 Y114.51 E50.2368
;
; 'Wipe', 0.0 [RPM], 25.0 [mm/s]
G1 F15000
G1 X135.34 Y114.51 E50.2368
G1 F1500
G1 X135.69 Y114.51 E50.2368
G1 X135.78 Y114.42 E50.2368
G1 X136.6 Y114.41 E50.2368
G1 X136.66 Y114.41 E50.2368
G1 X136.74 Y114.32 E50.2368
G1 X136.91 Y114.31 E50.2368
G1 X137.03 Y114.25 E50.2368
G1 X137.09 Y114.09 E50.2368
G1 X137.09 Y111.44 E50.2368
G1 X137.06 Y111.3 E50.2368
G1 X136.69 Y111.62 E50.2368
G1 X135.44 Y112.84 E50.2368
;
; 'Loop', 49.9 [RPM], 25.0 [mm/s]
G1 F15000
G1 X135.45 Y112.85 E50.2368
G1 F1500
G1 X136.59 Y111.77 E50.3021
G1 X136.59 Y113.99 E50.3943
G1 X136.52 Y114.31 E50.4081
G1 X136.46 Y114.39 E50.4121
G1 X135.77 Y114.4 E50.4407
G1 X135.68 Y114.49 E50.4459
G1 X135.33 Y114.5 E50.4605
;
; 'Wipe', 0.0 [RPM], 25.0 [mm/s]
G1 F15000
G1 X135.33 Y114.5 E50.4605
G1 F1500
G1 X135.68 Y114.49 E50.4605
G1 X135.77 Y114.4 E50.4605
G1 X136.46 Y114.39 E50.4605
G1 X136.52 Y114.31 E50.4605
G1 X136.59 Y113.99 E50.4605
G1 X136.59 Y111.77 E50.4605
G1 X135.45 Y112.85 E50.4605
;
; 'Crown', 49.9 [RPM], 25.0 [mm/s]
G1 F15000
G1 X137.59 Y114.13 E50.4605
G1 F1500
G1 X137.58 Y108.62 E50.6897
;
; 'Wipe', 0.0 [RPM], 25.0 [mm/s]
G1 F15000
G1 X137.58 Y108.62 E50.6897
G1 F1500
G1 X137.59 Y114.13 E50.6897
;
; 'Sparse Infill', 49.9 [RPM], 25.0 [mm/s]
G1 F15000
G1 X133.54 Y113.58 E50.6897
G1 F1500
G1 X132.26 Y114.86 E50.7646
G1 X132.09 Y114.96 E50.7731
G1 X131.84 Y115 E50.7835
G1 X129.58 Y115 E50.8776
G1 X129.33 Y115.04 E50.888
G1 X129.15 Y115.14 E50.8966
G1 X127.88 Y116.42 E50.9714
;
; 'Wipe', 0.0 [RPM], 25.0 [mm/s]
G1 F15000
G1 X127.88 Y116.42 E50.9714
G1 F1500
G1 X129.15 Y115.14 E50.9714
G1 X129.33 Y115.04 E50.9714
G1 X129.58 Y115 E50.9714
G1 X131.84 Y115 E50.9714
G1 X132.09 Y114.96 E50.9714
G1 X132.26 Y114.86 E50.9714
G1 X133.54 Y113.58 E50.9714
;
; 'Sparse Infill', 49.9 [RPM], 25.0 [mm/s]
G1 F15000
G1 X127.88 Y113.59 E50.9714
G1 F1500
G1 X127.88 Y113.58 E50.9717
G1 X133.54 Y116.42 E51.2347
G1 X134.81 Y115.14 E51.3095
G1 X134.96 Y115 E51.3181
;
; 'Wipe', 0.0 [RPM], 25.0 [mm/s]
G1 F15000
G1 X134.96 Y115 E51.3181
G1 F1500
G1 X134.81 Y115.14 E51.3181
G1 X133.54 Y116.42 E51.3181
G1 X127.88 Y113.58 E51.3181
G1 X127.88 Y113.59 E51.3181
G1 F210
G1 X127.88 Y113.59 Z0.4 E51.3181
; END_LAYER_OBJECT z=0.20
; Reset extruder pos
G92 E0
; BEGIN_LAYER_OBJECT z=0.40
;
; *** Warming Extruder 1 to 160 C ***
M104 S160
G92 E0
;
; fan on
M106
;
; 'Support Base', 134.7 [RPM], 67.5 [mm/s]
G1 F15000
G1 X110.3 Y114.39 E0
G1 F4050
G1 X113.66 Y117.75 E0.1973
G1 X113.66 Y116.34 E0.2561
G1 X110.3 Y112.98 E0.4534
G1 X110.3 Y111.57 E0.5122
G1 X113.66 Y114.92 E0.7095
G1 X113.66 Y113.51 E0.7683
G1 X110.3 Y110.15 E0.9656
G1 X110.3 Y108.74 E1.0244
G1 X113.66 Y112.09 E1.2218
G1 X113.66 Y110.68 E1.2806
G1 X110.3 Y107.32 E1.4779
G1 X110.46 Y107.03 E1.4916
G1 X110.77 Y106.85 E1.5066
G1 X110.91 Y106.51 E1.5216
G1 X113.66 Y109.26 E1.6833
G1 X113.66 Y107.85 E1.7421
G1 X111.62 Y105.81 E1.8622
G1 X112.32 Y105.1 E1.9037
G1 X114.09 Y106.87 E2.0077
G1 X114.59 Y106.41 E2.0356
G1 X114.86 Y106.22 E2.0495
G1 X113.03 Y104.39 E2.157
G1 X113.36 Y104.25 E2.172
G1 X113.55 Y103.94 E2.187
G1 X113.84 Y103.79 E2.2007
G1 X116.56 Y106.51 E2.361
G1 X117.04 Y106.42 E2.381
G1 X117.51 Y106.83 E2.4071
G1 X117.98 Y106.52 E2.4308
G1 X117.98 Y106.51 E2.4309
G1 X118.69 Y105.81 E2.4725
G1 X119.49 Y106.61 E2.5197
G1 X120.9 Y106.61 E2.5785
G1 X119.39 Y105.1 E2.6674
G1 X119.63 Y104.86 E2.6813
G1 X119.91 Y104.65 E2.696
G1 X120.2 Y104.49 E2.7097
G1 X122.32 Y106.61 E2.8342
G1 X123.73 Y106.61 E2.893
G1 X121.16 Y104.04 E3.0442
G1 X121.87 Y103.33 E3.0858
G1 X125.15 Y106.61 E3.2786
G1 X126.56 Y106.61 E3.3374
G1 X122.58 Y102.63 E3.5718
G1 X123.28 Y101.92 E3.6133
G1 X127.98 Y106.61 E3.8893
G1 X129.39 Y106.61 E3.9481
G1 X124.44 Y101.67 E4.2388
G1 X125.86 Y101.67 E4.2976
G1 X130.8 Y106.61 E4.5884
G1 X132.22 Y106.61 E4.6472
G1 X127.27 Y101.67 E4.938
G1 X128.69 Y101.67 E4.9968
G1 X133.63 Y106.61 E5.2875
G1 X135.05 Y106.61 E5.3463
G1 X130.1 Y101.67 E5.6371
G1 X131.52 Y101.67 E5.6959
G1 X136.46 Y106.61 E5.9867
G1 X137.35 Y106.6 E6.0235
G1 X137.78 Y106.51 E6.0418
G1 X132.93 Y101.67 E6.3268
G1 X134.34 Y101.67 E6.3856
G1 X138.76 Y106.08 E6.6453
;
; 'Support Base', 134.7 [RPM], 67.5 [mm/s]
G1 F15000
G1 X140.33 Y107.65 E6.6453
G1 F4050
G1 X146.97 Y114.29 E7.0355
G1 X146.64 Y114.06 E7.052
G1 X146.18 Y113.9 E7.0726
G1 X145.65 Y113.9 E7.0946
G1 X145.26 Y114 E7.1111
G1 X140.33 Y109.07 E7.4012
G1 X140.33 Y110.48 E7.46
G1 X144.5 Y114.65 E7.7048
G1 X144.29 Y114.93 E7.7195
G1 X144.14 Y115.28 E7.7353
G1 X144.06 Y115.63 E7.75
G1 X140.33 Y111.9 E7.9694
G1 X140.33 Y113.31 E8.0282
G1 X144.31 Y117.29 E8.2623
G1 X144.6 Y118.19 E8.3015
G1 X144.84 Y118.64 E8.3227
G1 X144.77 Y119.16 E8.3445
G1 X140.19 Y114.58 E8.6138
G1 X140.01 Y114.97 E8.6317
G1 X140.18 Y115.4 E8.6506
G1 X140.29 Y115.75 E8.6661
G1 X140.33 Y116.14 E8.6823
G1 X144.14 Y119.95 E8.9063
G1 X143.94 Y120.24 E8.921
G1 X143.78 Y120.59 E8.9369
G1 X143.71 Y120.93 E8.9515
G1 X140.33 Y117.55 E9.1502
G1 X140.33 Y118.97 E9.209
G1 X144.85 Y123.49 E9.4746
G1 X144.14 Y124.19 E9.5162
G1 X143.51 Y123.56 E9.5531
G1 X143.47 Y123.18 E9.569
G1 X143.27 Y122.68 E9.5914
G1 X142.82 Y122.24 E9.6176
G1 X142.32 Y122.04 E9.64
G1 X141.94 Y121.99 E9.6559
G1 X140.33 Y120.38 E9.7506
;
; 'Support Interface', 101.0 [RPM], 67.5 [mm/s]
G1 F15000
G1 X139.07 Y120.53 E9.7506
G1 F4050
G1 X139.8 Y121.26 E9.7829
G1 X139.8 Y119.85 E9.827
G1 X139.07 Y119.12 E9.8593
G1 X139.09 Y118.17 E9.8887
G1 X139.07 Y117.7 E9.9034
G1 X139.8 Y118.43 E9.9357
G1 X139.8 Y117.02 E9.9798
G1 X139.07 Y116.29 E10.0121
G1 X139.09 Y115.98 E10.0217
G1 X139.5 Y115.53 E10.0407
G1 X139.54 Y115.35 E10.0465
G1 X139.55 Y115.36 E10.0467
G1 X139.32 Y114.97 E10.0607
G1 X139.8 Y114.19 E10.0892
G1 X139.07 Y113.46 E10.1215
G1 X139.09 Y112.52 E10.1509
G1 X139.07 Y112.05 E10.1656
G1 X139.8 Y112.78 E10.1979
G1 X139.8 Y111.36 E10.242
G1 X139.07 Y110.63 E10.2743
G1 X139.09 Y109.69 E10.3037
G1 X139.07 Y109.22 E10.3184
G1 X139.8 Y109.95 E10.3507
G1 X139.8 Y108.53 E10.3948
G1 X139.07 Y107.8 E10.4271
G1 X139.08 Y107.5 E10.4366
G1 X139.5 Y107.05 E10.4558
G1 X139.54 Y106.87 E10.4616
G1 X139.55 Y106.87 E10.4617
;
; 'Support Base', 134.7 [RPM], 67.5 [mm/s]
G1 F15000
G1 X141.94 Y105.02 E10.4617
G1 F4050
G1 X141.41 Y104.49 E10.4926
;
; 'Support Interface', 101.0 [RPM], 67.5 [mm/s]
G1 F15000
G1 X142.73 Y105.81 E10.4926
G1 F4050
G1 X142.52 Y105.43 E10.506
G1 X142.52 Y104.77 E10.5269
G1 X142.73 Y104.39 E10.5402
G1 X144.14 Y105.81 E10.6026
G1 X144.85 Y105.1 E10.6338
G1 X143.43 Y103.69 E10.6962
G1 X143.81 Y103.48 E10.7095
G1 X144.48 Y103.48 E10.7303
G1 X144.85 Y103.69 E10.7438
;
; 'Support Base', 134.7 [RPM], 67.5 [mm/s]
G1 F15000
G1 X144.5 Y106.16 E10.7438
G1 F4050
G1 X148.99 Y110.66 E11.008
G1 X149 Y110.34 E11.0213
G1 X149.17 Y109.86 E11.0422
G1 X149.45 Y109.7 E11.0557
G1 X145.2 Y105.45 E11.3051
G1 X145.41 Y105.17 E11.3198
G1 X145.56 Y104.82 E11.3357
G1 X145.63 Y104.47 E11.3503
G1 X150.15 Y108.99 E11.616
G1 X150.39 Y108.75 E11.6298
G1 X150.6 Y108.47 E11.6445
G1 X150.76 Y108.18 E11.6583
G1 X145.2 Y102.63 E11.985
G1 X145.57 Y102.42 E12.0027
G1 X146.24 Y102.42 E12.0305
G1 X146.62 Y102.62 E12.0482
G1 X149.45 Y105.46 E12.2147
;
; 'Support Base', 134.7 [RPM], 67.5 [mm/s]
G1 F15000
G1 X148.74 Y111.82 E12.2147
G1 F4050
G1 X143.51 Y106.59 E12.5219
;
; 'Support Interface', 101.0 [RPM], 67.5 [mm/s]
G1 F15000
G1 X144.85 Y115 E12.5219
G1 F4050
G1 X147.22 Y117.37 E12.6266
G1 X147.08 Y117.64 E12.6361
G1 X146.91 Y117.9 E12.6457
G1 X147.12 Y118.69 E12.6712
G1 X147.33 Y118.89 E12.6802
G1 X144.6 Y116.16 E12.8005
G1 X144.59 Y116.62 E12.8149
G1 X144.78 Y117 E12.8279
G1 X145 Y117.82 E12.8543
G1 X145.2 Y118.18 E12.8674
G1 X147.32 Y120.3 E12.961
G1 X146.62 Y121.01 E12.9922
G1 X145.2 Y119.6 E13.0546
G1 X144.5 Y120.3 E13.0857
G1 X145.91 Y121.72 E13.1481
G1 X145.54 Y121.93 E13.1615
G1 X144.87 Y121.93 E13.1823
G1 X144.49 Y121.72 E13.1957
;
; 'Support Interface', 101.0 [RPM], 67.5 [mm/s]
G1 F15000
G1 X142.73 Y122.78 E13.1957
G1 F4050
G1 X142.73 Y122.78 E13.1959
G1 X142.94 Y123.15 E13.2092
G1 X142.99 Y123.66 E13.2254
G1 X142.73 Y124.19 E13.2438
;
; 'Wipe', 0.0 [RPM], 67.5 [mm/s]
G1 F15000
G1 X142.73 Y124.19 E13.2438
G1 F4050
G1 X142.99 Y123.66 E13.2438
G1 X142.94 Y123.15 E13.2438
G1 X142.73 Y122.78 E13.2438
G1 X142.73 Y122.78 E13.2438
;
; 'Support Interface', 101.0 [RPM], 67.5 [mm/s]
G1 F15000
G1 X140.96 Y122.42 E13.2438
G1 F4050
G1 X142.11 Y123.58 E13.2947
;
; 'Wipe', 0.0 [RPM], 67.5 [mm/s]
G1 F15000
G1 X142.11 Y123.58 E13.2947
G1 F4050
G1 X140.96 Y122.42 E13.2947
;
; 'Support Interface', 101.0 [RPM], 67.5 [mm/s]
G1 F15000
G1 X140.34 Y123.21 E13.2947
G1 F4050
G1 X139.11 Y121.99 E13.3486
G1 X139.29 Y122.34 E13.3608
G1 X139.31 Y123.1 E13.3844
G1 X139.08 Y123.38 E13.3957
G1 X139.55 Y123.84 E13.4162
;
; 'Wipe', 0.0 [RPM], 67.5 [mm/s]
G1 F15000
G1 X139.55 Y123.84 E13.4162
G1 F4050
G1 X139.08 Y123.38 E13.4162
G1 X139.31 Y123.1 E13.4162
G1 X139.29 Y122.34 E13.4162
G1 X139.11 Y121.99 E13.4162
G1 X140.34 Y123.21 E13.4162
;
; 'Support Base', 134.7 [RPM], 67.5 [mm/s]
G1 F15000
G1 X135.51 Y118.38 E13.4162
G1 F4050
G1 X134.19 Y117.07 E13.4936
;
; 'Wipe', 0.0 [RPM], 67.5 [mm/s]
G1 F15000
G1 X134.19 Y117.07 E13.4936
G1 F4050
G1 X135.51 Y118.38 E13.4936
;
; 'Support Base', 134.7 [RPM], 67.5 [mm/s]
G1 F15000
G1 X132.77 Y117.07 E13.4936
G1 F4050
G1 X134.09 Y118.38 E13.571
G1 X132.68 Y118.38 E13.6298
G1 X131.36 Y117.07 E13.7073
;
; 'Wipe', 0.0 [RPM], 67.5 [mm/s]
G1 F15000
G1 X131.36 Y117.07 E13.7073
G1 F4050
G1 X132.68 Y118.38 E13.7073
G1 X134.09 Y118.38 E13.7073
G1 X132.77 Y117.07 E13.7073
;
; 'Support Base', 134.7 [RPM], 67.5 [mm/s]
G1 F15000
G1 X129.95 Y117.07 E13.7073
G1 F4050
G1 X131.26 Y118.38 E13.7847
G1 X129.85 Y118.38 E13.8435
G1 X128.53 Y117.07 E13.9209
;
; 'Wipe', 0.0 [RPM], 67.5 [mm/s]
G1 F15000
G1 X128.53 Y117.07 E13.9209
G1 F4050
G1 X129.85 Y118.38 E13.9209
G1 X131.26 Y118.38 E13.9209
G1 X129.95 Y117.07 E13.9209
;
; 'Support Base', 134.7 [RPM], 67.5 [mm/s]
G1 F15000
G1 X127.61 Y116.15 E13.9209
G1 F4050
G1 X126.37 Y114.91 E13.9938
G1 X126.63 Y115.73 E14.0295
G1 X126.6 Y116.55 E14.0638
G1 X128.43 Y118.38 E14.1714
G1 X127.02 Y118.38 E14.2302
G1 X126.61 Y117.97 E14.2544
G1 X126.6 Y116.56 E14.3133
G1 X126.63 Y115.61 E14.3526
G1 X126.41 Y115.16 E14.3736
G1 X126.63 Y114.2 E14.4144
G1 X126.6 Y113.73 E14.4341
G1 X127.61 Y114.73 E14.4934
;
; 'Wipe', 0.0 [RPM], 67.5 [mm/s]
G1 F15000
G1 X127.61 Y114.73 E14.4934
G1 F4050
G1 X126.6 Y113.73 E14.4934
G1 X126.63 Y114.2 E14.4934
G1 X126.41 Y115.16 E14.4934
G1 X126.63 Y115.61 E14.4934
G1 X126.6 Y116.56 E14.4934
G1 X126.61 Y117.97 E14.4934
G1 X127.02 Y118.38 E14.4934
G1 X128.43 Y118.38 E14.4934
G1 X126.83 Y116.78 E14.4934
;
; 'Support Base', 134.7 [RPM], 67.5 [mm/s]
G1 F15000
G1 X127.61 Y113.32 E14.4934
G1 F4050
G1 X126.6 Y112.31 E14.5527
G1 X126.6 Y112.08 E14.5625
G1 X127.08 Y111.61 E14.5902
G1 X127.31 Y111.61 E14.6
G1 X128.64 Y112.93 E14.678
;
; 'Wipe', 0.0 [RPM], 67.5 [mm/s]
G1 F15000
G1 X128.64 Y112.93 E14.678
G1 F4050
G1 X127.31 Y111.61 E14.678
G1 X127.08 Y111.61 E14.678
G1 X126.6 Y112.08 E14.678
G1 X126.6 Y112.31 E14.678
G1 X127.61 Y113.32 E14.678
;
; 'Support Base', 134.7 [RPM], 67.5 [mm/s]
G1 F15000
G1 X130.05 Y112.93 E14.678
G1 F4050
G1 X128.73 Y111.61 E14.756
G1 X130.14 Y111.61 E14.8147
G1 X131.47 Y112.93 E14.8927
;
; 'Wipe', 0.0 [RPM], 67.5 [mm/s]
G1 F15000
G1 X131.47 Y112.93 E14.8927
G1 F4050
G1 X130.14 Y111.61 E14.8927
G1 X128.73 Y111.61 E14.8927
G1 X130.05 Y112.93 E14.8927
;
; 'Support Base', 134.7 [RPM], 67.5 [mm/s]
G1 F15000
G1 X132.88 Y112.93 E14.8927
G1 F4050
G1 X131.56 Y111.61 E14.9707
G1 X132.97 Y111.61 E15.0295
G1 X134.3 Y112.93 E15.1075
;
; 'Wipe', 0.0 [RPM], 67.5 [mm/s]
G1 F15000
G1 X134.3 Y112.93 E15.1075
G1 F4050
G1 X132.97 Y111.61 E15.1075
G1 X131.56 Y111.61 E15.1075
G1 X132.88 Y112.93 E15.1075
;
; 'Support Base', 134.7 [RPM], 67.5 [mm/s]
G1 F15000
G1 X135.4 Y112.62 E15.1075
G1 F4050
G1 X134.38 Y111.61 E15.1671
G1 X135.8 Y111.61 E15.2259
G1 X136.05 Y111.86 E15.2406
;
; 'Wipe', 0.0 [RPM], 67.5 [mm/s]
G1 F15000
G1 X136.05 Y111.86 E15.2406
G1 F4050
G1 X135.8 Y111.61 E15.2406
G1 X134.38 Y111.61 E15.2406
G1 X135.4 Y112.62 E15.2406
;
; 'Support Base', 134.7 [RPM], 67.5 [mm/s]
G1 F15000
G1 X135.95 Y114.59 E15.2406
G1 F4050
G1 X136.75 Y115.38 E15.2875
G1 X136.63 Y115.79 E15.3053
G1 X136.61 Y116.66 E15.3413
G1 X135.57 Y115.62 E15.4027
;
; 'Wipe', 0.0 [RPM], 67.5 [mm/s]
G1 F15000
G1 X135.57 Y115.62 E15.4027
G1 F4050
G1 X136.61 Y116.66 E15.4027
G1 X136.63 Y115.79 E15.4027
G1 X136.75 Y115.38 E15.4027
G1 X135.95 Y114.59 E15.4027
;
; 'Support Base', 134.7 [RPM], 67.5 [mm/s]
G1 F15000
G1 X135.57 Y117.03 E15.4027
G1 F4050
G1 X136.61 Y118.08 E15.4641
;
; 'Wipe', 0.0 [RPM], 67.5 [mm/s]
G1 F15000
G1 X136.61 Y118.08 E15.4641
G1 F4050
G1 X135.57 Y117.03 E15.4641
;
; 'Support Interface', 101.0 [RPM], 67.5 [mm/s]
G1 F15000
G1 X146.87 Y115.61 E15.4641
G1 F4050
G1 X145.66 Y114.39 E15.5176
;
; 'Support Base', 134.7 [RPM], 67.5 [mm/s]
G1 F15000
G1 X148.39 Y114.29 E15.5176
G1 F4050
G1 X135.76 Y101.67 E16.26
G1 X136.59 Y101.66 E16.2946
G1 X137.07 Y101.72 E16.3148
G1 X137.42 Y101.92 E16.3316
G1 X147.33 Y111.82 E16.9138
G1 X147.69 Y112.03 E16.9313
G1 X148.03 Y112.3 E16.9494
G1 X148.39 Y112.88 E16.9777
;
; 'Wipe', 0.0 [RPM], 67.5 [mm/s]
G1 F15000
G1 X148.39 Y112.88 E16.9777
G1 F4050
G1 X148.03 Y112.3 E16.9777
G1 X147.69 Y112.03 E16.9777
G1 X147.33 Y111.82 E16.9777
G1 X141.31 Y105.81 E16.9777
;
; 'Support Interface', 101.0 [RPM], 67.5 [mm/s]
G1 F15000
G1 X130.52 Y121.88 E16.9777
G1 F4050
G1 X130.15 Y121.51 E16.994
G1 X130.62 Y121.47 E17.0087
G1 X131.09 Y121.51 E17.0235
G1 X131.56 Y121.51 E17.0382
G1 X131.93 Y121.88 E17.0545
G1 X132.4 Y121.88 E17.0692
G1 X132.87 Y121.82 E17.0841
G1 X133.35 Y121.88 E17.0989
G1 X132.98 Y121.51 E17.1152
G1 X133.45 Y121.47 E17.13
G1 X133.92 Y121.51 E17.1448
G1 X134.39 Y121.51 E17.1594
G1 X134.76 Y121.88 E17.1758
G1 X135.23 Y121.88 E17.1905
G1 X135.7 Y121.82 E17.2053
G1 X136.17 Y121.88 E17.2201
G1 X135.8 Y121.51 E17.2365
;
; 'Support Interface', 101.0 [RPM], 67.5 [mm/s]
G1 F15000
G1 X128.73 Y121.51 E17.2365
G1 F4050
G1 X129.1 Y121.88 E17.2528
G1 X128.63 Y121.82 E17.2676
G1 X128.16 Y121.88 E17.2825
G1 X127.69 Y121.88 E17.2972
G1 X127.32 Y121.51 E17.3135
G1 X126.85 Y121.51 E17.3282
G1 X126.38 Y121.47 E17.3429
G1 X125.9 Y121.51 E17.3577
G1 X126.27 Y121.88 E17.374
G1 X125.8 Y121.82 E17.3889
G1 X125.33 Y121.88 E17.4037
G1 X124.86 Y121.88 E17.4184
G1 X124.49 Y121.51 E17.4347
G1 X124.02 Y121.51 E17.4494
G1 X123.55 Y121.47 E17.4642
G1 X123.08 Y121.51 E17.4789
G1 X123.45 Y121.88 E17.4953
G1 X122.98 Y121.82 E17.5101
G1 X122.5 Y121.88 E17.5249
G1 X122.03 Y121.88 E17.5396
G1 X121.66 Y121.51 E17.556
G1 X121.19 Y121.51 E17.5707
G1 X120.72 Y121.47 E17.5854
G1 X120.25 Y121.51 E17.6002
G1 X120.62 Y121.88 E17.6165
;
; 'Wipe', 0.0 [RPM], 67.5 [mm/s]
G1 F15000
G1 X120.62 Y121.88 E17.6165
G1 F4050
G1 X120.25 Y121.51 E17.6165
G1 X120.72 Y121.47 E17.6165
G1 X121.19 Y121.51 E17.6165
G1 X121.66 Y121.51 E17.6165
G1 X122.03 Y121.88 E17.6165
G1 X122.5 Y121.88 E17.6165
G1 X122.98 Y121.82 E17.6165
G1 X123.45 Y121.88 E17.6165
G1 X123.08 Y121.51 E17.6165
G1 X123.55 Y121.47 E17.6165
G1 X124.02 Y121.51 E17.6165
G1 X124.49 Y121.51 E17.6165
G1 X124.86 Y121.88 E17.6165
G1 X125.33 Y121.88 E17.6165
G1 X125.8 Y121.82 E17.6165
G1 X126.27 Y121.88 E17.6165
G1 X125.9 Y121.51 E17.6165
G1 X126.38 Y121.47 E17.6165
G1 X126.85 Y121.51 E17.6165
G1 X127.32 Y121.51 E17.6165
G1 X127.52 Y121.71 E17.6165
;
; 'Support Interface', 101.0 [RPM], 67.5 [mm/s]
G1 F15000
G1 X117.62 Y121.72 E17.6165
G1 F4050
G1 X117.63 Y121.72 E17.6166
;
; 'Wipe', 0.0 [RPM], 67.5 [mm/s]
G1 F15000
G1 X117.63 Y121.72 E17.6166
G1 F4050
G1 X117.62 Y121.72 E17.6166
;
; 'Support Base', 134.7 [RPM], 67.5 [mm/s]
G1 F15000
G1 X113.66 Y119.16 E17.6166
G1 F4050
G1 X110.3 Y115.81 E17.8139
G1 X110.3 Y117.22 E17.8727
G1 X113.66 Y120.58 E18.07
G1 X113.66 Y121.99 E18.1288
G1 X110.3 Y118.64 E18.3262
G1 X110.3 Y120.05 E18.3849
G1 X112.68 Y122.42 E18.5245
G1 X112.37 Y122.62 E18.5395
G1 X111.68 Y122.84 E18.5699
G1 X110.3 Y121.47 E18.6507
G1 X110.29 Y122.3 E18.6853
G1 X110.35 Y122.78 E18.7055
G1 X110.55 Y123.13 E18.7223
G1 X110.91 Y123.49 E18.7432
;
; 'Support Interface', 101.0 [RPM], 67.5 [mm/s]
G1 F15000
G1 X111.36 Y123.94 E18.7432
G1 F4050
G1 X113.28 Y125.86 E18.8278
G1 X113.57 Y125.7 E18.8381
G1 X113.85 Y125.49 E18.8491
G1 X114.09 Y125.25 E18.8595
G1 X112.07 Y123.23 E18.9486
G1 X112.39 Y123.22 E18.9586
G1 X112.86 Y123.06 E18.9742
G1 X113.03 Y122.78 E18.9843
G1 X114.44 Y124.19 E19.0467
G1 X114.59 Y123.94 E19.0557
G1 X114.83 Y123.66 E19.0674
G1 X115.15 Y123.49 E19.0788
G1 X115.11 Y123.44 E19.0808
G1 X114.72 Y123.23 E19.0945
G1 X114.59 Y122.92 E19.105
G1 X114.29 Y122.63 E19.118
G1 X114.31 Y122.37 E19.126
G1 X114.19 Y121.87 E19.1421
G1 X114.19 Y121.11 E19.1658
G1 X114.86 Y121.78 E19.1951
G1 X114.83 Y121.31 E19.2098
G1 X114.86 Y120.36 E19.2392
G1 X114.19 Y119.7 E19.2686
G1 X114.19 Y118.28 E19.3127
G1 X114.86 Y118.95 E19.342
G1 X114.83 Y118.48 E19.3567
G1 X114.86 Y117.53 E19.3861
G1 X114.19 Y116.87 E19.4155
G1 X114.19 Y115.45 E19.4596
G1 X114.86 Y116.12 E19.4889
G1 X114.83 Y115.65 E19.5036
G1 X114.86 Y114.71 E19.533
G1 X114.19 Y114.04 E19.5623
G1 X114.19 Y112.63 E19.6064
G1 X114.86 Y113.29 E19.6358
G1 X114.83 Y112.82 E19.6505
G1 X114.86 Y111.88 E19.6799
G1 X114.19 Y111.21 E19.7092
G1 X114.19 Y109.8 E19.7533
G1 X114.86 Y110.46 E19.7827
G1 X114.83 Y109.99 E19.7974
G1 X114.86 Y109.05 E19.8268
G1 X114.19 Y108.38 E19.8561
G1 X114.18 Y108 E19.8682
G1 X114.44 Y107.22 E19.8937
G1 X114.86 Y107.63 E19.9119
;
; 'Wipe', 0.0 [RPM], 67.5 [mm/s]
G1 F15000
G1 X114.86 Y107.63 E19.9119
G1 F4050
G1 X114.44 Y107.22 E19.9119
G1 X114.18 Y108 E19.9119
G1 X114.19 Y108.38 E19.9119
G1 X114.86 Y109.05 E19.9119
G1 X114.83 Y109.99 E19.9119
G1 X114.86 Y110.46 E19.9119
G1 X114.19 Y109.8 E19.9119
G1 X114.19 Y111.21 E19.9119
G1 X114.86 Y111.88 E19.9119
G1 X114.83 Y112.82 E19.9119
G1 X114.86 Y113.29 E19.9119
G1 X114.19 Y112.63 E19.9119
G1 X114.19 Y113.1 E19.9119
;
; 'Perimeter', 180.0 [RPM], 90.2 [mm/s]
G1 F15000
G1 X115.23 Y123.04 E19.9119
G1 F5411.9
G1 X115.29 Y122.99 E19.9148
G1 X115.36 Y122.99 E19.9178
G1 X115.47 Y122.92 E19.9231
G1 X115.62 Y123.02 E19.9306
G1 X115.74 Y123.02 E19.9357
G1 X115.92 Y122.9 E19.9446
G1 X138.07 Y122.9 E20.8657
G1 X138.14 Y122.94 E20.8692
G1 X138.3 Y122.94 E20.8757
G1 X138.35 Y122.91 E20.8781
G1 X138.46 Y122.98 E20.8835
G1 X138.7 Y122.99 E20.8936
G1 X138.76 Y123.04 E20.8965
G1 X138.78 Y123.37 E20.9103
G1 X138.87 Y123.46 E20.9155
G1 X138.87 Y123.8 E20.93
G1 X138.96 Y123.89 E20.9352
G1 X138.96 Y124.24 E20.9498
G1 X139.05 Y124.33 E20.955
G1 X139.05 Y124.68 E20.9697
;
; 'Wipe', 0.0 [RPM], 67.5 [mm/s]
G1 F15000
G1 X139.05 Y124.68 E20.9697
G1 F4050
G1 X139.05 Y124.33 E20.9697
G1 X138.96 Y124.24 E20.9697
G1 X138.96 Y123.89 E20.9697
G1 X138.87 Y123.8 E20.9697
G1 X138.87 Y123.46 E20.9697
G1 X138.78 Y123.37 E20.9697
G1 X138.76 Y123.04 E20.9697
G1 X138.7 Y122.99 E20.9697
G1 X138.46 Y122.98 E20.9697
G1 X138.35 Y122.91 E20.9697
G1 X138.3 Y122.94 E20.9697
G1 X138.14 Y122.94 E20.9697
G1 X138.07 Y122.9 E20.9697
G1 X130.47 Y122.9 E20.9697
;
; 'Perimeter', 180.0 [RPM], 90.2 [mm/s]
G1 F15000
G1 X125.76 Y115.06 E20.9697
G1 F5411.9
G1 X125.8 Y115.4 E20.9839
G1 X125.73 Y115.38 E20.9869
G1 X125.63 Y115.13 E20.9981
G1 X125.63 Y114.95 E21.0055
G1 X125.82 Y114.71 E21.0183
G1 X125.86 Y114.72 E21.02
G1 X125.86 Y114.89 E21.0273
G1 X125.96 Y114.98 E21.0325
G1 X125.96 Y115.02 E21.0344
G1 X125.87 Y115.11 E21.0396
G1 X125.86 Y115.28 E21.0469
G1 X125.8 Y115.4 E21.0523
G1 X125.58 Y115.13 E21.0665
;
; 'Wipe', 0.0 [RPM], 67.5 [mm/s]
G1 F15000
G1 X125.58 Y115.13 E21.0665
G1 F4050
G1 X125.8 Y115.4 E21.0665
G1 X125.86 Y115.28 E21.0665
G1 X125.87 Y115.11 E21.0665
G1 X125.96 Y115.02 E21.0665
G1 X125.96 Y114.98 E21.0665
G1 X125.86 Y114.89 E21.0665
G1 X125.86 Y114.72 E21.0665
G1 X125.82 Y114.71 E21.0665
G1 X125.63 Y114.95 E21.0665
G1 X125.63 Y115.13 E21.0665
G1 X125.73 Y115.38 E21.0665
G1 X125.8 Y115.4 E21.0665
G1 X125.76 Y115.06 E21.0665
;
; 'Perimeter', 180.0 [RPM], 90.2 [mm/s]
G1 F15000
G1 X123.86 Y117.17 E21.0665
G1 F5411.9
G1 X123.95 Y117.08 E21.0717
G1 X124.13 Y117.08 E21.0791
G1 X124.22 Y117 E21.0843
G1 X124.4 Y117 E21.0917
G1 X124.57 Y116.82 E21.1021
G1 X124.75 Y116.82 E21.1096
G1 X125.02 Y116.56 E21.1252
G1 X125.2 Y116.57 E21.1328
G1 X125.39 Y116.4 E21.1432
G1 X125.39 Y116.22 E21.1505
G1 X125.42 Y116.08 E21.1566
G1 X125.57 Y116.07 E21.1627
G1 X125.6 Y116.22 E21.169
G1 X125.6 Y118.9 E21.2806
G1 X125.61 Y119.21 E21.2932
G1 X125.68 Y119.32 E21.2986
G1 X125.91 Y119.39 E21.3086
G1 X125.96 Y119.4 E21.3107
G1 X137.27 Y119.4 E21.781
G1 X137.39 Y119.39 E21.7861
G1 X137.5 Y119.32 E21.7914
G1 X137.62 Y119.08 E21.8024
G1 X137.62 Y116.08 E21.9273
G1 X137.73 Y116.01 E21.9326
G1 X138 Y116.01 E21.9441
G1 X138.06 Y116.14 E21.9497
G1 X138.06 Y122.15 E22.1996
G1 X138.02 Y122.18 E22.2015
G1 X137.74 Y122.21 E22.2133
G1 X137.59 Y122.24 E22.2195
G1 X137.4 Y122.09 E22.2296
G1 X137.4 Y121.92 E22.2367
G1 X137.22 Y121.75 E22.2471
G1 X137.21 Y121.57 E22.2544
G1 X136.5 Y120.87 E22.296
G1 X125.37 Y120.87 E22.759
G1 X125.28 Y120.78 E22.7642
G1 X124.92 Y120.78 E22.779
G1 X124.84 Y120.69 E22.7842
G1 X124.66 Y120.7 E22.7916
G1 X124.57 Y120.61 E22.7968
;
; 'Loop', 161.0 [RPM], 80.7 [mm/s]
G1 F15000
G1 X123.87 Y117.18 E22.7968
G1 F4840.8
G1 X123.96 Y117.1 E22.802
G1 X124.14 Y117.1 E22.8095
G1 X124.23 Y117.01 E22.8147
G1 X124.41 Y117.01 E22.8221
G1 X124.59 Y116.84 E22.8325
G1 X124.77 Y116.84 E22.8401
G1 X125.05 Y116.59 E22.8557
G1 X125.09 Y116.63 E22.8582
G1 X125.09 Y119.02 E22.9577
G1 X125.13 Y119.34 E22.9709
G1 X125.25 Y119.58 E22.9819
G1 X125.42 Y119.75 E22.9923
G1 X125.68 Y119.87 E23.0042
G1 X125.98 Y119.9 E23.0168
G1 X137.3 Y119.9 E23.4871
G1 X137.5 Y119.88 E23.4955
G1 X137.55 Y120 E23.5011
G1 X137.55 Y121.66 E23.5702
G1 X137.46 Y121.75 E23.5754
G1 X137.34 Y121.81 E23.5809
G1 X137.24 Y121.72 E23.5864
G1 X137.24 Y121.55 E23.5935
G1 X136.52 Y120.86 E23.6351
G1 X125.38 Y120.86 E24.0981
G1 X125.29 Y120.77 E24.1033
G1 X124.94 Y120.77 E24.1181
G1 X124.85 Y120.68 E24.1233
G1 X124.67 Y120.68 E24.1307
G1 X124.58 Y120.59 E24.1359
;
; 'Wipe', 0.0 [RPM], 67.5 [mm/s]
G1 F15000
G1 X124.58 Y120.59 E24.1359
G1 F4050
G1 X124.67 Y120.68 E24.1359
G1 X124.85 Y120.68 E24.1359
G1 X124.94 Y120.77 E24.1359
G1 X125.29 Y120.77 E24.1359
G1 X125.38 Y120.86 E24.1359
G1 X134.57 Y120.86 E24.1359
;
; 'Perimeter', 180.0 [RPM], 90.2 [mm/s]
G1 F15000
G1 X115.23 Y123.05 E24.1359
G1 F5411.9
G1 X115.22 Y123.2 E24.1422
G1 X115.21 Y123.72 E24.1637
G1 X115.12 Y123.8 E24.1689
G1 X115.11 Y124.33 E24.1909
G1 X115.02 Y124.42 E24.1961
G1 X115.03 Y124.67 E24.2065
;
; 'Loop', 161.0 [RPM], 80.7 [mm/s]
G1 F15000
G1 X115.23 Y123.57 E24.2065
G1 F4840.8
G1 X115.32 Y123.5 E24.211
G1 X115.62 Y123.42 E24.2239
G1 X115.77 Y123.4 E24.2303
G1 X138.05 Y123.4 E25.1565
G1 X138.2 Y123.42 E25.163
G1 X138.48 Y123.49 E25.175
G1 X138.84 Y123.49 E25.1898
G1 X138.85 Y123.82 E25.2038
G1 X138.94 Y123.91 E25.209
G1 X138.95 Y124.26 E25.2234
G1 X139.04 Y124.34 E25.2286
G1 X139.04 Y124.69 E25.2432
;
; 'Loop', 161.0 [RPM], 80.7 [mm/s]
G1 F15000
G1 X115.24 Y123.58 E25.2432
G1 F4840.8
G1 X115.23 Y123.74 E25.2499
G1 X115.14 Y123.82 E25.2551
G1 X115.13 Y124.35 E25.2767
G1 X115.04 Y124.43 E25.2819
G1 X115.04 Y124.66 E25.2914
;
; 'Wipe', 0.0 [RPM], 67.5 [mm/s]
G1 F15000
G1 X115.04 Y124.66 E25.2914
G1 F4050
G1 X115.04 Y124.43 E25.2914
G1 X115.13 Y124.35 E25.2914
G1 X115.14 Y123.82 E25.2914
G1 X115.23 Y123.74 E25.2914
G1 X115.24 Y123.58 E25.2914
;
; 'Perimeter', 180.0 [RPM], 90.2 [mm/s]
G1 F15000
G1 X115.86 Y108.1 E25.2914
G1 F5411.9
G1 X115.86 Y122.24 E25.8794
G1 X116.08 Y122.2 E25.8886
G1 X116.4 Y122.24 E25.9018
G1 X116.59 Y122.09 E25.9119
G1 X116.59 Y121.92 E25.919
G1 X116.77 Y121.75 E25.9294
G1 X116.78 Y121.57 E25.9367
G1 X116.87 Y121.49 E25.9419
G1 X116.86 Y121.31 E25.9493
G1 X117.57 Y120.61 E25.9909
;
; 'Loop', 161.0 [RPM], 80.7 [mm/s]
G1 F15000
G1 X116.37 Y108.26 E25.9909
G1 F4840.8
G1 X116.41 Y108.13 E25.9967
G1 X136.52 Y108.13 E26.8326
G1 X136.59 Y108.23 E26.8379
G1 X136.58 Y110.09 E26.9152
G1 X126.07 Y110.09 E27.3523
G1 X125.69 Y110.11 E27.3679
G1 X125.42 Y110.24 E27.3806
G1 X125.24 Y110.42 E27.391
G1 X125.11 Y110.69 E27.4036
G1 X125.09 Y111.07 E27.4194
G1 X125.09 Y113.37 E27.5149
G1 X125.05 Y113.41 E27.5174
G1 X124.77 Y113.16 E27.533
G1 X124.59 Y113.16 E27.5406
G1 X124.41 Y112.99 E27.5509
G1 X124.23 Y112.99 E27.5584
G1 X124.14 Y112.9 E27.5636
G1 X123.96 Y112.9 E27.5711
G1 X123.87 Y112.82 E27.5763
;
; 'Loop', 161.0 [RPM], 80.7 [mm/s]
G1 F15000
G1 X116.37 Y108.3 E27.5763
G1 F4840.8
G1 X116.37 Y121.56 E28.1275
G1 X116.39 Y121.72 E28.134
G1 X116.65 Y121.81 E28.1455
G1 X116.75 Y121.72 E28.151
G1 X116.75 Y121.55 E28.1581
G1 X116.85 Y121.47 E28.1633
G1 X116.85 Y121.29 E28.1706
G1 X117.56 Y120.59 E28.2122
;
; 'Wipe', 0.0 [RPM], 67.5 [mm/s]
G1 F15000
G1 X117.56 Y120.59 E28.2122
G1 F4050
G1 X116.85 Y121.29 E28.2122
G1 X116.85 Y121.47 E28.2122
G1 X116.75 Y121.55 E28.2122
G1 X116.75 Y121.72 E28.2122
G1 X116.65 Y121.81 E28.2122
G1 X116.39 Y121.72 E28.2122
G1 X116.37 Y121.56 E28.2122
G1 X116.37 Y113.57 E28.2122
;
; 'Perimeter', 180.0 [RPM], 90.2 [mm/s]
G1 F15000
G1 X115.86 Y107.93 E28.2122
G1 F5411.9
G1 X115.86 Y107.75 E28.2196
G1 X115.91 Y107.63 E28.2253
G1 X137.02 Y107.63 E29.1029
G1 X137.09 Y107.73 E29.1082
G1 X137.09 Y110.6 E29.2275
G1 X126.09 Y110.6 E29.6846
G1 X125.78 Y110.61 E29.6975
G1 X125.67 Y110.67 E29.7028
G1 X125.6 Y110.95 E29.7149
G1 X125.6 Y111.1 E29.7208
G1 X125.6 Y113.78 E29.8323
G1 X125.57 Y113.93 E29.8387
G1 X125.42 Y113.92 E29.8449
G1 X125.39 Y113.78 E29.8509
G1 X125.39 Y113.6 E29.8583
G1 X125.2 Y113.43 E29.8687
G1 X125.02 Y113.44 E29.8763
G1 X124.75 Y113.18 E29.8919
G1 X124.57 Y113.18 E29.8994
G1 X124.4 Y113 E29.9098
G1 X124.22 Y113 E29.9172
G1 X124.13 Y112.92 E29.9224
G1 X123.95 Y112.92 E29.9298
G1 X123.86 Y112.83 E29.935
;
; 'Solid', 134.7 [RPM], 67.5 [mm/s]
G1 F15000
G1 X123.36 Y116.14 E29.935
G1 F4050
G1 X116.88 Y109.66 E30.3157
G1 X116.88 Y108.95 E30.3451
G1 X123.28 Y115.36 E30.7215
G1 X123.28 Y114.65 E30.751
G1 X117.28 Y108.64 E31.1041
G1 X117.99 Y108.64 E31.1335
G1 X123.28 Y113.94 E31.445
G1 X123.28 Y113.23 E31.4745
G1 X118.69 Y108.64 E31.7444
G1 X119.4 Y108.64 E31.7738
G1 X123.64 Y112.89 E32.0233
G1 X124.31 Y112.85 E32.0511
G1 X120.11 Y108.64 E32.2985
G1 X120.81 Y108.64 E32.3279
G1 X124.58 Y112.41 E32.5492
G1 X124.58 Y111.7 E32.5786
G1 X121.52 Y108.64 E32.7583
G1 X122.23 Y108.64 E32.7877
G1 X124.59 Y111 E32.9264
G1 X124.67 Y110.38 E32.9526
G1 X122.94 Y108.64 E33.0545
G1 X123.64 Y108.64 E33.0839
G1 X124.96 Y109.96 E33.1611
G1 X125.39 Y109.68 E33.1824
G1 X124.35 Y108.64 E33.2435
G1 X125.06 Y108.64 E33.2729
G1 X126 Y109.58 E33.328
G1 X126.7 Y109.58 E33.3574
G1 X125.76 Y108.64 E33.4126
G1 X126.47 Y108.64 E33.442
G1 X127.41 Y109.58 E33.4971
G1 X128.12 Y109.58 E33.5265
G1 X127.18 Y108.64 E33.5816
G1 X127.89 Y108.64 E33.611
G1 X128.82 Y109.58 E33.6662
G1 X129.53 Y109.58 E33.6956
G1 X128.59 Y108.64 E33.7507
G1 X129.3 Y108.64 E33.7801
G1 X130.24 Y109.58 E33.8353
G1 X130.94 Y109.58 E33.8647
G1 X130.01 Y108.64 E33.9198
G1 X130.71 Y108.64 E33.9492
G1 X131.65 Y109.58 E34.0043
G1 X132.36 Y109.58 E34.0337
G1 X131.42 Y108.64 E34.0889
G1 X132.13 Y108.64 E34.1183
G1 X133.07 Y109.58 E34.1734
G1 X133.77 Y109.58 E34.2028
G1 X132.83 Y108.64 E34.258
G1 X133.54 Y108.64 E34.2874
G1 X134.48 Y109.58 E34.3425
G1 X135.19 Y109.58 E34.3719
G1 X134.25 Y108.64 E34.4271
G1 X134.96 Y108.64 E34.4565
G1 X135.91 Y109.6 E34.5125
G1 X136.09 Y109.07 E34.5356
G1 X135.59 Y108.57 E34.5653
;
; 'Wipe', 0.0 [RPM], 67.5 [mm/s]
G1 F15000
G1 X135.59 Y108.57 E34.5653
G1 F4050
G1 X136.09 Y109.07 E34.5653
G1 X135.91 Y109.6 E34.5653
G1 X134.96 Y108.64 E34.5653
G1 X134.25 Y108.64 E34.5653
G1 X135.19 Y109.58 E34.5653
G1 X134.48 Y109.58 E34.5653
G1 X133.54 Y108.64 E34.5653
G1 X132.83 Y108.64 E34.5653
G1 X133.77 Y109.58 E34.5653
G1 X133.07 Y109.58 E34.5653
G1 X132.13 Y108.64 E34.5653
;
; 'Solid', 134.7 [RPM], 67.5 [mm/s]
G1 F15000
G1 X134.63 Y120.34 E34.5653
G1 F4050
G1 X134.93 Y120.64 E34.5831
G1 X134.28 Y120.69 E34.6104
G1 X133.98 Y120.39 E34.6282
G1 X133.52 Y120.64 E34.6499
G1 X133.22 Y120.34 E34.6677
G1 X132.86 Y120.69 E34.6885
G1 X132.56 Y120.39 E34.7063
G1 X132.1 Y120.64 E34.728
G1 X131.8 Y120.34 E34.7458
G1 X131.45 Y120.69 E34.7666
G1 X131.15 Y120.39 E34.7844
G1 X130.69 Y120.64 E34.8061
G1 X130.39 Y120.34 E34.8239
G1 X130.04 Y120.69 E34.8447
G1 X129.73 Y120.39 E34.8625
G1 X129.28 Y120.64 E34.8841
G1 X128.97 Y120.34 E34.902
G1 X128.62 Y120.69 E34.9228
G1 X128.32 Y120.39 E34.9406
G1 X127.86 Y120.64 E34.9622
G1 X127.56 Y120.34 E34.98
G1 X127.21 Y120.69 E35.0008
G1 X126.9 Y120.39 E35.0186
G1 X126.45 Y120.64 E35.0403
G1 X126.14 Y120.34 E35.0581
G1 X125.79 Y120.69 E35.0789
G1 X125.21 Y120.11 E35.1132
;
; 'Solid', 134.7 [RPM], 67.5 [mm/s]
G1 F15000
G1 X124.31 Y117.09 E35.1132
G1 F4050
G1 X124.58 Y117.36 E35.1291
G1 X124.58 Y118.06 E35.1585
G1 X116.88 Y110.37 E35.611
G1 X116.88 Y111.07 E35.6404
G1 X124.55 Y118.74 E36.0912
G1 X124.79 Y119.69 E36.1317
G1 X116.88 Y111.78 E36.5965
G1 X116.88 Y112.49 E36.6259
G1 X124.99 Y120.6 E37.1026
G1 X123.95 Y120.26 E37.1482
G1 X116.88 Y113.2 E37.5635
G1 X116.88 Y113.9 E37.5929
G1 X123.28 Y120.3 E37.969
G1 X122.57 Y120.3 E37.9984
G1 X116.88 Y114.61 E38.333
G1 X116.88 Y115.32 E38.3624
G1 X121.87 Y120.3 E38.6554
G1 X121.16 Y120.3 E38.6848
G1 X116.88 Y116.02 E38.9362
G1 X116.88 Y116.73 E38.9656
G1 X120.45 Y120.3 E39.1755
G1 X119.74 Y120.3 E39.2049
G1 X116.88 Y117.44 E39.3731
G1 X116.88 Y118.15 E39.4025
G1 X119.04 Y120.3 E39.5292
G1 X118.33 Y120.3 E39.5586
G1 X116.88 Y118.85 E39.6438
G1 X116.88 Y119.56 E39.6732
G1 X117.64 Y120.32 E39.718
G1 X117.27 Y120.65 E39.7388
G1 X116.88 Y120.27 E39.7616
G1 X116.88 Y120.97 E39.7909
;
; 'Solid', 134.7 [RPM], 67.5 [mm/s]
G1 F15000
G1 X137.11 Y120.69 E39.7909
G1 F4050
G1 X136.97 Y120.56 E39.7988
G1 X136.13 Y120.43 E39.8342
G1 X137.05 Y121.34 E39.888
;
; 'Wipe', 0.0 [RPM], 67.5 [mm/s]
G1 F15000
G1 X137.05 Y121.34 E39.888
G1 F4050
G1 X136.13 Y120.43 E39.888
G1 X136.97 Y120.56 E39.888
G1 X137.11 Y120.69 E39.888
;
; 'Stacked Sparse Infill', 180.0 [RPM], 90.2 [mm/s]
G1 F15000
G1 X139.19 Y124.9 E39.888
G1 F5411.9
G1 X140.25 Y125.96 E39.9504
G1 X138.84 Y127.37 E40.0335
G1 X137.92 Y126.46 E40.0876
G1 X137.74 Y126.35 E40.0962
G1 X137.5 Y126.31 E40.1065
G1 X135.23 Y126.31 E40.2006
G1 X134.99 Y126.28 E40.211
G1 X134.81 Y126.17 E40.2196
G1 X133.68 Y125.04 E40.2861
G1 X133.57 Y124.86 E40.2947
G1 X133.54 Y124.62 E40.3051
G1 X133.54 Y124.19 E40.323
G1 X127.88 Y124.19 E40.5582
G1 X127.88 Y124.62 E40.5761
G1 X127.91 Y124.86 E40.5865
G1 X128.02 Y125.04 E40.5951
G1 X129.15 Y126.17 E40.6616
G1 X129.33 Y126.28 E40.6702
G1 X129.58 Y126.31 E40.6806
G1 X131.84 Y126.31 E40.7746
G1 X132.09 Y126.35 E40.785
G1 X132.26 Y126.46 E40.7936
G1 X133.39 Y127.59 E40.8601
G1 X133.5 Y127.76 E40.8687
G1 X133.54 Y128.01 E40.8791
G1 X133.54 Y130.27 E40.9732
G1 X133.57 Y130.52 E40.9836
G1 X133.68 Y130.7 E40.9921
G1 X134.6 Y131.62 E41.0462
G1 X133.18 Y133.03 E41.1293
G1 X132.26 Y132.11 E41.1834
G1 X132.09 Y132.01 E41.1919
G1 X131.84 Y131.97 E41.2023
G1 X129.58 Y131.97 E41.2964
G1 X129.33 Y131.94 E41.3068
G1 X129.15 Y131.83 E41.3154
G1 X128.02 Y130.7 E41.3819
G1 X127.91 Y130.52 E41.3905
G1 X127.88 Y130.27 E41.4009
G1 X127.88 Y128.01 E41.4949
G1 X127.84 Y127.76 E41.5053
G1 X127.74 Y127.59 E41.5139
G1 X126.61 Y126.46 E41.5804
G1 X126.43 Y126.35 E41.589
G1 X126.18 Y126.31 E41.5994
G1 X123.92 Y126.31 E41.6935
G1 X123.67 Y126.28 E41.7039
G1 X123.49 Y126.17 E41.7124
G1 X122.36 Y125.04 E41.7789
G1 X122.26 Y124.86 E41.7875
G1 X122.22 Y124.62 E41.7979
G1 X122.22 Y124.19 E41.8158
G1 X116.56 Y124.19 E42.051
G1 X116.56 Y124.62 E42.069
G1 X116.6 Y124.86 E42.0793
G1 X116.71 Y125.04 E42.0879
G1 X117.84 Y126.17 E42.1544
G1 X118.01 Y126.28 E42.163
G1 X118.26 Y126.31 E42.1734
G1 X120.52 Y126.31 E42.2675
G1 X120.77 Y126.35 E42.2779
G1 X120.95 Y126.46 E42.2864
G1 X122.08 Y127.59 E42.353
G1 X122.19 Y127.76 E42.3615
G1 X122.22 Y128.01 E42.3719
G1 X122.22 Y130.27 E42.466
G1 X122.26 Y130.52 E42.4764
G1 X122.36 Y130.7 E42.485
G1 X123.49 Y131.83 E42.5515
G1 X123.67 Y131.94 E42.5601
G1 X123.92 Y131.97 E42.5704
G1 X126.18 Y131.97 E42.6645
G1 X126.43 Y132.01 E42.6749
G1 X126.61 Y132.11 E42.6835
G1 X127.74 Y133.24 E42.75
G1 X127.84 Y133.42 E42.7586
G1 X127.88 Y133.67 E42.769
G1 X127.88 Y135.93 E42.863
G1 X127.91 Y136.18 E42.8734
G1 X128.02 Y136.35 E42.882
G1 X128.94 Y137.27 E42.9361
;
; 'Wipe', 0.0 [RPM], 67.5 [mm/s]
G1 F15000
G1 X128.94 Y137.27 E42.9361
G1 F4050
G1 X128.02 Y136.35 E42.9361
G1 X127.91 Y136.18 E42.9361
G1 X127.88 Y135.93 E42.9361
G1 X127.88 Y133.67 E42.9361
G1 X127.84 Y133.42 E42.9361
G1 X127.74 Y133.24 E42.9361
G1 X126.61 Y132.11 E42.9361
G1 X126.43 Y132.01 E42.9361
G1 X126.18 Y131.97 E42.9361
G1 X123.92 Y131.97 E42.9361
G1 X123.67 Y131.94 E42.9361
G1 X123.49 Y131.83 E42.9361
G1 X122.93 Y131.26 E42.9361
;
; 'Perimeter', 180.0 [RPM], 90.2 [mm/s]
G1 F15000
G1 X137.92 Y113.65 E42.9361
G1 F5411.9
G1 X138 Y113.98 E42.9499
G1 X137.91 Y113.98 E42.9532
G1 X137.79 Y113.93 E42.9589
G1 X137.85 Y113.84 E42.9636
G1 X137.85 Y113.69 E42.9696
G1 X137.85 Y107.82 E43.2137
G1 X137.86 Y107.67 E43.2201
G1 X137.83 Y107.63 E43.2223
G1 X138.06 Y107.65 E43.2318
G1 X138.06 Y113.86 E43.4901
G1 X138 Y113.98 E43.4955
G1 X137.74 Y113.77 E43.5093
;
; 'Wipe', 0.0 [RPM], 67.5 [mm/s]
G1 F15000
G1 X137.74 Y113.77 E43.5093
G1 F4050
G1 X138 Y113.98 E43.5093
G1 X138.06 Y113.86 E43.5093
G1 X138.06 Y107.65 E43.5093
G1 X137.83 Y107.63 E43.5093
G1 X137.86 Y107.67 E43.5093
G1 X137.85 Y107.82 E43.5093
G1 X137.85 Y110.83 E43.5093
;
; 'Perimeter', 180.0 [RPM], 90.2 [mm/s]
G1 F15000
G1 X135.44 Y112.84 E43.5093
G1 F5411.9
G1 X136.69 Y111.62 E43.5821
G1 X137.06 Y111.3 E43.6023
G1 X137.09 Y111.44 E43.6084
G1 X137.09 Y114.09 E43.7186
G1 X137.03 Y114.25 E43.7258
G1 X136.91 Y114.31 E43.7314
G1 X136.74 Y114.32 E43.7383
G1 X136.66 Y114.41 E43.7435
G1 X136.6 Y114.41 E43.7457
G1 X135.78 Y114.42 E43.7799
G1 X135.69 Y114.51 E43.7851
G1 X135.34 Y114.51 E43.7997
;
; 'Wipe', 0.0 [RPM], 67.5 [mm/s]
G1 F15000
G1 X135.34 Y114.51 E43.7997
G1 F4050
G1 X135.69 Y114.51 E43.7997
G1 X135.78 Y114.42 E43.7997
G1 X136.6 Y114.41 E43.7997
G1 X136.66 Y114.41 E43.7997
G1 X136.74 Y114.32 E43.7997
G1 X136.91 Y114.31 E43.7997
G1 X137.03 Y114.25 E43.7997
G1 X137.09 Y114.09 E43.7997
G1 X137.09 Y111.44 E43.7997
G1 X137.06 Y111.3 E43.7997
G1 X136.69 Y111.62 E43.7997
G1 X135.44 Y112.84 E43.7997
;
; 'Loop', 161.0 [RPM], 80.7 [mm/s]
G1 F15000
G1 X135.45 Y112.85 E43.7997
G1 F4840.8
G1 X136.59 Y111.77 E43.865
G1 X136.59 Y113.99 E43.9572
G1 X136.52 Y114.31 E43.971
G1 X136.46 Y114.39 E43.975
G1 X135.77 Y114.4 E44.0036
G1 X135.68 Y114.49 E44.0088
G1 X135.33 Y114.5 E44.0234
;
; 'Wipe', 0.0 [RPM], 67.5 [mm/s]
G1 F15000
G1 X135.33 Y114.5 E44.0234
G1 F4050
G1 X135.68 Y114.49 E44.0234
G1 X135.77 Y114.4 E44.0234
G1 X136.46 Y114.39 E44.0234
G1 X136.52 Y114.31 E44.0234
G1 X136.59 Y113.99 E44.0234
G1 X136.59 Y111.77 E44.0234
G1 X135.45 Y112.85 E44.0234
;
; 'Stacked Sparse Infill', 180.0 [RPM], 90.2 [mm/s]
G1 F15000
G1 X134.96 Y115 E44.0234
G1 F5411.9
G1 X134.81 Y114.86 E44.0319
G1 X133.54 Y113.58 E44.1068
G1 X133.54 Y116.42 E44.2245
G1 X132.26 Y115.14 E44.2993
G1 X132.09 Y115.04 E44.3079
G1 X131.84 Y115 E44.3183
G1 X129.58 Y115 E44.4124
G1 X129.33 Y114.96 E44.4228
G1 X129.15 Y114.86 E44.4313
G1 X127.88 Y113.58 E44.5062
;
; 'Wipe', 0.0 [RPM], 67.5 [mm/s]
G1 F15000
G1 X127.88 Y113.58 E44.5062
G1 F4050
G1 X129.15 Y114.86 E44.5062
G1 X129.33 Y114.96 E44.5062
G1 X129.58 Y115 E44.5062
G1 X131.84 Y115 E44.5062
G1 X132.09 Y115.04 E44.5062
G1 X132.26 Y115.14 E44.5062
G1 X133.54 Y116.42 E44.5062
G1 X133.54 Y113.58 E44.5062
G1 X133.89 Y113.94 E44.5062
; fan off
M107
G1 F210
G1 X133.89 Y113.94 Z0.6 E44.5062
; END_LAYER_OBJECT z=0.40
; Reset extruder pos
G92 E0
; BEGIN_LAYER_OBJECT z=0.60
; fan on
M106
;
; 'Support Interface', 101.0 [RPM], 67.5 [mm/s]
G1 F15000
G1 X110.3 Y114.39 E0
G1 F4050
G1 X112.57 Y116.67 E0.1002
G1 X112.57 Y115.25 E0.1443
G1 X110.3 Y112.98 E0.2445
G1 X110.3 Y111.57 E0.2886
G1 X112.57 Y113.84 E0.3888
G1 X112.57 Y112.42 E0.4329
G1 X110.3 Y110.15 E0.5332
G1 X110.3 Y108.74 E0.5773
G1 X112.57 Y111.01 E0.6775
G1 X112.57 Y109.6 E0.7216
G1 X110.3 Y107.32 E0.8218
G1 X110.46 Y107.03 E0.8321
G1 X110.77 Y106.85 E0.8434
G1 X110.91 Y106.51 E0.8546
G1 X112.57 Y108.18 E0.9281
G1 X112.63 Y107.85 E0.9387
G1 X112.8 Y107.46 E0.9517
G1 X113.03 Y107.22 E0.9621
G1 X111.62 Y105.81 E1.0245
G1 X112.32 Y105.1 E1.0557
G1 X114.09 Y106.87 E1.1338
G1 X114.4 Y106.76 E1.144
G1 X115.25 Y106.62 E1.171
G1 X113.03 Y104.39 E1.2691
G1 X113.36 Y104.25 E1.2803
G1 X113.55 Y103.94 E1.2916
G1 X113.84 Y103.79 E1.3019
G1 X116.66 Y106.61 E1.4265
;
; 'Support Base', 134.7 [RPM], 67.5 [mm/s]
G1 F15000
G1 X117.98 Y106.52 E1.4265
G1 F4050
G1 X117.98 Y106.51 E1.4265
G1 X118.69 Y105.81 E1.4681
G1 X119.49 Y106.61 E1.5154
G1 X120.9 Y106.61 E1.5742
G1 X119.39 Y105.1 E1.663
G1 X119.63 Y104.86 E1.6769
G1 X119.91 Y104.65 E1.6916
G1 X120.2 Y104.49 E1.7053
G1 X122.32 Y106.61 E1.8298
G1 X123.73 Y106.61 E1.8886
G1 X121.16 Y104.04 E2.0398
G1 X121.87 Y103.33 E2.0814
G1 X125.15 Y106.61 E2.2742
G1 X126.56 Y106.61 E2.333
G1 X122.58 Y102.63 E2.5674
G1 X123.28 Y101.92 E2.609
G1 X127.98 Y106.61 E2.8849
G1 X129.39 Y106.61 E2.9437
G1 X124.44 Y101.67 E3.2345
G1 X125.86 Y101.67 E3.2933
G1 X130.8 Y106.61 E3.584
G1 X132.22 Y106.61 E3.6428
G1 X127.27 Y101.67 E3.9336
G1 X128.69 Y101.67 E3.9924
G1 X133.63 Y106.61 E4.2832
G1 X135.05 Y106.61 E4.342
G1 X130.1 Y101.67 E4.6327
G1 X131.52 Y101.67 E4.6915
G1 X136.46 Y106.61 E4.9823
G1 X137.87 Y106.61 E5.0411
G1 X132.93 Y101.67 E5.3319
G1 X134.34 Y101.67 E5.3907
G1 X138.9 Y106.22 E5.6586
G1 X139.28 Y106.12 E5.6751
G1 X139.81 Y106.12 E5.6971
G1 X140.28 Y106.28 E5.7177
G1 X140.6 Y106.51 E5.7342
G1 X135.76 Y101.67 E6.0192
G1 X136.59 Y101.66 E6.0538
G1 X137.07 Y101.72 E6.0739
G1 X137.42 Y101.92 E6.0907
G1 X147.33 Y111.82 E6.673
G1 X147.7 Y112.03 E6.6907
G1 X148.37 Y112.03 E6.7185
G1 X148.74 Y111.82 E6.7363
G1 X141.41 Y104.49 E7.1669
G1 X142.83 Y104.49 E7.2257
G1 X148.99 Y110.66 E7.5879
G1 X149 Y110.34 E7.6013
G1 X149.17 Y109.86 E7.6221
G1 X149.45 Y109.7 E7.6356
G1 X145.49 Y105.75 E7.8679
G1 X145.97 Y105.63 E7.8882
G1 X146.5 Y106.05 E7.9164
G1 X147.48 Y107.03 E7.9741
G1 X147.87 Y107.36 E7.9952
G1 X148.36 Y107.59 E8.0178
G1 X148.82 Y107.65 E8.037
G1 X150.15 Y108.99 E8.1156
G1 X150.39 Y108.75 E8.1294
G1 X150.6 Y108.47 E8.1441
G1 X150.76 Y108.18 E8.1579
G1 X149.8 Y107.22 E8.2143
;
; 'Support Base', 134.7 [RPM], 67.5 [mm/s]
G1 F15000
G1 X148.38 Y112.88 E8.2143
G1 F4050
G1 X148.59 Y113.25 E8.2322
G1 X148.59 Y113.92 E8.26
G1 X148.39 Y114.29 E8.2777
G1 X140.61 Y106.52 E8.735
G1 X140.86 Y106.88 E8.7534
G1 X141.02 Y107.39 E8.7756
G1 X141.04 Y108.36 E8.8159
G1 X146.97 Y114.29 E9.1648
G1 X146.51 Y114.48 E9.1855
G1 X146.02 Y114.12 E9.2108
G1 X145.6 Y113.93 E9.2301
G1 X145.12 Y113.86 E9.2499
G1 X141.04 Y109.78 E9.4901
G1 X141.04 Y111.19 E9.5489
G1 X144.06 Y114.21 E9.7267
G1 X143.72 Y114.29 E9.7414
G1 X143.37 Y114.44 E9.7573
G1 X143.08 Y114.65 E9.772
G1 X141.04 Y112.6 E9.892
G1 X141.04 Y114.02 E9.9508
G1 X142.65 Y115.63 E10.0456
;
; 'Support Base', 134.7 [RPM], 67.5 [mm/s]
G1 F15000
G1 X141.04 Y116.85 E10.0456
G1 F4050
G1 X143.85 Y119.66 E10.2109
G1 X143.75 Y120.04 E10.2274
G1 X143.73 Y120.51 E10.2469
G1 X143.91 Y121.04 E10.2701
G1 X144.14 Y121.36 E10.2865
G1 X141.04 Y118.26 E10.4689
G1 X141.04 Y119.67 E10.5277
G1 X144.85 Y123.49 E10.7517
G1 X144.14 Y124.19 E10.7933
G1 X141.04 Y121.09 E10.9758
;
; 'Support Interface', 101.0 [RPM], 67.5 [mm/s]
G1 F15000
G1 X139.7 Y121.17 E10.9758
G1 F4050
G1 X141.7 Y123.17 E11.0639
;
; 'Wipe', 0.0 [RPM], 67.5 [mm/s]
G1 F15000
G1 X141.7 Y123.17 E11.0639
G1 F4050
G1 X139.7 Y121.17 E11.0639
;
; 'Support Interface', 101.0 [RPM], 67.5 [mm/s]
G1 F15000
G1 X140.99 Y123.87 E11.0639
G1 F4050
G1 X140.11 Y122.99 E11.1028
G1 X140.11 Y122.51 E11.1179
G1 X140.36 Y122.24 E11.1294
G1 X140.52 Y121.53 E11.1521
G1 X140.51 Y120.56 E11.1823
G1 X139.7 Y119.75 E11.2178
G1 X139.7 Y118.34 E11.2619
G1 X140.51 Y119.14 E11.2973
G1 X140.51 Y117.73 E11.3414
G1 X139.7 Y116.92 E11.3768
G1 X139.71 Y116.14 E11.4011
G1 X139.67 Y115.74 E11.4137
G1 X139.56 Y115.37 E11.4258
G1 X140.51 Y116.31 E11.4675
G1 X140.51 Y115.9 E11.4805
G1 X140.33 Y115.51 E11.4937
G1 X140.03 Y115.06 E11.5106
G1 X140.25 Y114.65 E11.5254
G1 X139.7 Y114.09 E11.5498
G1 X139.7 Y112.68 E11.5938
G1 X140.51 Y113.48 E11.6292
G1 X140.51 Y112.07 E11.6733
G1 X139.7 Y111.27 E11.7088
G1 X139.7 Y109.85 E11.7529
G1 X140.51 Y110.66 E11.7883
G1 X140.51 Y109.24 E11.8324
G1 X139.7 Y108.44 E11.8678
G1 X139.71 Y107.57 E11.8949
G1 X139.58 Y107.11 E11.9097
G1 X139.4 Y106.72 E11.9231
G1 X140.51 Y107.83 E11.9719
;
; 'Wipe', 0.0 [RPM], 67.5 [mm/s]
G1 F15000
G1 X140.51 Y107.83 E11.9719
G1 F4050
G1 X139.4 Y106.72 E11.9719
G1 X139.58 Y107.11 E11.9719
G1 X139.71 Y107.57 E11.9719
G1 X139.7 Y108.44 E11.9719
G1 X140.51 Y109.24 E11.9719
G1 X140.51 Y110.66 E11.9719
G1 X139.7 Y109.85 E11.9719
G1 X139.7 Y111.27 E11.9719
G1 X140.51 Y112.07 E11.9719
G1 X140.52 Y112.54 E11.9719
;
; 'Support Base', 134.7 [RPM], 67.5 [mm/s]
G1 F15000
G1 X135.4 Y112.62 E11.9719
G1 F4050
G1 X134.38 Y111.61 E12.0316
G1 X135.8 Y111.61 E12.0904
G1 X136.05 Y111.86 E12.105
G1 X135.61 Y111.61 E12.126
G1 X132.97 Y111.61 E12.2357
G1 X134.3 Y112.93 E12.3137
;
; 'Wipe', 0.0 [RPM], 67.5 [mm/s]
G1 F15000
G1 X134.3 Y112.93 E12.3137
G1 F4050
G1 X132.97 Y111.61 E12.3137
G1 X135.61 Y111.61 E12.3137
G1 X136.05 Y111.86 E12.3137
G1 X135.8 Y111.61 E12.3137
G1 X134.38 Y111.61 E12.3137
G1 X135.4 Y112.62 E12.3137
;
; 'Support Base', 134.7 [RPM], 67.5 [mm/s]
G1 F15000
G1 X132.88 Y112.93 E12.3137
G1 F4050
G1 X131.56 Y111.61 E12.3917
G1 X130.14 Y111.61 E12.4505
G1 X131.47 Y112.93 E12.5284
;
; 'Wipe', 0.0 [RPM], 67.5 [mm/s]
G1 F15000
G1 X131.47 Y112.93 E12.5284
G1 F4050
G1 X130.14 Y111.61 E12.5284
G1 X131.56 Y111.61 E12.5284
G1 X132.88 Y112.93 E12.5284
;
; 'Support Base', 134.7 [RPM], 67.5 [mm/s]
G1 F15000
G1 X130.05 Y112.93 E12.5284
G1 F4050
G1 X128.73 Y111.61 E12.6064
G1 X127.31 Y111.61 E12.6652
G1 X128.64 Y112.93 E12.7432
;
; 'Wipe', 0.0 [RPM], 67.5 [mm/s]
G1 F15000
G1 X128.64 Y112.93 E12.7432
G1 F4050
G1 X127.31 Y111.61 E12.7432
G1 X128.73 Y111.61 E12.7432
G1 X130.05 Y112.93 E12.7432
;
; 'Support Base', 134.7 [RPM], 67.5 [mm/s]
G1 F15000
G1 X127.61 Y113.32 E12.7432
G1 F4050
G1 X126.6 Y112.31 E12.8025
G1 X126.6 Y113.73 E12.8613
G1 X127.61 Y114.73 E12.9206
;
; 'Wipe', 0.0 [RPM], 67.5 [mm/s]
G1 F15000
G1 X127.61 Y114.73 E12.9206
G1 F4050
G1 X126.6 Y113.73 E12.9206
G1 X126.6 Y112.31 E12.9206
G1 X127.61 Y113.32 E12.9206
;
; 'Support Base', 134.7 [RPM], 67.5 [mm/s]
G1 F15000
G1 X127.61 Y116.15 E12.9206
G1 F4050
G1 X126.56 Y115.1 E12.9824
G1 X126.62 Y115.58 E13.0024
G1 X126.6 Y116.55 E13.043
G1 X128.43 Y118.38 E13.1507
G1 X127.02 Y118.38 E13.2095
G1 X126.61 Y117.97 E13.2336
;
; 'Wipe', 0.0 [RPM], 67.5 [mm/s]
G1 F15000
G1 X126.61 Y117.97 E13.2336
G1 F4050
G1 X127.02 Y118.38 E13.2336
G1 X128.43 Y118.38 E13.2336
G1 X126.6 Y116.55 E13.2336
G1 X126.62 Y115.58 E13.2336
G1 X126.56 Y115.1 E13.2336
G1 X127.61 Y116.15 E13.2336
;
; 'Support Base', 134.7 [RPM], 67.5 [mm/s]
G1 F15000
G1 X129.95 Y117.07 E13.2336
G1 F4050
G1 X131.26 Y118.38 E13.3111
G1 X129.85 Y118.38 E13.3698
G1 X128.53 Y117.07 E13.4473
;
; 'Wipe', 0.0 [RPM], 67.5 [mm/s]
G1 F15000
G1 X128.53 Y117.07 E13.4473
G1 F4050
G1 X129.85 Y118.38 E13.4473
G1 X131.26 Y118.38 E13.4473
G1 X129.95 Y117.07 E13.4473
;
; 'Support Base', 134.7 [RPM], 67.5 [mm/s]
G1 F15000
G1 X132.77 Y117.07 E13.4473
G1 F4050
G1 X134.09 Y118.38 E13.5247
G1 X132.68 Y118.38 E13.5835
G1 X131.36 Y117.07 E13.6609
;
; 'Wipe', 0.0 [RPM], 67.5 [mm/s]
G1 F15000
G1 X131.36 Y117.07 E13.6609
G1 F4050
G1 X132.68 Y118.38 E13.6609
G1 X134.09 Y118.38 E13.6609
G1 X132.77 Y117.07 E13.6609
;
; 'Support Base', 134.7 [RPM], 67.5 [mm/s]
G1 F15000
G1 X135.57 Y117.03 E13.6609
G1 F4050
G1 X136.61 Y118.08 E13.7223
G1 X136.32 Y118.28 E13.7371
G1 X135.87 Y118.38 E13.7562
G1 X135.51 Y118.38 E13.7715
G1 X134.19 Y117.07 E13.849
;
; 'Wipe', 0.0 [RPM], 67.5 [mm/s]
G1 F15000
G1 X134.19 Y117.07 E13.849
G1 F4050
G1 X135.51 Y118.38 E13.849
G1 X135.87 Y118.38 E13.849
G1 X136.32 Y118.28 E13.849
G1 X136.61 Y118.08 E13.849
G1 X135.57 Y117.03 E13.849
;
; 'Support Base', 134.7 [RPM], 67.5 [mm/s]
G1 F15000
G1 X136.61 Y116.66 E13.849
G1 F4050
G1 X135.57 Y115.62 E13.9104
;
; 'Wipe', 0.0 [RPM], 67.5 [mm/s]
G1 F15000
G1 X135.57 Y115.62 E13.9104
G1 F4050
G1 X136.61 Y116.66 E13.9104
;
; 'Support Base', 134.7 [RPM], 67.5 [mm/s]
G1 F15000
G1 X135.95 Y114.59 E13.9104
G1 F4050
G1 X136.75 Y115.38 E13.9573
;
; 'Wipe', 0.0 [RPM], 67.5 [mm/s]
G1 F15000
G1 X136.75 Y115.38 E13.9573
G1 F4050
G1 X135.95 Y114.59 E13.9573
;
; 'Support Interface', 101.0 [RPM], 67.5 [mm/s]
G1 F15000
G1 X137.42 Y121.72 E13.9573
G1 F4050
G1 X137.43 Y121.72 E13.9574
;
; 'Wipe', 0.0 [RPM], 67.5 [mm/s]
G1 F15000
G1 X137.43 Y121.72 E13.9574
G1 F4050
G1 X137.42 Y121.72 E13.9574
;
; 'Support Base', 134.7 [RPM], 67.5 [mm/s]
G1 F15000
G1 X143.05 Y124.51 E13.9574
G1 F4050
G1 X143.33 Y124.8 E13.9742
G1 X143.69 Y124.61 E13.991
G1 X143.95 Y124.2 E14.011
G1 X144.86 Y123.29 E14.0645
G1 X145.26 Y123.03 E14.0845
G1 X145.46 Y122.68 E14.1013
G1 X144.14 Y121.37 E14.1784
G1 X143.89 Y121 E14.1969
G1 X143.71 Y120.41 E14.2227
G1 X143.78 Y119.89 E14.2443
G1 X143.95 Y119.44 E14.2642
G1 X143.91 Y118.95 E14.2845
G1 X143.61 Y118 E14.3262
G1 X140.61 Y115 E14.5024
;
; 'Support Interface', 101.0 [RPM], 67.5 [mm/s]
G1 F15000
G1 X145.91 Y114.65 E14.5024
G1 F4050
G1 X145.54 Y114.44 E14.5159
G1 X144.87 Y114.44 E14.5367
G1 X144.5 Y114.65 E14.55
G1 X146.26 Y116.42 E14.6281
G1 X146.48 Y116.8 E14.6417
G1 X146.54 Y117.74 E14.6711
G1 X146.62 Y118.18 E14.6852
G1 X143.43 Y115 E14.8256
G1 X143.23 Y115.37 E14.8389
G1 X143.22 Y116.04 E14.8598
G1 X143.43 Y116.41 E14.873
G1 X146.87 Y119.85 E15.0246
G1 X146.71 Y120.14 E15.0349
G1 X146.5 Y120.42 E15.0459
G1 X146.26 Y120.66 E15.0563
G1 X144.49 Y118.89 E15.1343
G1 X144.53 Y119.28 E15.1465
G1 X144.42 Y119.71 E15.1605
G1 X144.24 Y120.05 E15.1724
G1 X145.46 Y121.26 E15.2259
;
; 'Support Interface', 101.0 [RPM], 67.5 [mm/s]
G1 F15000
G1 X145.1 Y105.35 E15.2259
G1 F4050
G1 X143.89 Y104.14 E15.2793
G1 X144.04 Y103.85 E15.2896
G1 X144.26 Y103.57 E15.3006
G1 X144.5 Y103.33 E15.311
G1 X148.03 Y106.87 E15.467
G1 X148.4 Y107.08 E15.4803
G1 X149.07 Y107.08 E15.5012
G1 X149.45 Y106.87 E15.5145
G1 X145.2 Y102.63 E15.7016
G1 X145.57 Y102.42 E15.7149
G1 X146.24 Y102.42 E15.7358
G1 X146.62 Y102.62 E15.7491
G1 X149.45 Y105.46 E15.8739
;
; 'Wipe', 0.0 [RPM], 67.5 [mm/s]
G1 F15000
G1 X149.45 Y105.46 E15.8739
G1 F4050
G1 X146.62 Y102.62 E15.8739
G1 X146.24 Y102.42 E15.8739
G1 X145.57 Y102.42 E15.8739
G1 X145.2 Y102.63 E15.8739
G1 X148.38 Y105.81 E15.8739
;
; 'Support Interface', 101.0 [RPM], 67.5 [mm/s]
G1 F15000
G1 X124.63 Y115.99 E15.8739
G1 F4050
G1 X124.1 Y115.46 E15.8972
G1 X124.09 Y114.99 E15.9119
G1 X124.1 Y114.05 E15.9413
G1 X124.62 Y114.57 E15.964
;
; 'Wipe', 0.0 [RPM], 67.5 [mm/s]
G1 F15000
G1 X124.62 Y114.57 E15.964
G1 F4050
G1 X124.1 Y114.05 E15.964
G1 X124.09 Y114.99 E15.964
G1 X124.1 Y115.46 E15.964
G1 X124.63 Y115.99 E15.964
;
; 'Support Base', 134.7 [RPM], 67.5 [mm/s]
G1 F15000
G1 X125.9 Y121.51 E15.964
G1 F4050
G1 X126.27 Y121.88 E15.9857
G1 X125.8 Y121.82 E16.0055
G1 X125.33 Y121.88 E16.0253
G1 X124.86 Y121.88 E16.0449
G1 X124.49 Y121.51 E16.0667
G1 X124.02 Y121.51 E16.0863
G1 X123.55 Y121.47 E16.106
G1 X123.08 Y121.51 E16.1256
G1 X123.45 Y121.88 E16.1474
G1 X122.98 Y121.82 E16.1672
G1 X122.5 Y121.88 E16.187
G1 X122.03 Y121.88 E16.2066
G1 X121.66 Y121.51 E16.2283
G1 X121.19 Y121.51 E16.2479
G1 X120.72 Y121.47 E16.2676
G1 X120.25 Y121.51 E16.2873
G1 X120.62 Y121.88 E16.3091
;
; 'Wipe', 0.0 [RPM], 67.5 [mm/s]
G1 F15000
G1 X120.62 Y121.88 E16.3091
G1 F4050
G1 X120.25 Y121.51 E16.3091
G1 X120.72 Y121.47 E16.3091
G1 X121.19 Y121.51 E16.3091
G1 X121.66 Y121.51 E16.3091
G1 X122.03 Y121.88 E16.3091
G1 X122.5 Y121.88 E16.3091
G1 X122.98 Y121.82 E16.3091
G1 X123.45 Y121.88 E16.3091
G1 X123.08 Y121.51 E16.3091
G1 X123.55 Y121.47 E16.3091
G1 X124.02 Y121.51 E16.3091
G1 X124.49 Y121.51 E16.3091
G1 X124.86 Y121.88 E16.3091
G1 X125.33 Y121.88 E16.3091
G1 X125.8 Y121.82 E16.3091
G1 X126.27 Y121.88 E16.3091
G1 X125.9 Y121.51 E16.3091
;
; 'Support Interface', 101.0 [RPM], 67.5 [mm/s]
G1 F15000
G1 X116.38 Y121.88 E16.3091
G1 F4050
G1 X116.18 Y121.68 E16.3178
G1 X116.66 Y121.73 E16.333
G1 X117.16 Y121.71 E16.3485
G1 X117.63 Y121.72 E16.3631
;
; 'Wipe', 0.0 [RPM], 67.5 [mm/s]
G1 F15000
G1 X117.63 Y121.72 E16.3631
G1 F4050
G1 X117.16 Y121.71 E16.3631
G1 X116.66 Y121.73 E16.3631
G1 X116.18 Y121.68 E16.3631
G1 X116.38 Y121.88 E16.3631
;
; 'Support Interface', 101.0 [RPM], 67.5 [mm/s]
G1 F15000
G1 X112.57 Y120.91 E16.3631
G1 F4050
G1 X110.3 Y118.64 E16.4633
G1 X110.3 Y120.05 E16.5074
G1 X114.34 Y124.09 E16.6856
;
; 'Wipe', 0.0 [RPM], 67.5 [mm/s]
G1 F15000
G1 X114.34 Y124.09 E16.6856
G1 F4050
G1 X110.3 Y120.05 E16.6856
G1 X110.3 Y118.64 E16.6856
G1 X112.42 Y120.76 E16.6856
;
; 'Support Interface', 101.0 [RPM], 67.5 [mm/s]
G1 F15000
G1 X112.77 Y123.93 E16.6856
G1 F4050
G1 X110.3 Y121.47 E16.7944
G1 X110.29 Y122.3 E16.8204
G1 X110.35 Y122.78 E16.8355
G1 X110.55 Y123.13 E16.8481
G1 X111.97 Y124.55 E16.9106
;
; 'Support Interface', 101.0 [RPM], 67.5 [mm/s]
G1 F15000
G1 X112.57 Y118.08 E16.9106
G1 F4050
G1 X110.3 Y115.81 E17.0108
G1 X110.3 Y117.22 E17.0549
G1 X112.57 Y119.5 E17.1551
;
; 'Support Interface', 101.0 [RPM], 67.5 [mm/s]
G1 F15000
G1 X114.36 Y108.56 E17.1551
G1 F4050
G1 X113.84 Y108.04 E17.1781
G1 X113.84 Y109.45 E17.2222
G1 X114.36 Y109.97 E17.2451
G1 X114.36 Y111.38 E17.2892
G1 X113.84 Y110.86 E17.3121
G1 X113.84 Y112.28 E17.3562
G1 X114.36 Y112.8 E17.3791
G1 X114.36 Y114.21 E17.4232
G1 X113.84 Y113.69 E17.4461
G1 X113.84 Y115.11 E17.4902
G1 X114.36 Y115.63 E17.5132
G1 X114.36 Y117.04 E17.5573
G1 X113.84 Y116.52 E17.5802
G1 X113.84 Y117.93 E17.6243
G1 X114.36 Y118.45 E17.6472
G1 X114.36 Y119.87 E17.6913
G1 X113.84 Y119.35 E17.7142
G1 X113.84 Y120.76 E17.7583
G1 X114.36 Y121.28 E17.7812
G1 X114.36 Y121.7 E17.7944
G1 X114.25 Y122.16 E17.8091
G1 X114.21 Y122.54 E17.8211
G1 X113.9 Y122.23 E17.8347
;
; 'Wipe', 0.0 [RPM], 67.5 [mm/s]
G1 F15000
G1 X113.9 Y122.23 E17.8347
G1 F4050
G1 X114.21 Y122.54 E17.8347
G1 X114.25 Y122.16 E17.8347
G1 X114.36 Y121.7 E17.8347
G1 X114.36 Y121.28 E17.8347
G1 X113.84 Y120.76 E17.8347
G1 X113.84 Y119.35 E17.8347
G1 X114.36 Y119.87 E17.8347
G1 X114.36 Y118.45 E17.8347
G1 X113.84 Y117.93 E17.8347
G1 X113.84 Y116.52 E17.8347
G1 X114.36 Y117.04 E17.8347
G1 X114.36 Y115.63 E17.8347
;
; 'Support Base', 134.7 [RPM], 67.5 [mm/s]
G1 F15000
G1 X127.69 Y121.88 E17.8347
G1 F4050
G1 X127.32 Y121.51 E17.8565
G1 X127.79 Y121.47 E17.8762
G1 X128.26 Y121.51 E17.8959
G1 X128.73 Y121.51 E17.9155
G1 X129.1 Y121.88 E17.9372
G1 X129.57 Y121.88 E17.9568
G1 X130.05 Y121.82 E17.9766
G1 X130.52 Y121.88 E17.9964
G1 X130.15 Y121.51 E18.0181
G1 X130.62 Y121.47 E18.0378
G1 X131.09 Y121.51 E18.0575
G1 X131.56 Y121.51 E18.0771
G1 X131.93 Y121.88 E18.0989
G1 X132.4 Y121.88 E18.1185
G1 X132.87 Y121.82 E18.1383
G1 X133.35 Y121.88 E18.158
G1 X132.98 Y121.51 E18.1798
G1 X133.45 Y121.47 E18.1995
G1 X133.92 Y121.51 E18.2192
G1 X134.39 Y121.51 E18.2388
G1 X134.76 Y121.88 E18.2605
G1 X135.23 Y121.88 E18.2801
G1 X135.7 Y121.82 E18.2999
G1 X136.17 Y121.88 E18.3197
G1 X135.8 Y121.51 E18.3415
;
; 'Wipe', 0.0 [RPM], 67.5 [mm/s]
G1 F15000
G1 X135.8 Y121.51 E18.3415
G1 F4050
G1 X136.17 Y121.88 E18.3415
G1 X135.7 Y121.82 E18.3415
G1 X135.23 Y121.88 E18.3415
G1 X134.76 Y121.88 E18.3415
G1 X134.39 Y121.51 E18.3415
G1 X133.92 Y121.51 E18.3415
G1 X133.45 Y121.47 E18.3415
G1 X132.98 Y121.51 E18.3415
G1 X133.35 Y121.88 E18.3415
G1 X132.87 Y121.82 E18.3415
G1 X132.4 Y121.88 E18.3415
G1 X131.93 Y121.88 E18.3415
G1 X131.56 Y121.51 E18.3415
G1 X131.09 Y121.51 E18.3415
G1 X130.62 Y121.47 E18.3415
G1 X130.15 Y121.51 E18.3415
G1 X130.52 Y121.88 E18.3415
G1 X130.05 Y121.82 E18.3415
G1 X129.57 Y121.88 E18.3415
G1 X129.1 Y121.88 E18.3415
G1 X128.86 Y121.64 E18.3415
;
; 'Perimeter', 180.0 [RPM], 90.2 [mm/s]
G1 F15000
G1 X114.88 Y123.04 E18.3415
G1 F5411.9
G1 X114.94 Y122.99 E18.3444
G1 X115 Y122.98 E18.3473
G1 X115.11 Y122.92 E18.3526
G1 X115.16 Y122.94 E18.3548
G1 X115.32 Y122.94 E18.3613
G1 X115.39 Y122.9 E18.3648
G1 X138.9 Y122.9 E19.3423
G1 X139.05 Y122.92 E19.3489
G1 X139.16 Y122.98 E19.3542
G1 X139.41 Y123 E19.3644
G1 X139.46 Y123.04 E19.3673
G1 X139.48 Y123.2 E19.374
G1 X139.57 Y123.28 E19.3792
G1 X139.58 Y123.63 E19.3936
G1 X139.67 Y123.72 E19.3988
G1 X139.67 Y124.07 E19.4134
G1 X139.76 Y124.16 E19.4186
G1 X139.76 Y124.33 E19.4259
G1 X139.85 Y124.42 E19.4311
G1 X139.85 Y124.6 E19.4384
;
; 'Wipe', 0.0 [RPM], 67.5 [mm/s]
G1 F15000
G1 X139.85 Y124.6 E19.4384
G1 F4050
G1 X139.85 Y124.42 E19.4384
G1 X139.76 Y124.33 E19.4384
G1 X139.76 Y124.16 E19.4384
G1 X139.67 Y124.07 E19.4384
G1 X139.67 Y123.72 E19.4384
G1 X139.58 Y123.63 E19.4384
G1 X139.57 Y123.28 E19.4384
G1 X139.48 Y123.2 E19.4384
G1 X139.46 Y123.04 E19.4384
G1 X139.41 Y123 E19.4384
G1 X139.16 Y122.98 E19.4384
G1 X139.05 Y122.92 E19.4384
G1 X138.9 Y122.9 E19.4384
G1 X131.18 Y122.9 E19.4384
;
; 'Perimeter', 180.0 [RPM], 90.2 [mm/s]
G1 F15000
G1 X125.76 Y115.06 E19.4384
G1 F5411.9
G1 X125.8 Y115.4 E19.4527
G1 X125.73 Y115.38 E19.4556
G1 X125.63 Y115.13 E19.4669
G1 X125.63 Y114.95 E19.4742
G1 X125.82 Y114.71 E19.4871
G1 X125.86 Y114.72 E19.4888
G1 X125.86 Y114.89 E19.4961
G1 X125.96 Y114.98 E19.5013
G1 X125.96 Y115.02 E19.5032
G1 X125.87 Y115.11 E19.5084
G1 X125.86 Y115.28 E19.5156
G1 X125.8 Y115.4 E19.5211
G1 X125.58 Y115.13 E19.5353
;
; 'Wipe', 0.0 [RPM], 67.5 [mm/s]
G1 F15000
G1 X125.58 Y115.13 E19.5353
G1 F4050
G1 X125.8 Y115.4 E19.5353
G1 X125.86 Y115.28 E19.5353
G1 X125.87 Y115.11 E19.5353
G1 X125.96 Y115.02 E19.5353
G1 X125.96 Y114.98 E19.5353
G1 X125.86 Y114.89 E19.5353
G1 X125.86 Y114.72 E19.5353
G1 X125.82 Y114.71 E19.5353
G1 X125.63 Y114.95 E19.5353
G1 X125.63 Y115.13 E19.5353
G1 X125.73 Y115.38 E19.5353
G1 X125.8 Y115.4 E19.5353
G1 X125.76 Y115.06 E19.5353
;
; 'Perimeter', 180.0 [RPM], 90.2 [mm/s]
G1 F15000
G1 X123.86 Y117.17 E19.5353
G1 F5411.9
G1 X123.95 Y117.08 E19.5405
G1 X124.13 Y117.08 E19.5479
G1 X124.22 Y117 E19.5531
G1 X124.4 Y117 E19.5605
G1 X124.57 Y116.82 E19.5709
G1 X124.75 Y116.82 E19.5784
G1 X125.02 Y116.56 E19.5939
G1 X125.2 Y116.57 E19.6015
G1 X125.39 Y116.4 E19.6119
G1 X125.39 Y116.22 E19.6193
G1 X125.42 Y116.08 E19.6253
G1 X125.57 Y116.07 E19.6315
G1 X125.6 Y116.22 E19.6378
G1 X125.6 Y118.9 E19.7494
G1 X125.61 Y119.21 E19.762
G1 X125.68 Y119.32 E19.7674
G1 X125.91 Y119.39 E19.7774
G1 X125.96 Y119.4 E19.7794
G1 X137.27 Y119.4 E20.2498
G1 X137.39 Y119.39 E20.2548
G1 X137.5 Y119.32 E20.2602
G1 X137.62 Y119.05 E20.2726
G1 X137.62 Y118.02 E20.3151
G1 X137.62 Y116.08 E20.396
G1 X137.73 Y116.01 E20.4013
G1 X138.53 Y116.01 E20.4348
G1 X138.69 Y116.03 E20.4413
G1 X138.69 Y121.75 E20.6788
G1 X138.45 Y122.03 E20.6944
G1 X138.24 Y122.18 E20.7049
G1 X138.21 Y122.17 E20.7062
G1 X138.19 Y121.83 E20.7201
G1 X138.1 Y121.75 E20.7253
G1 X138.1 Y121.57 E20.7327
G1 X138.01 Y121.48 E20.7379
G1 X137.83 Y121.49 E20.7454
G1 X137.21 Y120.87 E20.7818
G1 X125.37 Y120.87 E21.2743
G1 X125.28 Y120.78 E21.2795
G1 X124.92 Y120.78 E21.2942
G1 X124.84 Y120.69 E21.2994
G1 X124.66 Y120.7 E21.3069
G1 X124.57 Y120.61 E21.312
;
; 'Loop', 161.0 [RPM], 80.7 [mm/s]
G1 F15000
G1 X123.87 Y117.18 E21.312
G1 F4840.8
G1 X123.96 Y117.1 E21.3172
G1 X124.14 Y117.1 E21.3247
G1 X124.23 Y117.01 E21.3299
G1 X124.41 Y117.01 E21.3374
G1 X124.59 Y116.84 E21.3478
G1 X124.77 Y116.84 E21.3553
G1 X125.05 Y116.59 E21.3709
G1 X125.09 Y116.63 E21.3734
G1 X125.09 Y119.02 E21.4729
G1 X125.13 Y119.34 E21.4861
G1 X125.25 Y119.58 E21.4971
G1 X125.42 Y119.75 E21.5075
G1 X125.68 Y119.87 E21.5194
G1 X125.98 Y119.9 E21.532
G1 X137.3 Y119.9 E22.0024
G1 X137.65 Y119.82 E22.0174
G1 X137.76 Y119.76 E22.0227
G1 X137.94 Y119.58 E22.0331
G1 X138.09 Y119.64 E22.0398
G1 X138.19 Y119.72 E22.045
G1 X138.19 Y121.6 E22.123
G1 X138.13 Y121.72 E22.1286
G1 X138.13 Y121.54 E22.1358
G1 X138.04 Y121.46 E22.141
G1 X137.85 Y121.47 E22.1487
G1 X137.22 Y120.86 E22.1851
G1 X125.38 Y120.86 E22.6775
G1 X125.29 Y120.77 E22.6827
G1 X124.94 Y120.77 E22.6975
G1 X124.85 Y120.68 E22.7027
G1 X124.67 Y120.68 E22.7101
G1 X124.58 Y120.59 E22.7153
;
; 'Wipe', 0.0 [RPM], 67.5 [mm/s]
G1 F15000
G1 X124.58 Y120.59 E22.7153
G1 F4050
G1 X124.67 Y120.68 E22.7153
G1 X124.85 Y120.68 E22.7153
G1 X124.94 Y120.77 E22.7153
G1 X125.29 Y120.77 E22.7153
G1 X125.38 Y120.86 E22.7153
G1 X134.57 Y120.86 E22.7153
;
; 'Perimeter', 180.0 [RPM], 90.2 [mm/s]
G1 F15000
G1 X114.88 Y123.05 E22.7153
G1 F5411.9
G1 X114.86 Y123.2 E22.7216
G1 X114.85 Y123.72 E22.7431
G1 X114.76 Y123.8 E22.7483
G1 X114.76 Y124.33 E22.7702
G1 X114.67 Y124.42 E22.7754
G1 X114.67 Y124.67 E22.7859
;
; 'Loop', 161.0 [RPM], 80.7 [mm/s]
G1 F15000
G1 X114.88 Y123.57 E22.7859
G1 F4840.8
G1 X114.96 Y123.5 E22.7905
G1 X115.26 Y123.42 E22.8033
G1 X115.41 Y123.4 E22.8097
G1 X138.75 Y123.4 E23.78
G1 X138.91 Y123.42 E23.7864
G1 X139.18 Y123.49 E23.7984
G1 X139.54 Y123.49 E23.8133
G1 X139.55 Y123.65 E23.8201
G1 X139.65 Y123.74 E23.8253
G1 X139.65 Y124.08 E23.8397
G1 X139.74 Y124.17 E23.8448
G1 X139.75 Y124.34 E23.8521
G1 X139.84 Y124.43 E23.8573
G1 X139.84 Y124.61 E23.8646
;
; 'Loop', 161.0 [RPM], 80.7 [mm/s]
G1 F15000
G1 X114.88 Y123.58 E23.8646
G1 F4840.8
G1 X114.87 Y123.74 E23.8713
G1 X114.78 Y123.82 E23.8765
G1 X114.77 Y124.35 E23.8981
G1 X114.68 Y124.43 E23.9033
G1 X114.68 Y124.66 E23.9128
;
; 'Wipe', 0.0 [RPM], 67.5 [mm/s]
G1 F15000
G1 X114.68 Y124.66 E23.9128
G1 F4050
G1 X114.68 Y124.43 E23.9128
G1 X114.77 Y124.35 E23.9128
G1 X114.78 Y123.82 E23.9128
G1 X114.87 Y123.74 E23.9128
G1 X114.88 Y123.58 E23.9128
;
; 'Perimeter', 180.0 [RPM], 90.2 [mm/s]
G1 F15000
G1 X115.38 Y107.88 E23.9128
G1 F5411.9
G1 X115.38 Y122.12 E24.505
G1 X115.46 Y122.2 E24.5099
G1 X115.69 Y122.24 E24.5194
G1 X115.88 Y122.09 E24.5295
G1 X115.88 Y121.92 E24.5366
G1 X116.07 Y121.75 E24.547
G1 X116.06 Y121.57 E24.5544
G1 X117.04 Y120.61 E24.6116
;
; 'Loop', 161.0 [RPM], 80.7 [mm/s]
G1 F15000
G1 X115.88 Y108.13 E24.6116
G1 F4840.8
G1 X136.52 Y108.13 E25.4695
G1 X136.59 Y108.23 E25.4748
G1 X136.58 Y110.09 E25.5521
G1 X126.07 Y110.09 E25.9892
G1 X125.69 Y110.11 E26.0049
G1 X125.42 Y110.24 E26.0175
G1 X125.24 Y110.42 E26.0279
G1 X125.11 Y110.69 E26.0405
G1 X125.09 Y111.07 E26.0563
G1 X125.09 Y113.37 E26.1519
G1 X125.05 Y113.41 E26.1543
G1 X124.77 Y113.16 E26.1699
G1 X124.59 Y113.16 E26.1775
G1 X124.41 Y112.99 E26.1879
G1 X124.23 Y112.99 E26.1953
G1 X124.14 Y112.9 E26.2005
G1 X123.96 Y112.9 E26.208
G1 X123.87 Y112.82 E26.2132
;
; 'Loop', 161.0 [RPM], 80.7 [mm/s]
G1 F15000
G1 X115.88 Y108.26 E26.2132
G1 F4840.8
G1 X115.88 Y121.69 E26.7718
G1 X115.94 Y121.81 E26.7772
G1 X116.04 Y121.72 E26.7826
G1 X116.04 Y121.55 E26.79
G1 X117.03 Y120.59 E26.8471
;
; 'Wipe', 0.0 [RPM], 67.5 [mm/s]
G1 F15000
G1 X117.03 Y120.59 E26.8471
G1 F4050
G1 X116.04 Y121.55 E26.8471
G1 X116.04 Y121.72 E26.8471
G1 X115.94 Y121.81 E26.8471
G1 X115.88 Y121.69 E26.8471
G1 X115.88 Y113.43 E26.8471
;
; 'Perimeter', 180.0 [RPM], 90.2 [mm/s]
G1 F15000
G1 X115.38 Y107.8 E26.8471
G1 F5411.9
G1 X115.38 Y107.63 E26.8545
G1 X137.02 Y107.63 E27.7542
G1 X137.09 Y107.73 E27.7595
G1 X137.09 Y110.6 E27.8787
G1 X126.09 Y110.6 E28.3359
G1 X125.78 Y110.61 E28.3487
G1 X125.67 Y110.67 E28.3541
G1 X125.6 Y110.95 E28.3661
G1 X125.6 Y111.1 E28.372
G1 X125.6 Y113.78 E28.4836
G1 X125.57 Y113.93 E28.49
G1 X125.42 Y113.92 E28.4961
G1 X125.39 Y113.78 E28.5022
G1 X125.39 Y113.6 E28.5095
G1 X125.2 Y113.43 E28.5199
G1 X125.02 Y113.44 E28.5276
G1 X124.75 Y113.18 E28.5431
G1 X124.57 Y113.18 E28.5506
G1 X124.4 Y113 E28.561
G1 X124.22 Y113 E28.5684
G1 X124.13 Y112.92 E28.5736
G1 X123.95 Y112.92 E28.581
G1 X123.86 Y112.83 E28.5862
;
; 'Wipe', 0.0 [RPM], 67.5 [mm/s]
G1 F15000
G1 X123.86 Y112.83 E28.5862
G1 F4050
G1 X123.95 Y112.92 E28.5862
G1 X124.13 Y112.92 E28.5862
G1 X124.22 Y113 E28.5862
G1 X124.4 Y113 E28.5862
G1 X124.57 Y113.18 E28.5862
G1 X124.75 Y113.18 E28.5862
G1 X125.02 Y113.44 E28.5862
G1 X125.2 Y113.43 E28.5862
G1 X125.39 Y113.6 E28.5862
G1 X125.39 Y113.78 E28.5862
G1 X125.42 Y113.92 E28.5862
G1 X125.57 Y113.93 E28.5862
G1 X125.6 Y113.78 E28.5862
G1 X125.6 Y111.1 E28.5862
G1 X125.61 Y110.78 E28.5862
G1 X125.67 Y110.67 E28.5862
G1 X125.91 Y110.6 E28.5862
G1 X126.09 Y110.6 E28.5862
G1 X130.16 Y110.6 E28.5862
;
; 'Crown', 180.0 [RPM], 90.2 [mm/s]
G1 F15000
G1 X138.12 Y119.25 E28.5862
G1 F5411.9
G1 X138.15 Y119.08 E28.5932
G1 X138.14 Y119.05 E28.5945
G1 X138.15 Y116.57 E28.6975
G1 X138.21 Y116.5 E28.7018
;
; 'Wipe', 0.0 [RPM], 67.5 [mm/s]
G1 F15000
G1 X138.21 Y116.5 E28.7018
G1 F4050
G1 X138.15 Y116.57 E28.7018
G1 X138.15 Y119.08 E28.7018
G1 X138.14 Y119.25 E28.7018
G1 X138.12 Y119.25 E28.7018
;
; 'Solid', 134.7 [RPM], 67.5 [mm/s]
G1 F15000
G1 X126.08 Y120.34 E28.7018
G1 F4050
G1 X125.8 Y120.62 E28.7182
G1 X125.07 Y120.64 E28.7484
G1 X125.4 Y120.31 E28.7675
G1 X124.96 Y120.04 E28.7888
G1 X124.73 Y120.27 E28.8024
G1 X124 Y120.3 E28.833
G1 X124.68 Y119.62 E28.873
G1 X124.59 Y119 E28.899
G1 X123.29 Y120.3 E28.9756
G1 X122.58 Y120.3 E29.005
G1 X124.58 Y118.3 E29.1226
G1 X124.58 Y117.59 E29.152
G1 X121.87 Y120.3 E29.3111
G1 X121.16 Y120.3 E29.3405
G1 X124.31 Y117.15 E29.5256
G1 X123.64 Y117.11 E29.5535
G1 X120.46 Y120.3 E29.7408
G1 X119.75 Y120.3 E29.7702
G1 X123.28 Y116.77 E29.9779
G1 X123.28 Y116.06 E30.0074
G1 X119.04 Y120.3 E30.2568
G1 X118.34 Y120.3 E30.2862
G1 X123.28 Y115.35 E30.5771
G1 X123.28 Y114.64 E30.6065
G1 X117.7 Y120.23 E30.9351
G1 X116.46 Y120.76 E30.9909
G1 X123.36 Y113.86 E31.3964
;
; 'Solid', 134.7 [RPM], 67.5 [mm/s]
G1 F15000
G1 X124.31 Y112.91 E31.3964
G1 F4050
G1 X124.58 Y112.64 E31.4123
G1 X124.58 Y111.94 E31.4417
G1 X116.39 Y120.12 E31.9228
G1 X116.39 Y119.41 E31.9522
G1 X124.55 Y111.25 E32.432
G1 X124.76 Y110.34 E32.4709
G1 X116.39 Y118.71 E32.9626
G1 X116.39 Y118 E32.992
G1 X125.75 Y108.64 E33.5422
G1 X125.04 Y108.64 E33.5716
G1 X116.39 Y117.29 E34.0802
G1 X116.39 Y116.59 E34.1096
G1 X124.34 Y108.64 E34.5766
G1 X123.63 Y108.64 E34.606
G1 X116.39 Y115.88 E35.0315
G1 X116.39 Y115.17 E35.0609
G1 X122.92 Y108.64 E35.4447
G1 X122.22 Y108.64 E35.4741
G1 X116.39 Y114.46 E35.8164
G1 X116.39 Y113.76 E35.8458
G1 X121.51 Y108.64 E36.1465
G1 X120.8 Y108.64 E36.1759
G1 X116.39 Y113.05 E36.4351
G1 X116.39 Y112.34 E36.4645
G1 X120.09 Y108.64 E36.6821
G1 X119.39 Y108.64 E36.7115
G1 X116.39 Y111.64 E36.8875
G1 X116.39 Y110.93 E36.9169
G1 X118.68 Y108.64 E37.0513
G1 X117.97 Y108.64 E37.0807
G1 X116.39 Y110.22 E37.1735
G1 X116.39 Y109.51 E37.2029
G1 X117.27 Y108.64 E37.2542
G1 X116.56 Y108.64 E37.2836
G1 X116.48 Y108.72 E37.2882
;
; 'Solid', 134.7 [RPM], 67.5 [mm/s]
G1 F15000
G1 X125.24 Y109.86 E37.2882
G1 F4050
G1 X126.46 Y108.64 E37.3596
G1 X127.17 Y108.64 E37.389
G1 X126.23 Y109.58 E37.4442
G1 X126.93 Y109.58 E37.4736
G1 X127.87 Y108.64 E37.5287
G1 X128.58 Y108.64 E37.5581
G1 X127.64 Y109.58 E37.6132
G1 X128.35 Y109.58 E37.6426
G1 X129.29 Y108.64 E37.6978
G1 X129.99 Y108.64 E37.7272
G1 X129.06 Y109.58 E37.7823
G1 X129.76 Y109.58 E37.8117
G1 X130.7 Y108.64 E37.8669
G1 X131.41 Y108.64 E37.8963
G1 X130.47 Y109.58 E37.9514
G1 X131.18 Y109.58 E37.9808
G1 X132.12 Y108.64 E38.036
G1 X132.82 Y108.64 E38.0654
G1 X131.88 Y109.58 E38.1205
G1 X132.59 Y109.58 E38.1499
G1 X133.53 Y108.64 E38.205
G1 X134.24 Y108.64 E38.2344
G1 X133.3 Y109.58 E38.2896
G1 X134.01 Y109.58 E38.319
G1 X134.94 Y108.64 E38.3741
G1 X135.65 Y108.64 E38.4035
G1 X134.71 Y109.58 E38.4587
G1 X135.42 Y109.58 E38.4881
G1 X136.15 Y108.85 E38.5311
;
; 'Wipe', 0.0 [RPM], 67.5 [mm/s]
G1 F15000
G1 X136.15 Y108.85 E38.5311
G1 F4050
G1 X135.42 Y109.58 E38.5311
G1 X134.71 Y109.58 E38.5311
G1 X135.65 Y108.64 E38.5311
G1 X134.94 Y108.64 E38.5311
G1 X134.01 Y109.58 E38.5311
G1 X133.3 Y109.58 E38.5311
G1 X134.24 Y108.64 E38.5311
G1 X133.53 Y108.64 E38.5311
G1 X132.59 Y109.58 E38.5311
G1 X131.88 Y109.58 E38.5311
G1 X132.82 Y108.64 E38.5311
;
; 'Solid', 134.7 [RPM], 67.5 [mm/s]
G1 F15000
G1 X137.09 Y120.64 E38.5311
G1 F4050
G1 X137.34 Y120.39 E38.546
G1 X137.7 Y120.74 E38.5668
G1 X137.38 Y121.05 E38.5852
;
; 'Wipe', 0.0 [RPM], 67.5 [mm/s]
G1 F15000
G1 X137.38 Y121.05 E38.5852
G1 F4050
G1 X137.7 Y120.74 E38.5852
G1 X137.34 Y120.39 E38.5852
G1 X137.09 Y120.64 E38.5852
;
; 'Stacked Sparse Infill', 180.0 [RPM], 90.2 [mm/s]
G1 F15000
G1 X142.38 Y124.54 E38.5852
G1 F5411.9
G1 X127.88 Y139.04 E39.4377
G1 X126.46 Y137.63 E39.5208
G1 X127.74 Y136.35 E39.5956
G1 X127.84 Y136.18 E39.6042
G1 X127.88 Y135.93 E39.6146
G1 X127.88 Y133.67 E39.7087
G1 X127.91 Y133.42 E39.7191
G1 X128.02 Y133.24 E39.7276
G1 X129.15 Y132.11 E39.7942
G1 X129.33 Y132.01 E39.8027
G1 X129.58 Y131.97 E39.8131
G1 X131.84 Y131.97 E39.9072
G1 X132.09 Y131.94 E39.9176
G1 X132.26 Y131.83 E39.9262
G1 X133.39 Y130.7 E39.9927
G1 X133.5 Y130.52 E40.0013
G1 X133.54 Y130.27 E40.0117
G1 X133.54 Y128.01 E40.1057
G1 X133.57 Y127.76 E40.1161
G1 X133.68 Y127.59 E40.1247
G1 X134.81 Y126.46 E40.1912
G1 X134.99 Y126.35 E40.1998
G1 X135.23 Y126.31 E40.2102
G1 X137.5 Y126.31 E40.3043
G1 X137.74 Y126.28 E40.3146
G1 X137.92 Y126.17 E40.3232
G1 X139.05 Y125.04 E40.3897
G1 X139.16 Y124.86 E40.3983
G1 X139.19 Y124.62 E40.4087
G1 X139.19 Y124.19 E40.4266
G1 X133.54 Y124.19 E40.6618
G1 X133.54 Y124.62 E40.6797
G1 X133.5 Y124.86 E40.6901
G1 X133.39 Y125.04 E40.6987
G1 X132.26 Y126.17 E40.7652
G1 X132.09 Y126.28 E40.7738
G1 X131.84 Y126.31 E40.7842
G1 X129.58 Y126.31 E40.8783
G1 X129.33 Y126.35 E40.8887
G1 X129.15 Y126.46 E40.8972
G1 X128.02 Y127.59 E40.9638
G1 X127.91 Y127.76 E40.9723
G1 X127.88 Y128.01 E40.9827
G1 X127.88 Y130.27 E41.0768
G1 X127.84 Y130.52 E41.0872
G1 X127.74 Y130.7 E41.0958
G1 X126.61 Y131.83 E41.1623
G1 X126.43 Y131.94 E41.1708
G1 X126.18 Y131.97 E41.1812
G1 X123.92 Y131.97 E41.2753
G1 X123.67 Y132.01 E41.2857
G1 X123.49 Y132.11 E41.2943
G1 X122.22 Y133.38 E41.3691
G1 X120.81 Y131.97 E41.4523
G1 X122.08 Y130.7 E41.5271
G1 X122.19 Y130.52 E41.5357
G1 X122.22 Y130.27 E41.5461
G1 X122.22 Y128.01 E41.6401
G1 X122.26 Y127.76 E41.6505
G1 X122.36 Y127.59 E41.6591
G1 X123.49 Y126.46 E41.7256
G1 X123.67 Y126.35 E41.7342
G1 X123.92 Y126.31 E41.7446
G1 X126.18 Y126.31 E41.8387
G1 X126.43 Y126.28 E41.8491
G1 X126.61 Y126.17 E41.8576
G1 X127.74 Y125.04 E41.9241
G1 X127.84 Y124.86 E41.9327
G1 X127.88 Y124.62 E41.9431
G1 X127.88 Y124.19 E41.961
G1 X122.22 Y124.19 E42.1962
G1 X122.22 Y124.62 E42.2142
G1 X122.19 Y124.86 E42.2246
G1 X122.08 Y125.04 E42.2331
G1 X120.95 Y126.17 E42.2996
G1 X120.77 Y126.28 E42.3082
G1 X120.52 Y126.31 E42.3186
G1 X118.26 Y126.31 E42.4127
G1 X118.01 Y126.35 E42.4231
G1 X117.84 Y126.46 E42.4316
G1 X116.56 Y127.73 E42.5065
G1 X115.15 Y126.31 E42.5896
G1 X116.42 Y125.04 E42.6645
G1 X116.53 Y124.86 E42.673
G1 X116.56 Y124.62 E42.6834
G1 X116.56 Y124.19 E42.7014
;
; 'Wipe', 0.0 [RPM], 67.5 [mm/s]
G1 F15000
G1 X116.56 Y124.19 E42.7014
G1 F4050
G1 X116.56 Y124.62 E42.7014
G1 X116.53 Y124.86 E42.7014
G1 X116.42 Y125.04 E42.7014
G1 X115.15 Y126.31 E42.7014
G1 X116.56 Y127.73 E42.7014
G1 X117.84 Y126.46 E42.7014
G1 X118.01 Y126.35 E42.7014
G1 X118.26 Y126.31 E42.7014
G1 X120.52 Y126.31 E42.7014
G1 X120.77 Y126.28 E42.7014
G1 X120.95 Y126.17 E42.7014
G1 X121.3 Y125.82 E42.7014
;
; 'Perimeter', 180.0 [RPM], 90.2 [mm/s]
G1 F15000
G1 X138.51 Y113.67 E42.7014
G1 F5411.9
G1 X138.69 Y113.97 E42.7158
G1 X137.91 Y113.98 E42.748
G1 X137.95 Y113.93 E42.7504
G1 X137.94 Y113.74 E42.7583
G1 X138.19 Y113.47 E42.7739
G1 X138.19 Y108.22 E42.9922
G1 X137.85 Y107.86 E43.0129
G1 X137.86 Y107.67 E43.021
G1 X137.83 Y107.63 E43.0232
G1 X138.61 Y107.63 E43.0557
G1 X138.69 Y107.72 E43.0609
G1 X138.69 Y113.97 E43.3204
G1 X138.38 Y113.81 E43.3348
;
; 'Wipe', 0.0 [RPM], 67.5 [mm/s]
G1 F15000
G1 X138.38 Y113.81 E43.3348
G1 F4050
G1 X138.69 Y113.97 E43.3348
G1 X138.69 Y107.72 E43.3348
G1 X138.61 Y107.63 E43.3348
G1 X137.83 Y107.63 E43.3348
G1 X137.86 Y107.67 E43.3348
G1 X137.85 Y107.86 E43.3348
G1 X138.19 Y108.22 E43.3348
G1 X138.19 Y109.99 E43.3348
;
; 'Perimeter', 180.0 [RPM], 90.2 [mm/s]
G1 F15000
G1 X135.44 Y112.84 E43.3348
G1 F5411.9
G1 X136.69 Y111.62 E43.4076
G1 X137.06 Y111.3 E43.4278
G1 X137.09 Y111.44 E43.4339
G1 X137.09 Y114.09 E43.5442
G1 X137.03 Y114.25 E43.5513
G1 X136.91 Y114.31 E43.5569
G1 X136.74 Y114.32 E43.5639
G1 X136.66 Y114.41 E43.5691
G1 X136.6 Y114.41 E43.5712
G1 X135.78 Y114.42 E43.6054
G1 X135.69 Y114.51 E43.6106
G1 X135.34 Y114.51 E43.6253
;
; 'Wipe', 0.0 [RPM], 67.5 [mm/s]
G1 F15000
G1 X135.34 Y114.51 E43.6253
G1 F4050
G1 X135.69 Y114.51 E43.6253
G1 X135.78 Y114.42 E43.6253
G1 X136.6 Y114.41 E43.6253
G1 X136.66 Y114.41 E43.6253
G1 X136.74 Y114.32 E43.6253
G1 X136.91 Y114.31 E43.6253
G1 X137.03 Y114.25 E43.6253
G1 X137.09 Y114.09 E43.6253
G1 X137.09 Y111.44 E43.6253
G1 X137.06 Y111.3 E43.6253
G1 X136.69 Y111.62 E43.6253
G1 X135.44 Y112.84 E43.6253
;
; 'Loop', 161.0 [RPM], 80.7 [mm/s]
G1 F15000
G1 X135.45 Y112.85 E43.6253
G1 F4840.8
G1 X136.59 Y111.77 E43.6905
G1 X136.59 Y113.99 E43.7827
G1 X136.52 Y114.31 E43.7966
G1 X136.46 Y114.39 E43.8006
G1 X135.77 Y114.4 E43.8292
G1 X135.68 Y114.49 E43.8344
G1 X135.33 Y114.5 E43.8489
;
; 'Wipe', 0.0 [RPM], 67.5 [mm/s]
G1 F15000
G1 X135.33 Y114.5 E43.8489
G1 F4050
G1 X135.68 Y114.49 E43.8489
G1 X135.77 Y114.4 E43.8489
G1 X136.46 Y114.39 E43.8489
G1 X136.52 Y114.31 E43.8489
G1 X136.59 Y113.99 E43.8489
G1 X136.59 Y111.77 E43.8489
G1 X135.45 Y112.85 E43.8489
;
; 'Stacked Sparse Infill', 180.0 [RPM], 90.2 [mm/s]
G1 F15000
G1 X134.96 Y115 E43.8489
G1 F5411.9
G1 X134.81 Y115.14 E43.8574
G1 X133.54 Y116.42 E43.9323
G1 X133.54 Y113.58 E44.05
G1 X132.26 Y114.86 E44.1249
G1 X132.09 Y114.96 E44.1334
G1 X131.84 Y115 E44.1438
G1 X129.58 Y115 E44.2379
G1 X129.33 Y115.04 E44.2483
G1 X129.15 Y115.14 E44.2569
G1 X127.88 Y116.42 E44.3317
;
; 'Wipe', 0.0 [RPM], 67.5 [mm/s]
G1 F15000
G1 X127.88 Y116.42 E44.3317
G1 F4050
G1 X129.15 Y115.14 E44.3317
G1 X129.33 Y115.04 E44.3317
G1 X129.58 Y115 E44.3317
G1 X131.84 Y115 E44.3317
G1 X132.09 Y114.96 E44.3317
G1 X132.26 Y114.86 E44.3317
G1 X133.54 Y113.58 E44.3317
G1 X133.54 Y116.42 E44.3317
G1 X133.89 Y116.06 E44.3317
; fan off
M107
G1 F210
G1 X133.89 Y116.06 Z0.8 E44.3317
; END_LAYER_OBJECT z=0.60
; Reset extruder pos
G92 E0
; BEGIN_LAYER_OBJECT z=0.80
; fan on
M106
;
; 'Support Interface', 101.0 [RPM], 67.5 [mm/s]
G1 F15000
G1 X111.01 Y115.1 E0
G1 F4050
G1 X113.99 Y118.08 E0.1313
G1 X113.57 Y118.32 E0.1462
G1 X113.76 Y118.55 E0.1555
G1 X113.28 Y118.79 E0.1721
G1 X111.01 Y116.52 E0.2723
G1 X111.01 Y117.93 E0.3164
G1 X113.99 Y120.91 E0.4477
G1 X113.57 Y121.14 E0.4626
G1 X113.76 Y121.38 E0.472
G1 X113.28 Y121.62 E0.4885
G1 X111.01 Y119.34 E0.5887
G1 X111.01 Y120.76 E0.6328
G1 X113.99 Y123.74 E0.7642
;
; 'Wipe', 0.0 [RPM], 67.5 [mm/s]
G1 F15000
G1 X113.99 Y123.74 E0.7642
G1 F4050
G1 X111.01 Y120.76 E0.7642
G1 X111.01 Y119.34 E0.7642
G1 X113.28 Y121.62 E0.7642
G1 X113.76 Y121.38 E0.7642
G1 X113.57 Y121.14 E0.7642
G1 X113.99 Y120.91 E0.7642
;
