; generated by Slic3r 0.9.3 on 2012-11-17 at 23:39:18

; layer_height = 0.25
; perimeters = 2
; solid_layers = 2
; fill_density = 0.15
; perimeter_speed = 85
; infill_speed = 60
; travel_speed = 250
; scale = 1
; nozzle_diameter = 0.35
; filament_diameter = 1.7
; extrusion_multiplier = 1.0
; single wall width = 0.39mm

M104 S185 ; set temperature
;Standard Profile for Series 1. Single Extruder
M104 S185
M301 P24.72 I0.88 D231.1
G28
G1 X120 Y115 Z15 F10000
G92 E0
G1 Y5 Z15 F5000
M109 S185
G1 F100 E50
G92 E0
G1 X50 Z0.3 F10000
; do a little dance on a toothbrush to remove extrusions..  
G90 ; use absolute coordinates
G21 ; set units to millimeters
G92 E0
M82 ; use absolute distances for extrusion
M106 S255
G1 F2400.000 E-3.00000
G92 E0
G1 Z0.250 F15000.000
G1 X109.208 Y102.865
G1 F2400.000 E4.80000
G1 X109.408 Y102.685 F2040.000 E4.81141
G1 X109.818 Y102.365 E4.83345
G1 X110.258 Y102.075 E4.85579
G1 X110.728 Y101.825 E4.87835
G1 X111.208 Y101.605 E4.90073
G1 X111.708 Y101.435 E4.92312
G1 X112.468 Y101.255 E4.95623
G1 X112.998 Y101.185 E4.97889
G1 X137.418 Y101.065 E6.01400
G1 X137.958 Y101.085 E6.03691
G1 X138.498 Y101.155 E6.05999
G1 X139.028 Y101.265 E6.08293
G1 X139.548 Y101.415 E6.10587
G1 X140.048 Y101.615 E6.12870
G1 X140.538 Y101.855 E6.15183
G1 X141.218 Y102.295 E6.18616
G1 X141.838 Y102.815 E6.22046
G1 X142.038 Y103.005 E6.23215
G1 X142.398 Y103.405 E6.25496
G1 X142.868 Y104.065 E6.28931
G1 X148.988 Y114.865 E6.81548
G1 X149.258 Y115.475 E6.84376
G1 X149.368 Y115.785 E6.85770
G1 X149.618 Y116.715 E6.89852
G1 X149.798 Y117.735 E6.94242
G1 X149.908 Y119.065 E6.99899
G1 X149.898 Y119.535 E7.01892
G1 X149.798 Y120.635 E7.06574
G1 X149.618 Y121.665 E7.11006
G1 X149.388 Y122.535 E7.14820
G1 X149.208 Y123.045 E7.17113
G1 X148.858 Y123.775 E7.20544
G1 X148.418 Y124.455 E7.23977
G1 X148.078 Y124.875 E7.26268
G1 X147.698 Y125.265 E7.28576
G1 X147.298 Y125.625 E7.30857
G1 X146.638 Y126.095 E7.34291
G1 X146.168 Y126.355 E7.36568
G1 X145.918 Y126.475 E7.37744
G1 X145.418 Y126.675 E7.40026
G1 X144.908 Y126.835 E7.42292
G1 X144.108 Y126.995 E7.45750
G1 X123.158 Y128.825 E8.34890
G1 X113.018 Y128.805 E8.77871
G1 X112.498 Y128.735 E8.80095
G1 X111.978 Y128.625 E8.82348
G1 X111.478 Y128.475 E8.84561
G1 X110.978 Y128.285 E8.86828
G1 X110.508 Y128.055 E8.89046
G1 X110.058 Y127.785 E8.91270
G1 X109.838 Y127.635 E8.92399
G1 X109.418 Y127.315 E8.94637
G1 X109.028 Y126.955 E8.96887
G1 X108.668 Y126.565 E8.99137
G1 X108.348 Y126.145 E9.01375
G1 X108.058 Y125.705 E9.03609
G1 X107.808 Y125.245 E9.05828
G1 X107.598 Y124.755 E9.08087
G1 X107.428 Y124.255 E9.10326
G1 X107.298 Y123.745 E9.12557
G1 X107.208 Y123.225 E9.14794
G1 X107.178 Y122.965 E9.15903
G1 X107.178 Y107.025 E9.83469
G1 X107.248 Y106.505 E9.85693
G1 X107.348 Y105.995 E9.87896
G1 X107.498 Y105.485 E9.90149
G1 X107.808 Y104.755 E9.93511
G1 X108.198 Y104.065 E9.96871
G1 X108.498 Y103.635 E9.99093
G1 X108.838 Y103.235 E10.01318
G1 X108.927 Y103.141 E10.01865
G1 F2400.000 E7.01865
G92 E0
G1 X114.039 Y116.771 F15000.000
G1 F2400.000 E4.80000
G1 X122.677 Y116.771 F1440.000 E5.24507
G1 X122.677 Y121.954 E5.51211
G1 X114.039 Y121.954 E5.95718
G1 X114.039 Y117.166 E6.20391
G1 X113.555 Y116.287 F15000.000
G1 X123.161 Y116.287 F1440.000 E6.69884
G1 X123.161 Y122.438 E7.01576
G1 X113.555 Y122.438 E7.51069
G1 X113.555 Y116.682 E7.80729
G1 F2400.000 E4.80729
G92 E0
G1 X114.039 Y113.224 F15000.000
G1 F2400.000 E4.80000
G1 X114.039 Y108.046 F1440.000 E5.06680
G1 X122.677 Y108.046 E5.51187
G1 X122.677 Y113.224 E5.77867
G1 X114.433 Y113.224 E6.20342
G1 X113.555 Y113.708 F15000.000
G1 X113.555 Y107.562 F1440.000 E6.52009
G1 X123.161 Y107.562 E7.01502
G1 X123.161 Y113.708 E7.33169
G1 X113.950 Y113.708 E7.80631
G1 F2400.000 E4.80631
G92 E0
G1 X142.985 Y117.767 F15000.000
G1 F2400.000 E4.80000
G1 X143.283 Y117.727 F1440.000 E4.81545
G1 X143.447 Y118.336 E4.84795
G1 X143.521 Y119.193 E4.89225
G1 X143.447 Y120.049 E4.93654
G1 X143.283 Y120.658 E4.96904
G1 X142.985 Y120.618 E4.98450
G1 X142.985 Y118.161 E5.11111
G1 F2400.000 E2.11111
G92 E0
G1 X137.050 Y107.591 F15000.000
G1 F2400.000 E4.80000
G1 X137.050 Y107.598 F2040.000 E4.80033
G1 X137.050 Y107.591 F15000.000
G1 X137.453 Y107.462 F2040.000 E4.82213
G1 X137.050 Y107.591 F15000.000
G1 X137.046 Y107.585 F2040.000 E4.82246
G1 F2400.000 E1.82246
G92 E0
G1 X122.472 Y117.534 F15000.000
G1 F2400.000 E4.80000
G1 X121.914 Y116.976 F1440.000 E4.84145
G1 X121.215 Y116.976 F15000.000
G1 X122.472 Y118.233 F1440.000 E4.93485
G1 X122.472 Y118.932 F15000.000
G1 X120.516 Y116.976 F1440.000 E5.08019
G1 X119.817 Y116.976 F15000.000
G1 X122.472 Y119.632 F1440.000 E5.27747
G1 X122.472 Y120.331 F15000.000
G1 X119.118 Y116.976 F1440.000 E5.52670
G1 X118.418 Y116.976 F15000.000
G1 X122.472 Y121.030 F1440.000 E5.82788
G1 X122.472 Y121.729 F15000.000
G1 X117.719 Y116.976 F1440.000 E6.18100
G1 X117.020 Y116.976 F15000.000
G1 X121.793 Y121.749 F1440.000 E6.53563
G1 X121.094 Y121.749 F15000.000
G1 X116.321 Y116.976 F1440.000 E6.89026
G1 X115.622 Y116.976 F15000.000
G1 X120.395 Y121.749 F1440.000 E7.24489
G1 X119.696 Y121.749 F15000.000
G1 X114.923 Y116.976 F1440.000 E7.59952
G1 X114.244 Y116.997 F15000.000
G1 X118.997 Y121.749 F1440.000 E7.95264
G1 X118.298 Y121.749 F15000.000
G1 X114.244 Y117.696 F1440.000 E8.25382
G1 X114.244 Y118.395 F15000.000
G1 X117.598 Y121.749 F1440.000 E8.50306
G1 X116.899 Y121.749 F15000.000
G1 X114.244 Y119.094 F1440.000 E8.70034
G1 X114.244 Y119.793 F15000.000
G1 X116.200 Y121.749 F1440.000 E8.84569
G1 X115.501 Y121.749 F15000.000
G1 X114.244 Y120.492 F1440.000 E8.93908
G1 X114.244 Y121.191 F15000.000
G1 X114.802 Y121.749 F1440.000 E8.98054
G1 F2400.000 E5.98054
G92 E0
G1 X114.802 Y113.019 F15000.000
G1 F2400.000 E4.80000
G1 X114.244 Y112.461 F1440.000 E4.84144
G1 X114.244 Y111.762 F15000.000
G1 X115.501 Y113.019 F1440.000 E4.93478
G1 X116.200 Y113.019 F15000.000
G1 X114.244 Y111.063 F1440.000 E5.08003
G1 X114.244 Y110.365 F15000.000
G1 X116.898 Y113.019 F1440.000 E5.27718
G1 X117.597 Y113.019 F15000.000
G1 X114.244 Y109.666 F1440.000 E5.52625
G1 X114.244 Y108.967 F15000.000
G1 X118.296 Y113.019 F1440.000 E5.82721
G1 X118.995 Y113.019 F15000.000
G1 X114.244 Y108.268 F1440.000 E6.18008
G1 X114.926 Y108.251 F15000.000
G1 X119.694 Y113.019 F1440.000 E6.53423
G1 X120.393 Y113.019 F15000.000
G1 X115.624 Y108.251 F1440.000 E6.88838
G1 X116.323 Y108.251 F15000.000
G1 X121.092 Y113.019 F1440.000 E7.24253
G1 X121.790 Y113.019 F15000.000
G1 X117.022 Y108.251 F1440.000 E7.59668
G1 X117.721 Y108.251 F15000.000
G1 X122.472 Y113.002 F1440.000 E7.94954
G1 X122.472 Y112.303 F15000.000
G1 X118.420 Y108.251 F1440.000 E8.25050
G1 X119.119 Y108.251 F15000.000
G1 X122.472 Y111.604 F1440.000 E8.49956
G1 X122.472 Y110.905 F15000.000
G1 X119.817 Y108.251 F1440.000 E8.69671
G1 X120.516 Y108.251 F15000.000
G1 X122.472 Y110.206 F1440.000 E8.84196
G1 X122.472 Y109.508 F15000.000
G1 X121.215 Y108.251 F1440.000 E8.93530
G1 X121.914 Y108.251 F15000.000
G1 X122.472 Y108.809 F1440.000 E8.97674
G1 F2400.000 E5.97674
G92 E0
G1 Z0.500 F15000.000
G1 X122.771 Y116.677
G1 F2400.000 E4.80000
G1 X122.771 Y122.048 F1468.536 E5.02768
G1 X113.945 Y122.048 E5.40181
G1 X113.945 Y116.677 E5.62949
G1 X122.377 Y116.677 E5.98691
G1 X123.161 Y116.287 F15000.000
G1 X123.161 Y122.438 F1468.536 E6.24762
G1 X113.555 Y122.438 E6.65478
G1 X113.555 Y116.287 E6.91549
G1 X122.766 Y116.287 E7.30593
G1 F2400.000 E4.30593
G92 E0
G1 X122.771 Y113.318 F15000.000
G1 F2400.000 E4.80000
G1 X113.945 Y113.318 F1468.536 E5.17413
G1 X113.945 Y107.952 E5.40161
G1 X122.771 Y107.952 E5.77574
G1 X122.771 Y112.924 E5.98651
G1 X123.161 Y113.708 F15000.000
G1 X113.555 Y113.708 F1468.536 E6.39366
G1 X113.555 Y107.562 E6.65417
G1 X123.161 Y107.562 E7.06133
G1 X123.161 Y113.313 E7.30513
G1 F2400.000 E4.30513
G92 E0
G1 X142.985 Y117.767 F15000.000
G1 F2400.000 E4.80000
G1 X143.283 Y117.727 F1468.536 E4.81271
G1 X143.447 Y118.336 E4.83945
G1 X143.521 Y119.193 E4.87589
G1 X143.447 Y120.049 E4.91233
G1 X143.283 Y120.658 E4.93906
G1 X142.985 Y120.618 E4.95178
G1 X142.985 Y118.161 E5.05594
G1 F2400.000 E2.05594
G92 E0
G1 X137.972 Y107.547 F15000.000
G1 F2400.000 E4.80000
G1 X138.307 Y107.442 F2080.426 E4.81487
G1 X137.972 Y107.547 F15000.000
G1 X137.972 Y107.547
G1 F2400.000 E1.81487
G92 E0
G1 X122.656 Y116.788 F15000.000
G1 F2400.000 E4.80000
G1 X117.506 Y121.938 F1468.536 E5.12047
G1 X116.932 Y121.938 F15000.000
G1 X122.082 Y116.788 F1468.536 E5.44095
G1 X121.508 Y116.788 F15000.000
G1 X116.358 Y121.938 F1468.536 E5.76142
G1 X115.783 Y121.938 F15000.000
G1 X120.933 Y116.787 F1468.536 E6.08190
G1 X120.358 Y116.788 F15000.000
G1 X115.208 Y121.938 F1468.536 E6.40237
G1 X114.634 Y121.938 F15000.000
G1 X119.784 Y116.788 F1468.536 E6.72284
G1 X119.210 Y116.788 F15000.000
G1 X114.059 Y121.938 F1468.536 E7.04332
G1 X114.055 Y121.367 F15000.000
G1 X118.635 Y116.787 F1468.536 E7.32828
G1 X118.060 Y116.788 F15000.000
G1 X114.055 Y120.793 F1468.536 E7.57750
G1 X114.055 Y120.218 F15000.000
G1 X117.486 Y116.788 F1468.536 E7.79097
G1 X116.912 Y116.788 F15000.000
G1 X114.056 Y119.644 F1468.536 E7.96869
G1 X114.055 Y119.069 F15000.000
G1 X116.336 Y116.787 F1468.536 E8.11065
G1 X115.762 Y116.788 F15000.000
G1 X114.055 Y118.494 F1468.536 E8.21687
G1 X114.055 Y117.920 F15000.000
G1 X115.188 Y116.788 F1468.536 E8.28733
G1 X114.613 Y116.788 F15000.000
G1 X114.056 Y117.346 F1468.536 E8.32205
G1 F2400.000 E5.32205
G92 E0
G1 X118.081 Y121.938 F15000.000
G1 F2400.000 E4.80000
G1 X122.661 Y117.358 F1468.536 E5.08497
G1 X122.661 Y117.933 F15000.000
G1 X118.655 Y121.938 F1468.536 E5.33419
G1 X119.230 Y121.938 F15000.000
G1 X122.661 Y118.507 F1468.536 E5.54766
G1 X122.661 Y119.082 F15000.000
G1 X119.805 Y121.938 F1468.536 E5.72538
G1 X120.379 Y121.938 F15000.000
G1 X122.661 Y119.656 F1468.536 E5.86735
G1 X122.661 Y120.231 F15000.000
G1 X120.954 Y121.938 F1468.536 E5.97357
G1 X121.528 Y121.938 F15000.000
G1 X122.661 Y120.805 F1468.536 E6.04403
G1 X122.661 Y121.380 F15000.000
G1 X122.103 Y121.938 F1468.536 E6.07875
G1 F2400.000 E3.07875
G92 E0
G1 X122.103 Y113.208 F15000.000
G1 F2400.000 E4.80000
G1 X122.661 Y112.650 F1468.536 E4.83471
G1 X122.661 Y112.075 F15000.000
G1 X121.528 Y113.208 F1468.536 E4.90514
G1 X120.954 Y113.208 F15000.000
G1 X122.661 Y111.501 F1468.536 E5.01129
G1 X122.661 Y110.927 F15000.000
G1 X120.380 Y113.208 F1468.536 E5.15318
G1 X119.806 Y113.208 F15000.000
G1 X122.661 Y110.353 F1468.536 E5.33078
G1 X122.661 Y109.778 F15000.000
G1 X119.231 Y113.208 F1468.536 E5.54411
G1 X118.656 Y113.207 F15000.000
G1 X122.660 Y109.204 F1468.536 E5.79317
G1 X122.660 Y108.629 F15000.000
G1 X118.082 Y113.207 F1468.536 E6.07795
G1 X117.508 Y113.207 F15000.000
G1 X122.653 Y108.062 F1468.536 E6.39802
G1 X122.079 Y108.062 F15000.000
G1 X116.934 Y113.208 F1468.536 E6.71810
G1 X116.360 Y113.208 F15000.000
G1 X121.505 Y108.062 F1468.536 E7.03817
G1 X120.931 Y108.062 F15000.000
G1 X115.785 Y113.208 F1468.536 E7.35824
G1 X115.211 Y113.208 F15000.000
G1 X120.356 Y108.062 F1468.536 E7.67831
G1 X119.782 Y108.062 F15000.000
G1 X114.637 Y113.208 F1468.536 E7.99838
G1 X114.063 Y113.208 F15000.000
G1 X119.208 Y108.062 F1468.536 E8.31845
G1 X118.634 Y108.063 F15000.000
G1 X114.056 Y112.641 F1468.536 E8.60323
G1 X114.055 Y112.066 F15000.000
G1 X118.059 Y108.062 F1468.536 E8.85228
G1 X117.485 Y108.062 F15000.000
G1 X114.055 Y111.491 F1468.536 E9.06561
G1 X114.055 Y110.917 F15000.000
G1 X116.910 Y108.062 F1468.536 E9.24322
G1 X116.336 Y108.062 F15000.000
G1 X114.055 Y110.343 F1468.536 E9.38510
G1 X114.055 Y109.769 F15000.000
G1 X115.762 Y108.062 F1468.536 E9.49126
G1 X115.188 Y108.062 F15000.000
G1 X114.055 Y109.194 F1468.536 E9.56169
G1 X114.055 Y108.620 F15000.000
G1 X114.613 Y108.062 F1468.536 E9.59640
G1 F2400.000 E6.59640
G92 E0
G1 Z0.750 F15000.000
G1 X113.945 Y116.677
G1 F2400.000 E4.80000
G1 X122.771 Y116.677 F1468.589 E5.17413
G1 X122.771 Y122.048 E5.40181
G1 X113.945 Y122.048 E5.77594
G1 X113.945 Y117.071 E5.98691
G1 X113.555 Y116.287 F15000.000
G1 X123.161 Y116.287 F1468.589 E6.39407
G1 X123.161 Y122.438 E6.65478
G1 X113.555 Y122.438 E7.06194
G1 X113.555 Y116.682 E7.30593
G1 F2400.000 E4.30593
G92 E0
G1 X113.945 Y113.318 F15000.000
G1 F2400.000 E4.80000
G1 X113.945 Y107.952 F1468.589 E5.02748
G1 X122.771 Y107.952 E5.40161
G1 X122.771 Y113.318 E5.62909
G1 X114.339 Y113.318 E5.98651
G1 X113.555 Y113.708 F15000.000
G1 X113.555 Y107.562 F1468.589 E6.24701
G1 X123.161 Y107.562 E6.65417
G1 X123.161 Y113.708 E6.91468
G1 X113.950 Y113.708 E7.30513
G1 F2400.000 E4.30513
G92 E0
G1 X142.985 Y117.767 F15000.000
G1 F2400.000 E4.80000
G1 X143.283 Y117.727 F1468.589 E4.81271
G1 X143.447 Y118.336 E4.83945
G1 X143.521 Y119.193 E4.87589
G1 X143.447 Y120.049 E4.91233
G1 X143.283 Y120.658 E4.93906
G1 X142.985 Y120.618 E4.95178
G1 X142.985 Y118.161 E5.05594
G1 F2400.000 E2.05594
G92 E0
G1 X138.741 Y107.551 F15000.000
G1 F2400.000 E4.80000
G1 X139.096 Y107.443 F2080.502 E4.81571
G1 X138.741 Y107.551 F15000.000
G1 X138.741 Y107.551 F2080.502 E4.81571
G1 F2400.000 E1.81571
G92 E0
G1 X122.661 Y117.346 F15000.000
G1 F2400.000 E4.80000
G1 X122.103 Y116.788 F1468.589 E4.83471
G1 X121.528 Y116.788 F15000.000
G1 X122.661 Y117.920 F1468.589 E4.90518
G1 X122.661 Y118.495 F15000.000
G1 X120.954 Y116.788 F1468.589 E5.01139
G1 X120.379 Y116.788 F15000.000
G1 X122.661 Y119.069 F1468.589 E5.15336
G1 X122.661 Y119.644 F15000.000
G1 X119.805 Y116.788 F1468.589 E5.33108
G1 X119.230 Y116.788 F15000.000
G1 X122.661 Y120.218 F1468.589 E5.54455
G1 X122.661 Y120.793 F15000.000
G1 X118.655 Y116.788 F1468.589 E5.79376
G1 X118.081 Y116.788 F15000.000
G1 X122.661 Y121.367 F1468.589 E6.07873
G1 X122.657 Y121.938 F15000.000
G1 X117.506 Y116.788 F1468.589 E6.39920
G1 X116.932 Y116.788 F15000.000
G1 X122.082 Y121.938 F1468.589 E6.71968
G1 X121.508 Y121.938 F15000.000
G1 X116.357 Y116.788 F1468.589 E7.04015
G1 X115.783 Y116.788 F15000.000
G1 X120.933 Y121.938 F1468.589 E7.36062
G1 X120.359 Y121.938 F15000.000
G1 X115.208 Y116.788 F1468.589 E7.68109
G1 X114.634 Y116.788 F15000.000
G1 X119.784 Y121.938 F1468.589 E8.00157
G1 X119.210 Y121.938 F15000.000
G1 X114.059 Y116.788 F1468.589 E8.32204
G1 X114.055 Y117.358 F15000.000
G1 X118.635 Y121.938 F1468.589 E8.60701
G1 X118.060 Y121.938 F15000.000
G1 X114.055 Y117.933 F1468.589 E8.85622
G1 X114.055 Y118.507 F15000.000
G1 X117.486 Y121.938 F1468.589 E9.06969
G1 X116.911 Y121.938 F15000.000
G1 X114.055 Y119.082 F1468.589 E9.24741
G1 X114.055 Y119.656 F15000.000
G1 X116.337 Y121.938 F1468.589 E9.38938
G1 X115.762 Y121.938 F15000.000
G1 X114.055 Y120.231 F1468.589 E9.49559
G1 X114.055 Y120.805 F15000.000
G1 X115.188 Y121.938 F1468.589 E9.56606
G1 X114.613 Y121.938 F15000.000
G1 X114.055 Y121.380 F1468.589 E9.60078
G1 F2400.000 E6.60078
G92 E0
G1 X114.613 Y113.208 F15000.000
G1 F2400.000 E4.80000
G1 X114.055 Y112.650 F1468.589 E4.83471
G1 X114.055 Y112.075 F15000.000
G1 X115.188 Y113.208 F1468.589 E4.90514
G1 X115.762 Y113.208 F15000.000
G1 X114.055 Y111.501 F1468.589 E5.01129
G1 X114.055 Y110.927 F15000.000
G1 X116.336 Y113.208 F1468.589 E5.15317
G1 X116.911 Y113.208 F15000.000
G1 X114.055 Y110.352 F1468.589 E5.33077
G1 X114.055 Y109.778 F15000.000
G1 X117.485 Y113.208 F1468.589 E5.54409
G1 X118.059 Y113.208 F15000.000
G1 X114.055 Y109.204 F1468.589 E5.79315
G1 X114.055 Y108.629 F15000.000
G1 X118.633 Y113.208 F1468.589 E6.07792
G1 X119.208 Y113.208 F15000.000
G1 X114.062 Y108.062 F1468.589 E6.39799
G1 X114.637 Y108.062 F15000.000
G1 X119.782 Y113.208 F1468.589 E6.71805
G1 X120.356 Y113.208 F15000.000
G1 X115.211 Y108.062 F1468.589 E7.03812
G1 X115.785 Y108.062 F15000.000
G1 X120.931 Y113.208 F1468.589 E7.35820
G1 X121.505 Y113.208 F15000.000
G1 X116.360 Y108.062 F1468.589 E7.67827
G1 X116.934 Y108.062 F15000.000
G1 X122.079 Y113.208 F1468.589 E7.99834
G1 X122.654 Y113.208 F15000.000
G1 X117.508 Y108.062 F1468.589 E8.31841
G1 X118.082 Y108.062 F15000.000
G1 X122.661 Y112.640 F1468.589 E8.60318
G1 X122.661 Y112.066 F15000.000
G1 X118.657 Y108.062 F1468.589 E8.85224
G1 X119.231 Y108.062 F15000.000
G1 X122.661 Y111.492 F1468.589 E9.06556
