; generated by Slic3r 0.9.3 on 2012-11-17 at 22:05:24

; layer_height = 0.25
; perimeters = 2
; solid_layers = 2
; fill_density = 1
; perimeter_speed = 85
; infill_speed = 60
; travel_speed = 250
; scale = 1
; nozzle_diameter = 0.35
; filament_diameter = 1.7
; extrusion_multiplier = 1.0
; single wall width = 0.39mm

M104 S185 ; set temperature
;Standard Profile for Series 1. Single Extruder
M104 S185
M301 P24.72 I0.88 D231.1
G28
G1 X120 Y115 Z15 F10000
G92 E0
G1 Y5 Z15 F5000
M109 S185
G1 F100 E50
G92 E0
G1 X50 Z0.3 F10000
; do a little dance on a toothbrush to remove extrusions..  
G90 ; use absolute coordinates
G21 ; set units to millimeters
G92 E0
M82 ; use absolute distances for extrusion
M106 S255
G1 F6000.000 E-3.00000
G92 E0
G1 Z0.250 F15000.000
G1 X131.418 Y113.875
G1 F6000.000 E3.00000
G1 X131.708 Y113.155 F600.000 E3.03290
G1 X132.078 Y112.485 E3.06534
G1 X132.218 Y112.265 E3.07640
G1 X132.368 Y112.055 E3.08734
G1 X132.528 Y111.855 E3.09819
G1 X133.048 Y111.285 E3.13090
G1 X133.638 Y110.785 E3.16368
G1 X134.058 Y110.495 E3.18531
G1 X134.498 Y110.235 E3.20698
G1 X135.208 Y109.915 E3.23999
G1 X135.938 Y109.685 E3.27243
G1 X136.058 Y109.655 E3.27767
G1 X136.778 Y109.515 E3.30876
G1 X137.468 Y109.425 E3.33826
G1 X138.238 Y109.375 E3.37096
G1 X138.498 Y109.375 E3.38199
G1 X139.268 Y109.445 E3.41476
G1 X139.778 Y109.545 E3.43679
G1 X140.268 Y109.685 E3.45839
G1 X140.758 Y109.865 E3.48052
G1 X141.448 Y110.205 E3.51312
G1 X141.888 Y110.475 E3.53500
G1 X142.098 Y110.625 E3.54594
G1 X142.688 Y111.125 E3.57872
G1 X142.878 Y111.305 E3.58982
G1 X143.218 Y111.685 E3.61143
G1 X143.378 Y111.885 E3.62229
G1 X143.678 Y112.315 E3.64451
G1 X143.938 Y112.755 E3.66617
G1 X144.258 Y113.455 E3.69880
G1 X144.428 Y113.945 E3.72078
G1 X144.598 Y114.695 E3.75338
G1 X144.668 Y115.215 E3.77562
G1 X144.688 Y115.985 E3.80827
G1 X144.648 Y116.495 E3.82995
G1 X144.568 Y117.005 E3.85184
G1 X144.448 Y117.505 E3.87363
G1 X144.288 Y117.995 E3.89548
G1 X144.088 Y118.475 E3.91752
G1 X143.718 Y119.155 E3.95034
G1 X143.268 Y119.785 E3.98315
G1 X142.748 Y120.355 E4.01586
G1 X142.368 Y120.695 E4.03747
G1 X141.738 Y121.145 E4.07029
G1 X141.518 Y121.285 E4.08134
G1 X141.068 Y121.525 E4.10296
G1 X140.828 Y121.635 E4.11415
G1 X140.098 Y121.895 E4.14700
G1 X139.598 Y122.025 E4.16890
G1 X138.628 Y122.185 E4.21057
G1 X137.578 Y122.275 E4.25524
G1 X136.978 Y122.255 E4.28068
G1 X136.468 Y122.195 E4.30245
G1 X135.708 Y122.025 E4.33546
G1 X135.228 Y121.865 E4.35691
G1 X134.518 Y121.545 E4.38992
G1 X134.298 Y121.425 E4.40054
G1 X133.858 Y121.145 E4.42265
G1 X133.448 Y120.835 E4.44443
G1 X133.258 Y120.675 E4.45496
G1 X132.708 Y120.125 E4.48793
G1 X132.538 Y119.935 E4.49874
G1 X132.088 Y119.305 E4.53156
G1 X131.718 Y118.635 E4.56400
G1 X131.428 Y117.915 E4.59690
G1 X131.228 Y117.175 E4.62939
G1 X131.178 Y116.925 E4.64020
G1 X131.118 Y116.415 E4.66197
G1 X131.098 Y115.895 E4.68402
G1 X131.118 Y115.385 E4.70566
G1 X131.178 Y114.875 E4.72743
G1 X131.278 Y114.365 E4.74945
G1 X131.310 Y114.254 E4.75434
G1 F6000.000 E1.75434
G92 E0
G1 X137.761 Y115.864 F15000.000
G1 F6000.000 E3.00000
G1 X138.299 Y115.773 F600.000 E3.02312
G1 X137.761 Y115.864 F15000.000
G1 X137.615 Y115.864 F600.000 E3.02934
G1 X137.584 Y115.887 E3.03095
G1 X137.497 Y115.887 E3.03466
G1 F6000.000 E0.03466
G92 E0
G1 Z0.500 F15000.000
G1 X137.953 Y115.932
G1 F6000.000 E3.00000
G1 X139.076 Y115.796 F600.000 E3.04796
G1 X137.953 Y115.932 F15000.000
G1 X137.579 Y115.979 F600.000 E3.06393
G1 X137.545 Y116.000 E3.06564
G1 F6000.000 E0.06564
G92 E0
G1 Z0.750 F15000.000
G1 X138.719 Y115.926
G1 F6000.000 E3.00000
G1 X139.868 Y115.794 F600.000 E3.04904
G1 X138.719 Y115.926 F15000.000
G1 X137.598 Y115.998 F600.000 E3.09664
G1 X137.652 Y116.037 F15000.000
G1 X137.588 Y116.136 F600.000 E3.10163
G1 X137.545 Y116.164 E3.10382
G1 F6000.000 E0.10382
G92 E0
G1 Z1.000 F15000.000
G1 X137.717 Y116.111
G1 F6000.000 E3.00000
G1 X140.668 Y115.771 F600.000 E3.12589
G1 F6000.000 E0.12589
G92 E0
G1 X137.642 Y116.022 F15000.000
G1 F6000.000 E3.00000
G1 X137.717 Y116.111 F600.000 E3.00492
G1 X137.540 Y116.314 E3.01635
G1 X137.642 Y116.022 F15000.000
G1 X137.590 Y115.992 F600.000 E3.01889
G1 F6000.000 E0.01889
G92 E0
G1 Z1.250 F15000.000
G1 X137.648 Y116.030
G1 F6000.000 E3.00000
G1 X137.740 Y116.135 F600.000 E3.00592
G1 X140.933 Y115.771 E3.14215
G1 F6000.000 E0.14215
G92 E0
G1 X137.740 Y116.135 F15000.000
G1 F6000.000 E3.00000
G1 X137.738 Y116.138 F600.000 E3.00015
G1 X137.694 Y116.176 E3.00264
G1 X137.587 Y116.327 E3.01048
G1 X137.556 Y116.346 E3.01203
G1 X137.648 Y116.030 F15000.000
G1 X137.605 Y116.005 F600.000 E3.01413
G1 F6000.000 E0.01413
G92 E0
G1 Z1.500 F15000.000
G1 X138.137 Y116.030
G1 F6000.000 E3.00000
G1 X140.241 Y115.793 F600.000 E3.08976
G1 F6000.000 E0.08976
G92 E0
G1 X138.137 Y116.030 F15000.000
G1 F6000.000 E3.00000
G1 X137.754 Y116.073 F600.000 E3.01632
G1 X137.681 Y116.073 E3.01941
G1 X137.630 Y116.024 F15000.000
G1 X137.681 Y116.073 F600.000 E3.02239
G1 X137.587 Y116.198 E3.02905
G1 X137.572 Y116.207 E3.02979
G1 F6000.000 E0.02979
G92 E0
G1 Z1.750 F15000.000
G1 X137.522 Y116.124
G1 F6000.000 E3.00000
G1 X137.626 Y116.010 F600.000 E3.00656
G1 X137.571 Y115.974 E3.00934
G1 X137.626 Y116.010 F15000.000
G1 X137.643 Y116.003 F600.000 E3.01010
G1 X137.777 Y116.003 E3.01579
G1 X138.755 Y115.888 E3.05752
G1 X139.537 Y115.796 E3.09091
G1 F6000.000 E0.09091
G92 E0
G1 Z2.000 F15000.000
G1 X138.128 Y115.892
G1 F6000.000 E3.00000
G1 X138.835 Y115.761 F600.000 E3.03046
G1 X138.128 Y115.892 F15000.000
G1 X137.578 Y115.955 F600.000 E3.05393
G1 X137.555 Y115.954 E3.05492
G1 X137.523 Y115.976 E3.05657
G1 F6000.000 E0.05657
G92 E0
G1 Z2.250 F15000.000
G1 X137.806 Y115.822
G1 F6000.000 E3.00000
G1 X138.157 Y115.798 F600.000 E3.01494
G1 X137.806 Y115.822 F15000.000
G1 X137.601 Y115.871 F600.000 E3.02387
G1 X137.486 Y115.871 E3.02871
G1 F6000.000 E0.02871
G92 E0
G1 Z2.500 F15000.000
G1 X141.323 Y114.217
G1 F6000.000 E3.00000
G1 X144.611 Y114.185 F600.000 E3.13938
G1 F6000.000 E0.13938
G92 E0
G1 X141.323 Y114.217 F15000.000
G1 F6000.000 E3.00000
G1 X140.359 Y114.237 F600.000 E3.04088
G1 X139.195 Y114.231 E3.09020
G1 X139.002 Y114.232 E3.09840
G1 X138.616 Y114.249 E3.11475
G1 F6000.000 E0.11475
G92 E0
G1 Z2.750 F15000.000
G1 Z3.000
G1 X123.239 Y119.451
G1 F6000.000 E3.00000
G1 X123.121 Y116.300 F600.000 E3.13366
G1 F6000.000 E0.13366
G92 E0
G1 X123.239 Y119.451 F15000.000
G1 F6000.000 E3.00000
G1 X123.344 Y122.346 F600.000 E3.12280
G1 X123.351 Y122.347 E3.12309
G1 F6000.000 E0.12309
G92 E0
G1 Z3.250 F15000.000
G1 X123.146 Y119.242
G1 F6000.000 E3.00000
G1 X122.981 Y116.463 F600.000 E3.11801
G1 X122.798 Y116.292 E3.12865
G1 X122.981 Y116.463 F15000.000
G1 X123.082 Y116.379 F600.000 E3.13420
G1 X123.118 Y116.320 E3.13715
G1 F6000.000 E0.13715
G92 E0
G1 X123.146 Y119.242 F15000.000
G1 F6000.000 E3.00000
G1 X123.323 Y122.151 F600.000 E3.12354
G1 X123.334 Y122.345 E3.13177
G1 F6000.000 E0.13177
G92 E0
G1 X142.970 Y112.068 F15000.000
G1 F6000.000 E3.00000
G1 X142.917 Y111.900 F600.000 E3.00746
G1 X142.866 Y111.735 E3.01482
G1 F6000.000 E0.01482
G92 E0
G1 Z3.500 F15000.000
G1 X123.283 Y121.762
G1 F6000.000 E3.00000
G1 X123.040 Y118.907 F600.000 E3.12144
G1 X122.946 Y118.825 E3.12674
G1 X123.040 Y118.907 F15000.000
G1 X123.100 Y118.849 F600.000 E3.13026
G1 X123.118 Y118.810 E3.13211
G1 F6000.000 E0.13211
G92 E0
G1 X123.283 Y121.762 F15000.000
G1 F6000.000 E3.00000
G1 X123.300 Y121.956 F600.000 E3.00826
G1 X123.333 Y122.344 E3.02478
G1 F6000.000 E0.02478
G92 E0
G1 X143.911 Y112.421 F15000.000
G1 F6000.000 E3.00000
G1 X143.927 Y112.388 F600.000 E3.00157
G1 X143.993 Y112.324 E3.00547
G1 X144.088 Y112.409 F15000.000
G1 X143.993 Y112.324 F600.000 E3.01087
G1 X143.902 Y111.024 E3.06611
G1 X143.902 Y111.024 E3.06611
G1 X143.820 Y109.854 E3.11579
G1 X143.724 Y108.490 E3.17375
G1 X143.697 Y108.101 E3.19031
G1 X143.683 Y107.906 E3.19859
G1 X143.683 Y107.906 F15000.000
G1 F6000.000 E0.19859
G92 E0
G1 Z3.750 F15000.000
G1 X123.283 Y121.752
G1 F6000.000 E3.00000
G1 X123.333 Y122.341 F600.000 E3.02503
G1 X123.283 Y121.752 F15000.000
G1 X123.267 Y121.556 F600.000 E3.03338
G1 X123.184 Y120.575 E3.07510
G1 X123.068 Y119.202 E3.13352
G1 X123.051 Y119.006 E3.14186
G1 X123.039 Y118.865 E3.14784
G1 X122.972 Y118.821 F15000.000
G1 X123.039 Y118.865 F600.000 E3.15126
G1 X123.118 Y118.767 E3.15659
G1 X122.972 Y118.821 F15000.000
G1 X122.945 Y118.782 F600.000 E3.15859
G1 F6000.000 E0.15859
G92 E0
G1 Z4.000 F15000.000
G1 X120.459 Y119.249
G1 F6000.000 E3.00000
G1 X120.626 Y122.347 F600.000 E3.13147
G1 F6000.000 E0.13147
G92 E0
G1 X120.459 Y119.249 F15000.000
G1 F6000.000 E3.00000
G1 X120.321 Y116.412 F600.000 E3.12042
G1 X120.217 Y116.308 E3.12664
G1 X120.321 Y116.412 F15000.000
G1 X120.358 Y116.379 F600.000 E3.12875
G1 X120.385 Y116.333 E3.13102
G1 F6000.000 E0.13102
G92 E0
G1 Z4.250 F15000.000
G1 X120.393 Y121.988
G1 F6000.000 E3.00000
G1 X120.189 Y120.373 F600.000 E3.06899
G1 X120.098 Y120.301 E3.07392
G1 X120.189 Y120.373 F15000.000
G1 X120.241 Y120.322 F600.000 E3.07699
G1 X120.259 Y120.280 E3.07893
G1 X120.393 Y121.988 F15000.000
G1 X120.440 Y122.358 F600.000 E3.09474
G1 F6000.000 E0.09474
G92 E0
G1 Z4.500 F15000.000
G1 X120.235 Y121.820
G1 F6000.000 E3.00000
G1 X120.346 Y122.364 F600.000 E3.02351
G1 X120.235 Y121.820 F15000.000
G1 X120.139 Y121.467 F600.000 E3.03901
G1 X120.164 Y121.470 F15000.000
G1 X120.185 Y121.458 F600.000 E3.04006
G1 F6000.000 E0.04006
G92 E0
G1 Z4.750 F15000.000
G1 X120.301 Y122.346
G1 F6000.000 E3.00000
G1 X120.336 Y122.529 F600.000 E3.00792
G1 X120.301 Y122.346 F15000.000
G1 X120.293 Y122.340 F600.000 E3.00834
G1 X120.200 Y121.966 E3.02468
G1 X120.197 Y121.922 E3.02657
G1 F6000.000 E0.02657
G92 E0
G1 Z5.000 F15000.000
G1 X120.304 Y122.191
G1 F6000.000 E3.00000
G1 X120.290 Y122.150 F600.000 E3.00183
G1 X120.304 Y122.191 F15000.000
G1 X120.366 Y122.369 F600.000 E3.00980
G1 F6000.000 E0.00980
G92 E0
G1 Z5.250 F15000.000
G1 Z5.500
G1 Z5.750
G1 Z6.000
G1 Z6.250
G1 Z6.500
M107
G1 Y230 F10000 ; move to the back of the platform
M104 S0 ; turn off temperature
M84     ; disable motors
; filament used = 1.3mm (0.0cm3)
