; KISSlicer - FREE
; Linux
; version 1.0.9.7
; Built: Jun 12 2012, 22:45:36
;
; Saved: Sat Nov 17 20:40:38 2012
; 'footbroken_kiss.gcode'
;
; *** Printer Settings ***
;
; printer_name = Series
; extension = gco
; cost_per_hour = 0
; g_code_prefix = 4D333031205032342E37322049302E383820443233312E310A473238200A473020583132302059313135205A3135204631303030300A4739322045300A4731205935205A31352046353030300A4D31303920533138350A47312046313030204535300A4739322045300A473120583530205A302E3320463130303030
; g_code_postfix = 47312059323330204631303030300A4739322045300A473120452D31300A4D3130370A4D3130342053300A4731205A323330204631303030300A4D3834204520582059
; g_code_ext_change = NULL
; post_process = NULL
; num_extruders = 1
; firmware_type = 2
; M104_M109 = 0
; add_comments = 1
; z_speed_mm_per_s = 3.5
; z_settle_mm = 0
; bed_size_x_mm = 260
; bed_size_y_mm = 230
; bed_size_z_mm = 230
; bed_offset_x_mm = 130
; bed_offset_y_mm = 115
; bed_offset_z_mm = 0
; bed_roughness_mm = 0
; travel_speed_mm_per_s = 250
; first_layer_speed_mm_per_s = 25
; lo_speed_perim_mm_per_s = 45
; lo_speed_solid_mm_per_s = 45
; lo_speed_sparse_mm_per_s = 90
; hi_speed_perim_mm_per_s = 180
; hi_speed_solid_mm_per_s = 90
; hi_speed_sparse_mm_per_s = 180
; ext_mm_per_rev_1 = 1.25
; ext_material_1 = 2
; ext_axis_1 = 0
; ext_mm_per_rev_2 = 1.25
; ext_material_2 = 0
; ext_axis_2 = 0
; ext_mm_per_rev_3 = 1.25
; ext_material_3 = 0
; ext_axis_3 = 0
; model_ext = 0
; support_ext = 0
; support_body_ext = 0
; raft_ext = 0
; solid_loop_overlap_fraction = 0.25
;
; *** Material Settings for Extruder 1 ***
;
; material_name = PLA
; fan_off_ISOs_all = 2
; temperature_C = 160
; keep_warm_C = 159
; first_layer_C = 185
; bed_C = 81
; sec_per_C_per_C = 0
; RPM_min = 3
; RPM_max = 180
; destring_suck = 1
; destring_prime = 1
; destring_min_mm = 0
; destring_speed_mm_per_s = 15
; min_layer_time_s = 12
; wipe_mm = 5
; cost_per_cm3 = 0
; flowrate_tweak = 1
; fiber_dia_mm = 1.75
; color = 0
;
; *** Style Settings ***
;
; style_name = Draft
; layer_thickness_mm = 0.3
; extrusion_width_mm = 0.5
; num_loops = 2
; skin_thickness_mm = 1
; infill_extrusion_width = 0.5
; infill_density_denominator = 0
; stacked_layers = 1
; use_destring = 0
; loops_insideout = 1
; round_infill = 1
;
; *** Actual Slicing Settings As Used ***
;
; layer_thickness_mm = 0.3
; extrusion_width = 0.5
; num_ISOs = 2
; wall_thickness = 1
; infill_style = 1
; support_style = 0
; support_angle = 90
; destring_min_mm = 0
; stacked_infill_layers = 1
; ISO_wipe_mm = 10
; raft_style = 0
; extra_raft_depth = 0
; oversample_res_mm = 0.125
; crowning_threshold_mm = 1
; loops_insideout = 1
; sheathed_support = 0
; solid_loop_overlap_fraction = 0.25
; inflate_raft_mm = 0
; inflate_support_mm = 2
; model_support_gap_mm = 0.5
; round_infill = 1
; Speed vs Quality = 0.50
;
; *** Header ***
;
; fan off
M107
; [mm] mode
G21
; absolute mode
G90
; *** User-Supplied G-code Prefix ***
;
M301 P24.72 I0.88 D231.1
G28 
G0 X120 Y115 Z15 F10000
G92 E0
G1 Y5 Z15 F5000
M109 S185
G1 F100 E50
G92 E0
G1 X50 Z0.3 F10000
;
; *** Main G-code ***
;
; Reset extruder pos
G92 E0
; BEGIN_LAYER_OBJECT z=0.30
;
; *** Warming Extruder 1 to 185 C ***
M104 S185
G92 E0
;
;
; 'Loop', 74.8 [RPM], 25.0 [mm/s]
G1 F15000
G1 X115.4 Y123.74 Z0.3 E0
G1 F1500
G1 X115.5 Y123.65 E0.0078
G1 X115.52 Y123.5 E0.0175
G1 X115.88 Y123.5 E0.0396
G1 X116.28 Y123.41 E0.0658
G1 X116.32 Y123.41 E0.0678
G1 X137.53 Y123.41 E1.3907
G1 X137.66 Y123.42 E1.399
G1 X137.94 Y123.5 E1.417
G1 X138.15 Y123.51 E1.4302
G1 X138.32 Y123.65 E1.4439
G1 X138.33 Y124.17 E1.4762
G1 X138.42 Y124.26 E1.484
G1 X138.42 Y124.66 E1.509
;
; 'Wipe', 0.0 [RPM], 25.0 [mm/s]
G1 F15000
G1 X138.42 Y124.66 E1.509
G1 F1500
G1 X138.42 Y124.26 E1.509
G1 X138.33 Y124.17 E1.509
G1 X138.32 Y123.65 E1.509
G1 X138.15 Y123.51 E1.509
G1 X137.94 Y123.5 E1.509
G1 X137.53 Y123.41 E1.509
G1 X133.82 Y123.41 E1.509
G1 X129.4 Y123.41 E1.509
;
; 'Perimeter', 74.8 [RPM], 25.0 [mm/s]
G1 F15000
G1 X115.59 Y123.05 E1.509
G1 F1500
G1 X115.57 Y123.2 E1.5186
G1 X115.48 Y123.28 E1.5264
G1 X115.47 Y123.63 E1.5479
G1 X115.38 Y123.72 E1.5557
G1 X115.38 Y124.07 E1.5776
G1 X115.29 Y124.16 E1.5854
G1 X115.29 Y124.51 E1.6074
G1 X115.2 Y124.6 E1.6152
;
; 'Wipe', 0.0 [RPM], 25.0 [mm/s]
G1 F15000
G1 X115.2 Y124.6 E1.6152
G1 F1500
G1 X115.29 Y124.51 E1.6152
G1 X115.29 Y124.16 E1.6152
G1 X115.38 Y124.07 E1.6152
G1 X115.38 Y123.72 E1.6152
G1 X115.47 Y123.63 E1.6152
G1 X115.48 Y123.28 E1.6152
G1 X115.57 Y123.2 E1.6152
G1 X115.59 Y123.05 E1.6152
;
; 'Perimeter', 74.8 [RPM], 25.0 [mm/s]
G1 F15000
G1 X116.79 Y121.98 E1.6152
G1 F1500
G1 X116.94 Y122.27 E1.6357
G1 X116.8 Y122.31 E1.6448
G1 X116.51 Y122.3 E1.6626
G1 X116.39 Y122.24 E1.6709
G1 X116.39 Y107.76 E2.5741
G1 X116.45 Y107.64 E2.5823
G1 X116.81 Y107.64 E2.6044
G1 X116.96 Y107.8 E2.618
G1 X116.96 Y122.11 E3.511
G1 X116.94 Y122.27 E3.5209
G1 X116.64 Y122.14 E3.5414
;
; 'Wipe', 0.0 [RPM], 25.0 [mm/s]
G1 F15000
G1 X116.64 Y122.14 E3.5414
G1 F1500
G1 X116.94 Y122.27 E3.5414
G1 X116.96 Y122.11 E3.5414
G1 X116.96 Y112.57 E3.5414
;
; 'Perimeter', 74.8 [RPM], 25.0 [mm/s]
G1 F15000
G1 X125.65 Y115.01 E3.5414
G1 F1500
G1 X125.86 Y115.28 E3.5631
G1 X125.82 Y115.29 E3.5655
G1 X125.63 Y115.05 E3.5842
G1 X125.64 Y114.94 E3.5912
G1 X125.82 Y114.71 E3.6095
G1 X125.86 Y114.72 E3.6119
G1 X125.86 Y114.89 E3.6228
G1 X125.96 Y114.98 E3.6306
G1 X125.96 Y115.02 E3.6334
G1 X125.86 Y115.11 E3.6412
G1 X125.86 Y115.28 E3.652
G1 X125.54 Y115.15 E3.6737
;
; 'Wipe', 0.0 [RPM], 25.0 [mm/s]
G1 F15000
G1 X125.54 Y115.15 E3.6737
G1 F1500
G1 X125.86 Y115.28 E3.6737
G1 X125.86 Y115.11 E3.6737
G1 X125.96 Y115.02 E3.6737
G1 X125.96 Y114.98 E3.6737
G1 X125.86 Y114.89 E3.6737
G1 X125.86 Y114.72 E3.6737
G1 X125.82 Y114.71 E3.6737
G1 X125.64 Y114.94 E3.6737
G1 X125.63 Y115.05 E3.6737
G1 X125.82 Y115.29 E3.6737
G1 X125.86 Y115.28 E3.6737
G1 X125.65 Y115.01 E3.6737
;
; 'Loop', 74.8 [RPM], 25.0 [mm/s]
G1 F15000
G1 X136.58 Y110.09 E3.6737
G1 F1500
G1 X126.07 Y110.09 E4.3287
G1 X125.7 Y110.11 E4.352
G1 X125.41 Y110.23 E4.3717
G1 X125.23 Y110.41 E4.3873
G1 X125.12 Y110.65 E4.4038
G1 X125.08 Y110.97 E4.4237
G1 X125.08 Y113.26 E4.5669
G1 X125.07 Y113.43 E4.5774
G1 X124.83 Y113.55 E4.5939
G1 X124.63 Y113.7 E4.6096
G1 X124.49 Y113.91 E4.6254
G1 X124.41 Y114.23 E4.6461
G1 X124.41 Y121.6 E5.1061
G1 X124.32 Y121.69 E5.1139
G1 X118.18 Y121.69 E5.4969
G1 X118.13 Y121.56 E5.5056
G1 X118.13 Y108.26 E6.3351
G1 X118.19 Y108.14 E6.3433
G1 X136.5 Y108.14 E7.4851
G1 X136.58 Y108.24 E7.493
G1 X136.58 Y110.09 E7.6079
;
; 'Wipe', 0.0 [RPM], 25.0 [mm/s]
G1 F15000
G1 X136.58 Y110.09 E7.6079
G1 F1500
G1 X136.58 Y108.24 E7.6079
G1 X136.5 Y108.14 E7.6079
G1 X128.45 Y108.14 E7.6079
;
; 'Perimeter', 74.8 [RPM], 25.0 [mm/s]
G1 F15000
G1 X136.91 Y110.29 E7.6079
G1 F1500
G1 X137.08 Y110.59 E7.6297
G1 X126.1 Y110.59 E8.3147
G1 X125.78 Y110.6 E8.3346
G1 X125.67 Y110.67 E8.3426
G1 X125.59 Y110.92 E8.359
G1 X125.59 Y111.1 E8.3704
G1 X125.59 Y113.77 E8.5367
G1 X125.55 Y113.91 E8.5455
G1 X125.2 Y113.91 E8.5671
G1 X124.99 Y114.05 E8.5831
G1 X124.91 Y114.26 E8.5966
G1 X124.91 Y122.04 E9.0817
G1 X124.91 Y122.11 E9.0862
G1 X124.82 Y122.2 E9.094
G1 X117.68 Y122.2 E9.5396
G1 X117.62 Y122.07 E9.5481
G1 X117.62 Y107.75 E10.4412
G1 X117.69 Y107.64 E10.4492
G1 X137.01 Y107.64 E11.6538
G1 X137.08 Y107.74 E11.6616
G1 X137.08 Y110.59 E11.8396
G1 X136.78 Y110.41 E11.8614
;
; 'Wipe', 0.0 [RPM], 25.0 [mm/s]
G1 F15000
G1 X136.78 Y110.41 E11.8614
G1 F1500
G1 X137.08 Y110.59 E11.8614
G1 X137.08 Y107.74 E11.8614
G1 X137.01 Y107.64 E11.8614
G1 X130.29 Y107.64 E11.8614
;
; 'Loop', 74.8 [RPM], 25.0 [mm/s]
G1 F15000
G1 X137.05 Y121.69 E11.8614
G1 F1500
G1 X126.14 Y121.69 E12.5418
G1 X126.14 Y119.98 E12.6489
G1 X126.25 Y119.91 E12.657
G1 X136.93 Y119.91 E13.323
G1 X137.06 Y119.96 E13.3315
G1 X137.06 Y121.53 E13.4293
G1 X137.05 Y121.69 E13.4396
;
; 'Perimeter', 74.8 [RPM], 25.0 [mm/s]
G1 F15000
G1 X137.39 Y121.9 E13.4396
G1 F1500
G1 X137.56 Y122.21 E13.4616
G1 X137.37 Y122.19 E13.4737
G1 X125.63 Y122.19 E14.2055
G1 X125.63 Y119.83 E14.3531
G1 X125.89 Y119.55 E14.3765
G1 X126.12 Y119.41 E14.3936
G1 X137.06 Y119.41 E15.0756
G1 X137.29 Y119.55 E15.0927
G1 X137.46 Y119.74 E15.1083
G1 X137.56 Y119.81 E15.1161
G1 X137.56 Y122.21 E15.2655
G1 X137.27 Y122.01 E15.2875
;
; 'Wipe', 0.0 [RPM], 25.0 [mm/s]
G1 F15000
G1 X137.27 Y122.01 E15.2875
G1 F1500
G1 X137.56 Y122.21 E15.2875
G1 X137.56 Y119.81 E15.2875
G1 X137.46 Y119.74 E15.2875
G1 X137.29 Y119.55 E15.2875
G1 X137.06 Y119.41 E15.2875
G1 X130.37 Y119.41 E15.2875
;
; 'Perimeter', 74.8 [RPM], 25.0 [mm/s]
G1 F15000
G1 X115.59 Y123.04 E15.2875
G1 F1500
G1 X115.63 Y123.01 E15.2908
G1 X115.89 Y122.99 E15.3073
G1 X116 Y122.92 E15.3153
G1 X116.15 Y123.02 E15.3261
G1 X116.28 Y123.02 E15.334
G1 X116.43 Y122.91 E15.3459
G1 X137.56 Y122.91 E16.6633
G1 X137.71 Y123.02 E16.6752
G1 X137.85 Y123.03 E16.6839
G1 X137.92 Y122.99 E16.6891
G1 X138.18 Y123 E16.7052
G1 X138.23 Y123.04 E16.7087
G1 X138.25 Y123.54 E16.7402
G1 X138.34 Y123.63 E16.748
G1 X138.35 Y124.16 E16.7808
G1 X138.43 Y124.24 E16.7886
G1 X138.43 Y124.67 E16.8153
;
; 'Wipe', 0.0 [RPM], 25.0 [mm/s]
G1 F15000
G1 X138.43 Y124.67 E16.8153
G1 F1500
G1 X138.43 Y124.24 E16.8153
G1 X138.35 Y124.16 E16.8153
G1 X138.34 Y123.63 E16.8153
G1 X138.25 Y123.54 E16.8153
G1 X138.23 Y123.04 E16.8153
G1 X138.18 Y123 E16.8153
G1 X137.92 Y122.99 E16.8153
G1 X137.85 Y123.03 E16.8153
G1 X137.71 Y123.02 E16.8153
G1 X137.56 Y122.91 E16.8153
G1 X129.96 Y122.91 E16.8153
;
; 'Crown', 74.8 [RPM], 25.0 [mm/s]
G1 F15000
G1 X125.58 Y116.06 E16.8153
G1 F1500
G1 X125.6 Y116.08 E16.8168
G1 X125.6 Y119.05 E17.0021
G1 X125.65 Y119.35 E17.0211
;
; 'Wipe', 0.0 [RPM], 25.0 [mm/s]
G1 F15000
G1 X125.65 Y119.35 E17.0211
G1 F1500
G1 X125.6 Y119.05 E17.0211
G1 X125.6 Y116.08 E17.0211
G1 X125.58 Y116.06 E17.0211
;
; 'Crown', 74.8 [RPM], 25.0 [mm/s]
G1 F15000
G1 X137.54 Y119.36 E17.0211
G1 F1500
G1 X137.59 Y119.23 E17.0296
G1 X137.59 Y119.08 E17.0388
G1 X137.6 Y119.06 E17.0401
G1 X137.6 Y116.06 E17.2275
;
; 'Wipe', 0.0 [RPM], 25.0 [mm/s]
G1 F15000
G1 X137.6 Y116.06 E17.2275
G1 F1500
G1 X137.6 Y119.06 E17.2275
G1 X137.59 Y119.08 E17.2275
G1 X137.59 Y119.23 E17.2275
G1 X137.54 Y119.36 E17.2275
;
; 'Solid', 74.8 [RPM], 25.0 [mm/s]
G1 F15000
G1 X135.76 Y121.26 E17.2275
G1 F1500
G1 X136.55 Y120.47 E17.2969
G1 X135.89 Y120.42 E17.3381
G1 X135.13 Y121.18 E17.4052
G1 X134.42 Y121.18 E17.4493
G1 X135.18 Y120.43 E17.516
G1 X134.47 Y120.43 E17.5601
G1 X133.72 Y121.18 E17.6268
G1 X133.01 Y121.18 E17.6709
G1 X133.77 Y120.43 E17.7376
G1 X133.06 Y120.43 E17.7816
G1 X132.3 Y121.18 E17.8483
G1 X131.6 Y121.18 E17.8924
G1 X132.35 Y120.43 E17.9591
G1 X131.65 Y120.43 E18.0032
G1 X130.89 Y121.18 E18.0699
G1 X130.18 Y121.18 E18.114
G1 X130.94 Y120.43 E18.1807
G1 X130.23 Y120.43 E18.2248
G1 X129.48 Y121.18 E18.2914
G1 X128.77 Y121.18 E18.3355
G1 X129.52 Y120.43 E18.4022
G1 X128.82 Y120.43 E18.4463
G1 X128.06 Y121.18 E18.513
G1 X127.35 Y121.18 E18.5571
G1 X128.11 Y120.43 E18.6238
G1 X127.4 Y120.43 E18.6679
G1 X126.63 Y121.2 E18.7362
;
; 'Solid', 74.8 [RPM], 25.0 [mm/s]
G1 F15000
G1 X123.04 Y121.26 E18.7362
G1 F1500
G1 X123.89 Y120.4 E18.8119
G1 X123.89 Y119.69 E18.856
G1 X122.4 Y121.18 E18.9874
G1 X121.7 Y121.18 E19.0315
G1 X123.89 Y118.98 E19.2253
G1 X123.89 Y118.28 E19.2694
G1 X120.99 Y121.18 E19.5255
G1 X120.28 Y121.18 E19.5696
G1 X123.89 Y117.57 E19.8881
G1 X123.89 Y116.86 E19.9322
G1 X119.58 Y121.18 E20.3131
G1 X118.87 Y121.18 E20.3572
G1 X123.89 Y116.16 E20.8004
G1 X123.89 Y115.45 E20.8445
G1 X118.65 Y120.7 E21.3072
G1 X118.65 Y119.99 E21.3513
G1 X123.89 Y114.75 E21.8135
G1 X123.95 Y113.98 E21.8616
G1 X118.65 Y119.28 E22.3291
G1 X118.65 Y118.57 E22.3732
G1 X124.57 Y112.65 E22.8954
G1 X124.57 Y111.95 E22.9395
G1 X118.65 Y117.87 E23.4616
G1 X118.65 Y117.16 E23.5057
G1 X124.54 Y111.26 E24.0258
G1 X124.74 Y110.36 E24.0835
G1 X118.65 Y116.45 E24.6209
G1 X118.65 Y115.75 E24.665
G1 X125.74 Y108.66 E25.2902
G1 X125.03 Y108.66 E25.3343
G1 X118.65 Y115.04 E25.8972
G1 X118.65 Y114.33 E25.9413
G1 X124.32 Y108.66 E26.4418
G1 X123.62 Y108.66 E26.4859
G1 X118.65 Y113.62 E26.9241
G1 X118.65 Y112.92 E26.9682
G1 X122.91 Y108.66 E27.3439
G1 X122.2 Y108.66 E27.388
G1 X118.65 Y112.21 E27.7015
G1 X118.65 Y111.5 E27.7455
G1 X121.49 Y108.66 E27.9966
G1 X120.79 Y108.66 E28.0407
G1 X118.65 Y110.8 E28.2294
G1 X118.65 Y110.09 E28.2735
G1 X120.08 Y108.66 E28.3998
G1 X119.37 Y108.66 E28.4439
G1 X118.65 Y109.38 E28.5074
G1 X118.69 Y108.63 E28.5537
;
; 'Solid', 74.8 [RPM], 25.0 [mm/s]
G1 F15000
G1 X125.26 Y109.84 E28.5537
G1 F1500
G1 X126.44 Y108.66 E28.658
G1 X127.15 Y108.66 E28.7021
G1 X126.23 Y109.57 E28.783
G1 X126.94 Y109.57 E28.8271
G1 X127.86 Y108.66 E28.9081
G1 X128.57 Y108.66 E28.9521
G1 X127.65 Y109.57 E29.0331
G1 X128.35 Y109.57 E29.0772
G1 X129.27 Y108.66 E29.1581
G1 X129.98 Y108.66 E29.2022
G1 X129.06 Y109.57 E29.2831
G1 X129.77 Y109.57 E29.3272
G1 X130.69 Y108.66 E29.4081
G1 X131.39 Y108.66 E29.4522
G1 X130.48 Y109.57 E29.5331
G1 X131.18 Y109.57 E29.5772
G1 X132.1 Y108.66 E29.6581
G1 X132.81 Y108.66 E29.7022
G1 X131.89 Y109.57 E29.7831
G1 X132.6 Y109.57 E29.8272
G1 X133.51 Y108.66 E29.9082
G1 X134.22 Y108.66 E29.9523
G1 X133.3 Y109.57 E30.0332
G1 X134.01 Y109.57 E30.0773
G1 X134.93 Y108.66 E30.1582
G1 X135.64 Y108.66 E30.2023
G1 X134.72 Y109.57 E30.2832
G1 X135.43 Y109.57 E30.3273
G1 X136.14 Y108.86 E30.3905
;
; 'Wipe', 0.0 [RPM], 25.0 [mm/s]
G1 F15000
G1 X136.14 Y108.86 E30.3905
G1 F1500
G1 X135.43 Y109.57 E30.3905
G1 X134.72 Y109.57 E30.3905
G1 X135.64 Y108.66 E30.3905
G1 X134.93 Y108.66 E30.3905
G1 X134.01 Y109.57 E30.3905
G1 X133.3 Y109.57 E30.3905
G1 X134.22 Y108.66 E30.3905
G1 X133.51 Y108.66 E30.3905
G1 X132.6 Y109.57 E30.3905
G1 X131.89 Y109.57 E30.3905
G1 X132.81 Y108.66 E30.3905
;
; 'Solid', 74.8 [RPM], 25.0 [mm/s]
G1 F15000
G1 X140.68 Y123.41 E30.3905
G1 F1500
G1 X126.87 Y137.22 E31.6081
G1 X127.22 Y137.57 E31.6393
G1 X140.96 Y123.84 E32.8503
G1 X141.66 Y123.84 E32.8944
G1 X127.58 Y137.93 E34.1366
G1 X127.93 Y138.28 E34.1678
G1 X142.45 Y123.77 E35.4478
;
; 'Wipe', 0.0 [RPM], 25.0 [mm/s]
G1 F15000
G1 X142.45 Y123.77 E35.4478
G1 F1500
G1 X127.93 Y138.28 E35.4478
;
; 'Solid', 74.8 [RPM], 25.0 [mm/s]
G1 F15000
G1 X138.56 Y124.83 E35.4478
G1 F1500
G1 X126.52 Y136.87 E36.5097
G1 X126.16 Y136.51 E36.5409
G1 X138.14 Y124.54 E37.5967
G1 X137.97 Y124 E37.6321
G1 X125.81 Y136.16 E38.7048
G1 X125.46 Y135.81 E38.736
G1 X137.34 Y123.93 E39.7837
G1 X136.63 Y123.93 E39.8278
G1 X125.1 Y135.45 E40.8443
G1 X124.75 Y135.1 E40.8754
G1 X135.92 Y123.93 E41.8608
G1 X135.21 Y123.93 E41.9049
G1 X124.4 Y134.75 E42.859
G1 X124.04 Y134.39 E42.8902
G1 X134.51 Y123.93 E43.8132
G1 X133.8 Y123.93 E43.8573
G1 X123.69 Y134.04 E44.749
G1 X123.34 Y133.69 E44.7802
G1 X133.09 Y123.93 E45.6408
G1 X132.39 Y123.93 E45.6849
G1 X122.98 Y133.33 E46.5143
G1 X122.63 Y132.98 E46.5455
G1 X131.68 Y123.93 E47.3438
G1 X130.97 Y123.93 E47.3879
G1 X122.27 Y132.62 E48.1549
G1 X121.92 Y132.27 E48.1861
G1 X130.27 Y123.93 E48.922
G1 X129.56 Y123.93 E48.9661
G1 X121.57 Y131.92 E49.6708
G1 X121.21 Y131.56 E49.702
G1 X128.85 Y123.93 E50.3755
G1 X128.14 Y123.93 E50.4196
G1 X120.86 Y131.21 E51.0619
G1 X120.51 Y130.86 E51.0931
G1 X127.44 Y123.93 E51.7042
G1 X126.73 Y123.93 E51.7483
G1 X120.15 Y130.5 E52.3283
G1 X119.8 Y130.15 E52.3595
G1 X126.02 Y123.93 E52.9083
G1 X125.32 Y123.93 E52.9524
G1 X119.45 Y129.8 E53.47
G1 X119.09 Y129.44 E53.5012
G1 X124.61 Y123.93 E53.9876
G1 X123.9 Y123.93 E54.0317
G1 X118.74 Y129.09 E54.4869
G1 X118.39 Y128.74 E54.5181
G1 X123.19 Y123.93 E54.9422
G1 X122.49 Y123.93 E54.9863
G1 X118.03 Y128.38 E55.3791
G1 X117.68 Y128.03 E55.4103
G1 X121.78 Y123.93 E55.772
G1 X121.07 Y123.93 E55.8161
G1 X117.33 Y127.67 E56.1466
G1 X116.97 Y127.32 E56.1778
G1 X120.37 Y123.93 E56.4772
G1 X119.66 Y123.93 E56.5213
G1 X116.62 Y126.97 E56.7894
G1 X116.26 Y126.61 E56.8206
G1 X118.95 Y123.93 E57.0576
G1 X118.24 Y123.93 E57.1017
G1 X115.91 Y126.26 E57.3075
G1 X115.56 Y125.91 E57.3386
G1 X117.54 Y123.93 E57.5133
G1 X116.83 Y123.93 E57.5574
G1 X115.2 Y125.55 E57.7008
G1 X114.85 Y125.2 E57.732
G1 X116.17 Y123.88 E57.8484
;
; 'Solid', 74.8 [RPM], 25.0 [mm/s]
G1 F15000
G1 X114.51 Y124.83 E57.8484
G1 F1500
G1 X114.5 Y124.85 E57.85
G1 X114.11 Y124.53 E57.8813
G1 X113.79 Y124.14 E57.9126
;
; 'Wipe', 0.0 [RPM], 25.0 [mm/s]
G1 F15000
G1 X113.79 Y124.14 E57.9126
G1 F1500
G1 X114.11 Y124.53 E57.9126
G1 X114.5 Y124.85 E57.9126
G1 X114.51 Y124.83 E57.9126
;
; 'Loop', 74.8 [RPM], 25.0 [mm/s]
G1 F15000
G1 X135.45 Y112.85 E57.9126
G1 F1500
G1 X136.58 Y111.78 E58.0096
G1 X136.58 Y113.98 E58.1467
G1 X136.51 Y114.32 E58.1687
G1 X136.46 Y114.38 E58.1738
G1 X135.42 Y114.41 E58.2385
G1 X135.33 Y114.5 E58.2463
;
; 'Wipe', 0.0 [RPM], 25.0 [mm/s]
G1 F15000
G1 X135.33 Y114.5 E58.2463
G1 F1500
G1 X135.42 Y114.41 E58.2463
G1 X136.46 Y114.38 E58.2463
G1 X136.51 Y114.32 E58.2463
G1 X136.58 Y113.98 E58.2463
G1 X136.58 Y111.78 E58.2463
G1 X135.45 Y112.85 E58.2463
;
; 'Perimeter', 74.8 [RPM], 25.0 [mm/s]
G1 F15000
G1 X135.44 Y112.84 E58.2463
G1 F1500
G1 X136.6 Y111.7 E58.3476
G1 X137.05 Y111.31 E58.3851
G1 X137.08 Y111.45 E58.3944
G1 X137.08 Y114.1 E58.5597
G1 X137.03 Y114.25 E58.5695
G1 X136.91 Y114.31 E58.5776
G1 X136.74 Y114.32 E58.5881
G1 X136.66 Y114.41 E58.5959
G1 X136.61 Y114.41 E58.599
G1 X135.43 Y114.42 E58.6723
G1 X135.34 Y114.51 E58.6801
;
; 'Solid', 74.8 [RPM], 25.0 [mm/s]
G1 F15000
G1 X135.62 Y114.33 E58.6801
G1 F1500
G1 X136.06 Y113.89 E58.7192
G1 X136.07 Y113.18 E58.7637
G1 X132.48 Y116.76 E59.0801
G1 X131.77 Y116.76 E59.1242
G1 X136.14 Y112.39 E59.5097
;
; 'Wipe', 0.0 [RPM], 25.0 [mm/s]
G1 F15000
G1 X136.14 Y112.39 E59.5097
G1 F1500
G1 X131.77 Y116.76 E59.5097
G1 X132.48 Y116.76 E59.5097
G1 X136.07 Y113.18 E59.5097
;
; 'Solid', 74.8 [RPM], 25.0 [mm/s]
G1 F15000
G1 X134.67 Y113.16 E59.5097
G1 F1500
G1 X131.06 Y116.76 E59.8274
G1 X130.36 Y116.76 E59.8715
G1 X133.89 Y113.24 E60.1826
G1 X133.18 Y113.24 E60.2267
G1 X129.65 Y116.76 E60.5378
G1 X128.94 Y116.76 E60.5819
G1 X132.47 Y113.24 E60.8931
G1 X131.76 Y113.24 E60.9371
G1 X128.24 Y116.76 E61.2483
G1 X128.24 Y116.06 E61.2924
G1 X131.06 Y113.24 E61.5411
G1 X130.35 Y113.24 E61.5852
G1 X128.21 Y115.37 E61.7736
G1 X127.85 Y115.02 E61.8048
G1 X129.64 Y113.24 E61.9625
G1 X128.94 Y113.24 E62.0066
G1 X128.24 Y113.94 E62.0683
G1 X128.24 Y113.23 E62.1124
G1 X128.25 Y113.21 E62.1137
;
; 'Wipe', 0.0 [RPM], 25.0 [mm/s]
G1 F15000
G1 X128.25 Y113.21 E62.1137
G1 F1500
G1 X128.24 Y113.23 E62.1137
G1 X128.24 Y113.94 E62.1137
G1 X128.94 Y113.24 E62.1137
G1 X129.64 Y113.24 E62.1137
G1 X127.85 Y115.02 E62.1137
G1 X128.21 Y115.37 E62.1137
G1 X130.35 Y113.24 E62.1137
G1 X131.06 Y113.24 E62.1137
G1 X128.24 Y116.06 E62.1137
;
; 'Solid', 74.8 [RPM], 25.0 [mm/s]
G1 F15000
G1 X135.02 Y114.93 E62.1137
G1 F1500
G1 X133.19 Y116.76 E62.2755
G1 X133.89 Y116.76 E62.3196
G1 X134.95 Y115.71 E62.4124
G1 X134.95 Y116.42 E62.4565
G1 X134.53 Y116.84 E62.4936
;
; 'Wipe', 0.0 [RPM], 25.0 [mm/s]
G1 F15000
G1 X134.53 Y116.84 E62.4936
G1 F1500
G1 X134.95 Y116.42 E62.4936
G1 X134.95 Y115.71 E62.4936
G1 X133.89 Y116.76 E62.4936
G1 X133.19 Y116.76 E62.4936
G1 X135.02 Y114.93 E62.4936
G1 F210
G1 X135.02 Y114.93 Z0.6 E62.4936
; END_LAYER_OBJECT z=0.30
; Reset extruder pos
G92 E0
; BEGIN_LAYER_OBJECT z=0.60
;
; *** Warming Extruder 1 to 160 C ***
M104 S160
G92 E0
;
; fan on
M106
;
; 'Perimeter', 180.0 [RPM], 60.1 [mm/s]
G1 F15000
G1 X117.62 Y107.75 E0
G1 F3607.9
G1 X117.69 Y107.64 E0.008
G1 X137.01 Y107.64 E1.2126
G1 X137.08 Y107.74 E1.2204
G1 X137.08 Y110.59 E1.3984
G1 X126.1 Y110.59 E2.0833
G1 X125.78 Y110.6 E2.1033
G1 X125.67 Y110.67 E2.1113
G1 X125.59 Y110.92 E2.1277
G1 X125.59 Y111.1 E2.1391
G1 X125.59 Y113.77 E2.3053
G1 X125.56 Y113.92 E2.3149
G1 X125.43 Y113.91 E2.3231
G1 X125.39 Y113.78 E2.3319
G1 X125.39 Y113.6 E2.3429
G1 X125.2 Y113.43 E2.3585
G1 X125.02 Y113.44 E2.3699
G1 X124.75 Y113.18 E2.3933
G1 X124.57 Y113.18 E2.4045
G1 X124.4 Y113 E2.4201
G1 X124.22 Y113 E2.4312
G1 X124.13 Y112.91 E2.439
G1 X123.95 Y112.92 E2.4501
G1 X123.86 Y112.83 E2.4579
;
; 'Wipe', 0.0 [RPM], 67.5 [mm/s]
G1 F15000
G1 X123.86 Y112.83 E2.4579
G1 F4050
G1 X123.95 Y112.92 E2.4579
G1 X124.13 Y112.91 E2.4579
G1 X124.22 Y113 E2.4579
G1 X124.4 Y113 E2.4579
G1 X124.57 Y113.18 E2.4579
G1 X124.75 Y113.18 E2.4579
G1 X125.02 Y113.44 E2.4579
G1 X125.2 Y113.43 E2.4579
G1 X125.39 Y113.6 E2.4579
G1 X125.39 Y113.78 E2.4579
G1 X125.43 Y113.91 E2.4579
G1 X125.56 Y113.92 E2.4579
G1 X125.59 Y113.77 E2.4579
G1 X125.59 Y111.1 E2.4579
G1 X125.6 Y110.78 E2.4579
G1 X125.67 Y110.67 E2.4579
G1 X125.92 Y110.59 E2.4579
G1 X126.1 Y110.59 E2.4579
G1 X130.17 Y110.59 E2.4579
;
; 'Loop', 180.0 [RPM], 60.1 [mm/s]
G1 F15000
G1 X114.7 Y123.74 E2.4579
G1 F3607.9
G1 X114.79 Y123.65 E2.4657
G1 X114.81 Y123.5 E2.4753
G1 X115.16 Y123.5 E2.4971
G1 X115.58 Y123.41 E2.5234
G1 X137.88 Y123.41 E3.9145
G1 X138.59 Y123.41 E3.9586
G1 X138.72 Y123.43 E3.9667
G1 X139 Y123.5 E3.9847
G1 X139.35 Y123.5 E4.0068
G1 X139.38 Y123.65 E4.0165
G1 X139.47 Y123.74 E4.0243
G1 X139.48 Y124.08 E4.0458
G1 X139.57 Y124.17 E4.0536
G1 X139.57 Y124.52 E4.0754
G1 X139.66 Y124.61 E4.0832
;
; 'Wipe', 0.0 [RPM], 67.5 [mm/s]
G1 F15000
G1 X139.66 Y124.61 E4.0832
G1 F4050
G1 X139.57 Y124.52 E4.0832
G1 X139.57 Y124.17 E4.0832
G1 X139.48 Y124.08 E4.0832
G1 X139.47 Y123.74 E4.0832
G1 X139.38 Y123.65 E4.0832
G1 X139.35 Y123.5 E4.0832
G1 X139 Y123.5 E4.0832
G1 X138.59 Y123.41 E4.0832
G1 X137.88 Y123.41 E4.0832
G1 X130.46 Y123.41 E4.0832
;
; 'Perimeter', 180.0 [RPM], 60.1 [mm/s]
G1 F15000
G1 X114.88 Y123.05 E4.0832
G1 F3607.9
G1 X114.86 Y123.37 E4.1034
G1 X114.77 Y123.46 E4.1112
G1 X114.76 Y123.63 E4.122
G1 X114.68 Y123.72 E4.1298
G1 X114.67 Y124.07 E4.1517
G1 X114.58 Y124.16 E4.1595
G1 X114.58 Y124.51 E4.1814
G1 X114.49 Y124.6 E4.1892
;
; 'Wipe', 0.0 [RPM], 67.5 [mm/s]
G1 F15000
G1 X114.49 Y124.6 E4.1892
G1 F4050
G1 X114.58 Y124.51 E4.1892
G1 X114.58 Y124.16 E4.1892
G1 X114.67 Y124.07 E4.1892
G1 X114.68 Y123.72 E4.1892
G1 X114.76 Y123.63 E4.1892
G1 X114.77 Y123.46 E4.1892
G1 X114.86 Y123.37 E4.1892
G1 X114.88 Y123.05 E4.1892
;
; 'Loop', 180.0 [RPM], 60.1 [mm/s]
G1 F15000
G1 X116.22 Y121.72 E4.1892
G1 F3607.9
G1 X116.13 Y121.8 E4.1967
G1 X116.01 Y121.75 E4.205
G1 X115.99 Y121.59 E4.2148
G1 X115.99 Y108.23 E5.0478
G1 X116.07 Y108.14 E5.0556
G1 X116.53 Y108.14 E5.0839
G1 X116.22 Y108.47 E5.1118
G1 X116.22 Y121.55 E5.9276
G1 X116.22 Y121.72 E5.9384
;
; 'Perimeter', 180.0 [RPM], 60.1 [mm/s]
G1 F15000
G1 X115.82 Y121.87 E5.9384
G1 F3607.9
G1 X116.05 Y122.09 E5.9588
G1 X115.87 Y122.23 E5.9732
G1 X115.65 Y122.1 E5.9892
G1 X115.48 Y121.87 E6.0069
G1 X115.48 Y107.73 E6.8889
G1 X115.57 Y107.64 E6.8967
G1 X116.85 Y107.64 E6.9768
G1 X116.83 Y107.67 E6.9788
G1 X116.85 Y107.86 E6.9909
G1 X116.24 Y108.49 E7.0455
G1 X116.24 Y121.69 E7.8686
G1 X116.24 Y121.75 E7.8723
G1 X116.06 Y121.92 E7.8879
G1 X116.05 Y122.09 E7.8986
G1 X115.73 Y122.07 E7.919
;
; 'Wipe', 0.0 [RPM], 67.5 [mm/s]
G1 F15000
G1 X115.73 Y122.07 E7.919
G1 F4050
G1 X116.05 Y122.09 E7.919
G1 X116.06 Y121.92 E7.919
G1 X116.24 Y121.75 E7.919
G1 X116.24 Y121.69 E7.919
G1 X116.24 Y112.49 E7.919
;
; 'Loop', 180.0 [RPM], 60.1 [mm/s]
G1 F15000
G1 X118.13 Y108.3 E7.919
G1 F3607.9
G1 X118.13 Y121.74 E8.7568
G1 X119.33 Y120.59 E8.8601
;
; 'Loop', 180.0 [RPM], 60.1 [mm/s]
G1 F15000
G1 X118.13 Y108.26 E8.8601
G1 F3607.9
G1 X118.19 Y108.14 E8.8683
G1 X136.5 Y108.14 E10.0101
G1 X136.58 Y108.24 E10.018
G1 X136.58 Y110.09 E10.1329
G1 X126.07 Y110.09 E10.7879
G1 X125.7 Y110.11 E10.8112
G1 X125.41 Y110.23 E10.8309
G1 X125.23 Y110.41 E10.8465
G1 X125.12 Y110.65 E10.863
G1 X125.08 Y111.08 E10.89
G1 X125.08 Y113.38 E11.0334
G1 X125.05 Y113.41 E11.0362
G1 X124.77 Y113.16 E11.0596
G1 X124.59 Y113.16 E11.0709
G1 X124.41 Y112.99 E11.0865
G1 X124.23 Y112.99 E11.0977
G1 X124.14 Y112.9 E11.1055
G1 X123.96 Y112.9 E11.1167
G1 X123.87 Y112.82 E11.1245
;
; 'Wipe', 0.0 [RPM], 67.5 [mm/s]
G1 F15000
G1 X123.87 Y112.82 E11.1245
G1 F4050
G1 X123.96 Y112.9 E11.1245
G1 X124.14 Y112.9 E11.1245
G1 X124.23 Y112.99 E11.1245
G1 X124.41 Y112.99 E11.1245
G1 X124.59 Y113.16 E11.1245
G1 X124.77 Y113.16 E11.1245
G1 X125.05 Y113.41 E11.1245
G1 X125.08 Y113.38 E11.1245
G1 X125.08 Y111.08 E11.1245
G1 X125.11 Y110.7 E11.1245
G1 X125.23 Y110.41 E11.1245
G1 X125.41 Y110.23 E11.1245
G1 X125.65 Y110.12 E11.1245
G1 X126.07 Y110.09 E11.1245
G1 X130.67 Y110.09 E11.1245
;
; 'Perimeter', 180.0 [RPM], 60.1 [mm/s]
G1 F15000
G1 X117.62 Y107.75 E11.1245
G1 F3607.9
G1 X117.62 Y122.07 E12.0174
G1 X117.65 Y122.23 E12.0272
G1 X118.18 Y121.75 E12.0721
G1 X119.34 Y120.61 E12.1734
;
; 'Wipe', 0.0 [RPM], 67.5 [mm/s]
G1 F15000
G1 X119.34 Y120.61 E12.1734
G1 F4050
G1 X118.18 Y121.75 E12.1734
G1 X117.65 Y122.23 E12.1734
G1 X117.62 Y122.07 E12.1734
G1 X117.62 Y114.47 E12.1734
;
; 'Perimeter', 180.0 [RPM], 60.1 [mm/s]
G1 F15000
G1 X125.65 Y115.01 E12.1734
G1 F3607.9
G1 X125.86 Y115.28 E12.1951
G1 X125.82 Y115.29 E12.1975
G1 X125.63 Y115.05 E12.2163
G1 X125.64 Y114.94 E12.2233
G1 X125.82 Y114.71 E12.2416
G1 X125.86 Y114.72 E12.244
G1 X125.86 Y114.89 E12.2548
G1 X125.96 Y114.98 E12.2626
G1 X125.96 Y115.02 E12.2654
G1 X125.86 Y115.11 E12.2732
G1 X125.86 Y115.28 E12.2841
G1 X125.54 Y115.15 E12.3058
;
; 'Wipe', 0.0 [RPM], 67.5 [mm/s]
G1 F15000
G1 X125.54 Y115.15 E12.3058
G1 F4050
G1 X125.86 Y115.28 E12.3058
G1 X125.86 Y115.11 E12.3058
G1 X125.96 Y115.02 E12.3058
G1 X125.96 Y114.98 E12.3058
G1 X125.86 Y114.89 E12.3058
G1 X125.86 Y114.72 E12.3058
G1 X125.82 Y114.71 E12.3058
G1 X125.64 Y114.94 E12.3058
G1 X125.63 Y115.05 E12.3058
G1 X125.82 Y115.29 E12.3058
G1 X125.86 Y115.28 E12.3058
G1 X125.65 Y115.01 E12.3058
;
; 'Loop', 180.0 [RPM], 60.1 [mm/s]
G1 F15000
G1 X138.02 Y121.6 E12.3058
G1 F3607.9
G1 X137.77 Y121.37 E12.3268
G1 X137.59 Y121.38 E12.3382
G1 X137.05 Y120.86 E12.385
G1 X127.02 Y120.86 E13.0104
G1 X126.14 Y121.69 E13.0861
G1 X126.14 Y119.98 E13.1932
G1 X126.25 Y119.91 E13.2013
G1 X137.28 Y119.91 E13.8893
G1 X137.66 Y119.83 E13.9135
G1 X137.82 Y119.91 E13.9242
G1 X137.91 Y120 E13.932
G1 X138.02 Y120.06 E13.9401
G1 X138.02 Y121.6 E14.036
;
; 'Perimeter', 180.0 [RPM], 60.1 [mm/s]
G1 F15000
G1 X138.19 Y121.76 E14.036
G1 F3607.9
G1 X138.27 Y122.03 E14.0538
G1 X138.06 Y122.18 E14.0696
G1 X138.04 Y122.17 E14.0713
G1 X138.02 Y121.83 E14.0921
G1 X137.93 Y121.75 E14.0999
G1 X137.93 Y121.57 E14.1109
G1 X137.75 Y121.39 E14.1265
G1 X137.57 Y121.4 E14.1378
G1 X137.03 Y120.87 E14.1845
G1 X127.03 Y120.87 E14.8084
G1 X126.05 Y121.83 E14.8941
G1 X125.63 Y122.19 E14.9284
G1 X125.63 Y119.83 E15.0761
G1 X125.89 Y119.55 E15.0995
G1 X126.12 Y119.41 E15.1165
G1 X137.26 Y119.41 E15.811
G1 X137.4 Y119.4 E15.8201
G1 X137.52 Y119.33 E15.8282
G1 X137.63 Y119.04 E15.8481
G1 X137.63 Y118.92 E15.8553
G1 X137.63 Y116.09 E16.0317
G1 X137.74 Y116.03 E16.0398
G1 X138.52 Y116.03 E16.0881
G1 X138.52 Y121.75 E16.4451
G1 X138.27 Y122.03 E16.4685
G1 X138.01 Y121.92 E16.4864
;
; 'Wipe', 0.0 [RPM], 67.5 [mm/s]
G1 F15000
G1 X138.01 Y121.92 E16.4864
G1 F4050
G1 X138.27 Y122.03 E16.4864
G1 X138.52 Y121.75 E16.4864
G1 X138.52 Y116.03 E16.4864
G1 X137.74 Y116.03 E16.4864
G1 X137.63 Y116.09 E16.4864
G1 X137.63 Y118.86 E16.4864
;
; 'Perimeter', 180.0 [RPM], 60.1 [mm/s]
G1 F15000
G1 X114.88 Y123.04 E16.4864
G1 F3607.9
G1 X114.92 Y123.01 E16.4895
G1 X115.18 Y122.99 E16.5059
G1 X115.37 Y122.91 E16.5186
G1 X138.71 Y122.91 E17.9738
G1 X138.79 Y122.91 E17.9793
G1 X138.87 Y122.92 E17.9841
G1 X138.98 Y122.99 E17.9921
G1 X139.24 Y123.01 E18.0086
G1 X139.29 Y123.04 E18.0119
G1 X139.31 Y123.37 E18.0326
G1 X139.4 Y123.46 E18.0404
G1 X139.4 Y123.63 E18.0513
G1 X139.49 Y123.72 E18.0591
G1 X139.49 Y124.07 E18.0809
G1 X139.58 Y124.16 E18.0887
G1 X139.58 Y124.51 E18.1107
G1 X139.67 Y124.6 E18.1185
;
; 'Wipe', 0.0 [RPM], 67.5 [mm/s]
G1 F15000
G1 X139.67 Y124.6 E18.1185
G1 F4050
G1 X139.58 Y124.51 E18.1185
G1 X139.58 Y124.16 E18.1185
G1 X139.49 Y124.07 E18.1185
G1 X139.49 Y123.72 E18.1185
G1 X139.4 Y123.63 E18.1185
G1 X139.4 Y123.46 E18.1185
G1 X139.31 Y123.37 E18.1185
G1 X139.29 Y123.04 E18.1185
G1 X139.24 Y123.01 E18.1185
G1 X138.98 Y122.99 E18.1185
G1 X138.79 Y122.91 E18.1185
G1 X138.71 Y122.91 E18.1185
G1 X131.02 Y122.91 E18.1185
;
; 'Crown', 180.0 [RPM], 60.1 [mm/s]
G1 F15000
G1 X125.58 Y116.06 E18.1185
G1 F3607.9
G1 X125.6 Y116.08 E18.12
G1 X125.6 Y119.05 E18.3053
G1 X125.65 Y119.35 E18.3243
;
; 'Wipe', 0.0 [RPM], 67.5 [mm/s]
G1 F15000
G1 X125.65 Y119.35 E18.3243
G1 F4050
G1 X125.6 Y119.05 E18.3243
G1 X125.6 Y116.08 E18.3243
G1 X125.58 Y116.06 E18.3243
;
; 'Crown', 180.0 [RPM], 60.1 [mm/s]
G1 F15000
G1 X137.98 Y119.62 E18.3243
G1 F3607.9
G1 X138.03 Y119.5 E18.3327
G1 X138.03 Y119.34 E18.3424
G1 X138.05 Y119.34 E18.3434
G1 X138.06 Y119.17 E18.3535
G1 X138.05 Y119.14 E18.3555
G1 X138.07 Y119 E18.3643
G1 X138.07 Y116.48 E18.522
G1 X138.13 Y116.41 E18.5274
;
; 'Wipe', 0.0 [RPM], 67.5 [mm/s]
G1 F15000
G1 X138.13 Y116.41 E18.5274
G1 F4050
G1 X138.07 Y116.48 E18.5274
G1 X138.07 Y119 E18.5274
G1 X138.05 Y119.14 E18.5274
G1 X138.06 Y119.17 E18.5274
G1 X138.05 Y119.34 E18.5274
G1 X138.03 Y119.34 E18.5274
G1 X138.03 Y119.5 E18.5274
G1 X137.98 Y119.62 E18.5274
;
; 'Solid', 180.0 [RPM], 60.1 [mm/s]
G1 F15000
G1 X136.82 Y120.4 E18.5274
G1 F3607.9
G1 X137.58 Y121.16 E18.5945
;
; 'Solid', 180.0 [RPM], 60.1 [mm/s]
G1 F15000
G1 X136.35 Y120.64 E18.5945
G1 F3607.9
G1 X136.06 Y120.35 E18.6199
G1 X135.69 Y120.69 E18.6511
G1 X135.4 Y120.4 E18.6764
G1 X134.93 Y120.64 E18.7093
G1 X134.64 Y120.35 E18.7347
G1 X134.28 Y120.69 E18.7659
G1 X133.99 Y120.4 E18.7912
G1 X133.52 Y120.64 E18.8241
G1 X133.23 Y120.35 E18.8495
G1 X132.86 Y120.69 E18.8807
G1 X132.58 Y120.4 E18.906
G1 X132.1 Y120.64 E18.9389
G1 X131.82 Y120.35 E18.9643
G1 X131.45 Y120.69 E18.9955
G1 X131.16 Y120.4 E19.0208
G1 X130.69 Y120.64 E19.0537
G1 X130.4 Y120.35 E19.0791
G1 X130.03 Y120.69 E19.1103
G1 X129.75 Y120.4 E19.1356
G1 X129.27 Y120.64 E19.1685
G1 X128.99 Y120.35 E19.1939
G1 X128.62 Y120.69 E19.2251
G1 X128.33 Y120.4 E19.2504
G1 X127.86 Y120.64 E19.2833
G1 X127.57 Y120.35 E19.3087
G1 X127.21 Y120.69 E19.3399
G1 X126.92 Y120.4 E19.3652
G1 X126.63 Y120.82 E19.3968
G1 X126.8 Y120.99 E19.4116
;
; 'Wipe', 0.0 [RPM], 67.5 [mm/s]
G1 F15000
G1 X126.8 Y120.99 E19.4116
G1 F4050
G1 X126.63 Y120.82 E19.4116
G1 X126.92 Y120.4 E19.4116
G1 X127.21 Y120.69 E19.4116
G1 X127.57 Y120.35 E19.4116
G1 X127.86 Y120.64 E19.4116
G1 X128.33 Y120.4 E19.4116
G1 X128.62 Y120.69 E19.4116
G1 X128.99 Y120.35 E19.4116
G1 X129.27 Y120.64 E19.4116
G1 X129.75 Y120.4 E19.4116
G1 X130.03 Y120.69 E19.4116
G1 X130.4 Y120.35 E19.4116
G1 X130.69 Y120.64 E19.4116
G1 X131.16 Y120.4 E19.4116
G1 X131.45 Y120.69 E19.4116
G1 X131.82 Y120.35 E19.4116
G1 X132.1 Y120.64 E19.4116
G1 X132.58 Y120.4 E19.4116
G1 X132.86 Y120.69 E19.4116
G1 X133.23 Y120.35 E19.4116
G1 X133.52 Y120.64 E19.4116
G1 X133.99 Y120.4 E19.4116
G1 X134.28 Y120.69 E19.4116
;
; 'Solid', 180.0 [RPM], 60.1 [mm/s]
G1 F15000
G1 X118.63 Y120.6 E19.4116
G1 F3607.9
G1 X118.65 Y120.62 E19.4135
G1 X119.03 Y120.3 E19.4448
G1 X118.65 Y119.91 E19.4787
G1 X118.65 Y119.2 E19.5228
G1 X119.74 Y120.3 E19.6195
G1 X120.45 Y120.3 E19.6636
G1 X118.65 Y118.5 E19.8226
G1 X118.65 Y117.79 E19.8667
G1 X121.16 Y120.3 E20.0881
G1 X121.86 Y120.3 E20.1322
G1 X118.65 Y117.08 E20.416
G1 X118.65 Y116.38 E20.4601
G1 X122.57 Y120.3 E20.8062
G1 X123.28 Y120.3 E20.8506
G1 X118.65 Y115.67 E21.2595
G1 X118.65 Y114.96 E21.3036
G1 X123.28 Y119.6 E21.7125
G1 X123.28 Y118.89 E21.7566
G1 X118.65 Y114.25 E22.1655
G1 X118.65 Y113.55 E22.2096
G1 X123.28 Y118.18 E22.6185
G1 X123.28 Y117.48 E22.6626
G1 X118.65 Y112.84 E23.0716
G1 X118.65 Y112.13 E23.1157
G1 X123.28 Y116.77 E23.5246
G1 X123.28 Y116.06 E23.5687
G1 X118.65 Y111.43 E23.9776
G1 X118.65 Y110.72 E24.0217
G1 X123.28 Y115.36 E24.4306
G1 X123.28 Y114.65 E24.4747
G1 X118.65 Y110.01 E24.8837
G1 X118.65 Y109.3 E24.9278
G1 X123.28 Y113.94 E25.3367
G1 X123.28 Y113.23 E25.3809
G1 X118.71 Y108.66 E25.7844
G1 X119.41 Y108.66 E25.8285
G1 X123.64 Y112.89 E26.2015
G1 X124.31 Y112.85 E26.2433
G1 X120.12 Y108.66 E26.6129
G1 X120.83 Y108.66 E26.6569
G1 X124.57 Y112.4 E26.9868
G1 X124.57 Y111.69 E27.0309
G1 X121.54 Y108.66 E27.2983
G1 X122.24 Y108.66 E27.3424
G1 X124.58 Y110.99 E27.5484
G1 X124.66 Y110.37 E27.5875
G1 X122.95 Y108.66 E27.7387
G1 X123.66 Y108.66 E27.7828
G1 X124.95 Y109.95 E27.897
G1 X125.38 Y109.68 E27.929
G1 X124.36 Y108.66 E28.0189
G1 X125.07 Y108.66 E28.063
G1 X125.99 Y109.57 E28.144
G1 X126.7 Y109.57 E28.188
G1 X125.78 Y108.66 E28.2689
G1 X126.49 Y108.66 E28.313
G1 X127.4 Y109.57 E28.3939
G1 X128.11 Y109.57 E28.438
G1 X127.19 Y108.66 E28.519
G1 X127.9 Y108.66 E28.5631
G1 X128.82 Y109.57 E28.644
G1 X129.52 Y109.57 E28.6881
G1 X128.61 Y108.66 E28.769
G1 X129.31 Y108.66 E28.8131
G1 X130.23 Y109.57 E28.894
G1 X130.94 Y109.57 E28.9381
G1 X130.02 Y108.66 E29.019
G1 X130.73 Y108.66 E29.0631
G1 X131.65 Y109.57 E29.144
G1 X132.35 Y109.57 E29.1881
G1 X131.43 Y108.66 E29.269
G1 X132.14 Y108.66 E29.3131
G1 X133.06 Y109.57 E29.394
G1 X133.77 Y109.57 E29.4381
G1 X132.85 Y108.66 E29.5191
G1 X133.56 Y108.66 E29.5632
G1 X134.47 Y109.57 E29.6441
G1 X135.18 Y109.57 E29.6882
G1 X134.26 Y108.66 E29.7691
G1 X134.97 Y108.66 E29.8132
G1 X135.9 Y109.59 E29.8955
G1 X136.08 Y109.06 E29.9303
G1 X135.6 Y108.58 E29.9726
;
; 'Wipe', 0.0 [RPM], 67.5 [mm/s]
G1 F15000
G1 X135.6 Y108.58 E29.9726
G1 F4050
G1 X136.08 Y109.06 E29.9726
G1 X135.9 Y109.59 E29.9726
G1 X134.97 Y108.66 E29.9726
G1 X134.26 Y108.66 E29.9726
G1 X135.18 Y109.57 E29.9726
G1 X134.47 Y109.57 E29.9726
G1 X133.56 Y108.66 E29.9726
G1 X132.85 Y108.66 E29.9726
G1 X133.77 Y109.57 E29.9726
G1 X133.06 Y109.57 E29.9726
G1 X132.14 Y108.66 E29.9726
;
; 'Solid', 180.0 [RPM], 60.1 [mm/s]
G1 F15000
G1 X142.3 Y123.77 E29.9726
G1 F3607.9
G1 X142.38 Y123.84 E29.9791
G1 X142.31 Y124.48 E30.0191
G1 X141.29 Y123.46 E30.1086
G1 X140.93 Y123.81 E30.1398
G1 X141.97 Y124.85 E30.231
G1 X141.61 Y125.2 E30.2622
G1 X140.96 Y124.55 E30.3195
G1 X140.25 Y124.54 E30.3641
G1 X141.26 Y125.55 E30.4532
G1 X140.91 Y125.91 E30.4844
G1 X139.01 Y124.01 E30.6518
G1 X138.23 Y123.94 E30.7007
G1 X140.55 Y126.26 E30.9058
G1 X140.2 Y126.61 E30.937
G1 X137.51 Y123.93 E31.1739
G1 X136.81 Y123.93 E31.218
G1 X139.85 Y126.97 E31.4862
G1 X139.49 Y127.32 E31.5174
G1 X136.1 Y123.93 E31.8167
G1 X135.39 Y123.93 E31.8608
G1 X139.14 Y127.67 E32.1913
G1 X138.79 Y128.03 E32.2225
G1 X134.68 Y123.93 E32.5842
G1 X133.98 Y123.93 E32.6283
G1 X138.43 Y128.38 E33.0212
G1 X138.08 Y128.74 E33.0524
G1 X133.27 Y123.93 E33.4764
G1 X132.56 Y123.93 E33.5205
G1 X137.73 Y129.09 E33.9758
G1 X137.37 Y129.44 E34.007
G1 X131.86 Y123.93 E34.4934
G1 X131.15 Y123.93 E34.5375
G1 X137.02 Y129.8 E35.0551
G1 X136.66 Y130.15 E35.0863
G1 X130.44 Y123.93 E35.6351
G1 X129.73 Y123.93 E35.6792
G1 X136.31 Y130.5 E36.2591
G1 X135.96 Y130.86 E36.2903
G1 X129.03 Y123.93 E36.9015
G1 X128.32 Y123.93 E36.9456
G1 X135.6 Y131.21 E37.5879
G1 X135.25 Y131.56 E37.6191
G1 X127.61 Y123.93 E38.2926
G1 X126.91 Y123.93 E38.3367
G1 X134.9 Y131.92 E39.0414
G1 X134.54 Y132.27 E39.0726
G1 X126.2 Y123.93 E39.8084
G1 X125.49 Y123.93 E39.8525
G1 X134.19 Y132.62 E40.6196
G1 X133.84 Y132.98 E40.6508
G1 X124.79 Y123.93 E41.449
G1 X124.08 Y123.93 E41.4931
G1 X133.48 Y133.33 E42.3225
G1 X133.13 Y133.69 E42.3537
G1 X123.37 Y123.93 E43.2143
G1 X122.66 Y123.93 E43.2584
G1 X132.78 Y134.04 E44.1502
G1 X132.42 Y134.39 E44.1814
G1 X121.96 Y123.93 E45.1043
G1 X121.25 Y123.93 E45.1484
G1 X132.07 Y134.75 E46.1026
G1 X131.71 Y135.1 E46.1338
G1 X120.54 Y123.93 E47.1191
G1 X119.84 Y123.93 E47.1632
G1 X131.36 Y135.45 E48.1797
G1 X131.01 Y135.81 E48.2109
G1 X119.13 Y123.93 E49.2586
G1 X118.42 Y123.93 E49.3027
G1 X130.65 Y136.16 E50.3815
G1 X130.3 Y136.51 E50.4127
G1 X117.71 Y123.93 E51.5228
G1 X117.01 Y123.93 E51.5669
G1 X129.95 Y136.87 E52.7081
G1 X129.59 Y137.22 E52.7393
G1 X116.3 Y123.93 E53.9118
G1 X115.61 Y123.94 E53.955
G1 X129.24 Y137.57 E55.1575
G1 X128.89 Y137.93 E55.1887
G1 X114.96 Y124 E56.417
G1 X114.79 Y124.54 E56.4523
G1 X128.53 Y138.28 E57.664
G1 X128.18 Y138.64 E57.6952
G1 X114.54 Y125 E58.8981
G1 X113.13 Y124.29 E58.9966
G1 X127.83 Y138.99 E60.293
;
; 'Wipe', 0.0 [RPM], 67.5 [mm/s]
G1 F15000
G1 X127.83 Y138.99 E60.293
G1 F4050
G1 X113.13 Y124.29 E60.293
;
; 'Perimeter', 180.0 [RPM], 60.1 [mm/s]
G1 F15000
G1 X138.34 Y113.67 E60.293
G1 F3607.9
G1 X138.52 Y113.97 E60.3148
G1 X137.92 Y113.97 E60.3521
G1 X137.95 Y113.94 E60.3552
G1 X137.94 Y113.74 E60.3671
G1 X138.11 Y113.56 E60.3827
G1 X138.11 Y108.13 E60.7213
G1 X137.85 Y107.86 E60.7447
G1 X137.86 Y107.67 E60.7568
G1 X137.84 Y107.64 E60.7589
G1 X138.42 Y107.64 E60.7949
G1 X138.52 Y107.72 E60.8027
G1 X138.52 Y113.97 E61.1928
G1 X138.22 Y113.8 E61.2146
;
; 'Wipe', 0.0 [RPM], 67.5 [mm/s]
G1 F15000
G1 X138.22 Y113.8 E61.2146
G1 F4050
G1 X138.52 Y113.97 E61.2146
G1 X138.52 Y107.72 E61.2146
G1 X138.42 Y107.64 E61.2146
G1 X137.84 Y107.64 E61.2146
G1 X137.86 Y107.67 E61.2146
G1 X137.85 Y107.86 E61.2146
G1 X138.11 Y108.13 E61.2146
G1 X138.11 Y110.25 E61.2146
;
; 'Loop', 180.0 [RPM], 60.1 [mm/s]
G1 F15000
G1 X135.45 Y112.85 E61.2146
G1 F3607.9
G1 X136.58 Y111.78 E61.3116
G1 X136.58 Y113.98 E61.4487
G1 X136.51 Y114.32 E61.4706
G1 X136.46 Y114.38 E61.4758
G1 X135.42 Y114.41 E61.5405
G1 X135.33 Y114.5 E61.5483
;
; 'Wipe', 0.0 [RPM], 67.5 [mm/s]
G1 F15000
G1 X135.33 Y114.5 E61.5483
G1 F4050
G1 X135.42 Y114.41 E61.5483
G1 X136.46 Y114.38 E61.5483
G1 X136.51 Y114.32 E61.5483
G1 X136.58 Y113.98 E61.5483
G1 X136.58 Y111.78 E61.5483
G1 X135.45 Y112.85 E61.5483
;
; 'Perimeter', 180.0 [RPM], 60.1 [mm/s]
G1 F15000
G1 X135.44 Y112.84 E61.5483
G1 F3607.9
G1 X136.6 Y111.7 E61.6496
G1 X137.05 Y111.31 E61.6871
G1 X137.08 Y111.45 E61.6963
G1 X137.08 Y114.1 E61.8617
G1 X137.03 Y114.25 E61.8714
G1 X136.91 Y114.31 E61.8796
G1 X136.74 Y114.32 E61.89
G1 X136.66 Y114.41 E61.8978
G1 X136.61 Y114.41 E61.901
G1 X135.43 Y114.42 E61.9743
G1 X135.34 Y114.51 E61.9821
;
; 'Solid', 180.0 [RPM], 60.1 [mm/s]
G1 F15000
G1 X136.14 Y112.66 E61.9821
G1 F3607.9
G1 X136.05 Y112.56 E61.9906
G1 X135.66 Y112.88 E62.0219
G1 X136.07 Y113.29 E62.0582
G1 X136.04 Y113.97 E62.1005
G1 X135.31 Y113.24 E62.1654
G1 X134.6 Y113.24 E62.2095
G1 X135.63 Y114.27 E62.3006
G1 X134.95 Y114.29 E62.3434
G1 X133.89 Y113.24 E62.4365
G1 X133.19 Y113.24 E62.4806
G1 X134.95 Y115 E62.6357
G1 X134.95 Y115.7 E62.6798
G1 X132.48 Y113.24 E62.8974
G1 X131.77 Y113.24 E62.9415
G1 X134.97 Y116.43 E63.2233
G1 X134.61 Y116.79 E63.2545
G1 X131.06 Y113.24 E63.5675
G1 X130.36 Y113.24 E63.6116
G1 X133.89 Y116.76 E63.9228
G1 X133.18 Y116.76 E63.9669
G1 X129.65 Y113.24 E64.278
G1 X128.94 Y113.24 E64.3221
G1 X132.47 Y116.76 E64.6332
G1 X131.76 Y116.76 E64.6773
G1 X128.24 Y113.24 E64.9884
G1 X128.24 Y113.94 E65.0325
G1 X131.06 Y116.76 E65.2812
G1 X130.35 Y116.76 E65.3253
G1 X128.21 Y114.63 E65.5137
G1 X127.85 Y114.98 E65.5449
G1 X129.64 Y116.76 E65.7026
G1 X128.94 Y116.76 E65.7467
G1 X128.24 Y116.06 E65.8084
G1 X128.24 Y116.77 E65.8526
G1 X128.25 Y116.79 E65.8538
;
; 'Wipe', 0.0 [RPM], 67.5 [mm/s]
G1 F15000
G1 X128.25 Y116.79 E65.8538
G1 F4050
G1 X128.24 Y116.77 E65.8538
G1 X128.24 Y116.06 E65.8538
G1 X128.94 Y116.76 E65.8538
G1 X129.64 Y116.76 E65.8538
G1 X127.85 Y114.98 E65.8538
G1 X128.21 Y114.63 E65.8538
G1 X130.35 Y116.76 E65.8538
G1 X131.06 Y116.76 E65.8538
G1 X128.24 Y113.94 E65.8538
; fan off
M107
G1 F210
G1 X128.24 Y113.94 Z0.9 E65.8538
; END_LAYER_OBJECT z=0.60
; Reset extruder pos
G92 E0
; BEGIN_LAYER_OBJECT z=0.90
; fan on
M106
;
; 'Loop', 180.0 [RPM], 60.1 [mm/s]
G1 F15000
G1 X115.96 Y121.29 E0
G1 F3607.9
G1 X115.42 Y121.8 E0.0464
G1 X115.42 Y121.63 E0.057
G1 X115.42 Y108.19 E0.8949
G1 X115.54 Y108.14 E0.9033
G1 X116.53 Y108.14 E0.9648
G1 X115.96 Y108.74 E1.016
G1 X115.96 Y121.29 E1.7988
;
; 'Wipe', 0.0 [RPM], 67.5 [mm/s]
G1 F15000
G1 X115.96 Y121.29 E1.7988
G1 F4050
G1 X115.96 Y111.22 E1.7988
;
; 'Perimeter', 180.0 [RPM], 60.1 [mm/s]
G1 F15000
G1 X117.62 Y107.75 E1.7988
G1 F3607.9
G1 X117.69 Y107.64 E1.8068
G1 X137.01 Y107.64 E3.0114
G1 X137.08 Y107.74 E3.0192
G1 X137.08 Y110.59 E3.1972
G1 X126.1 Y110.59 E3.8821
G1 X125.78 Y110.6 E3.902
G1 X125.67 Y110.67 E3.9101
G1 X125.59 Y110.92 E3.9264
G1 X125.59 Y111.1 E3.9379
G1 X125.59 Y113.77 E4.1041
G1 X125.56 Y113.92 E4.1136
G1 X125.43 Y113.91 E4.1218
G1 X125.39 Y113.78 E4.1306
G1 X125.39 Y113.6 E4.1416
G1 X125.2 Y113.43 E4.1572
G1 X125.02 Y113.44 E4.1686
G1 X124.75 Y113.18 E4.192
G1 X124.57 Y113.18 E4.2032
G1 X124.4 Y113 E4.2188
G1 X124.22 Y113 E4.2299
G1 X124.13 Y112.91 E4.2377
G1 X123.95 Y112.92 E4.2488
G1 X123.86 Y112.83 E4.2566
;
; 'Wipe', 0.0 [RPM], 67.5 [mm/s]
G1 F15000
G1 X123.86 Y112.83 E4.2566
G1 F4050
G1 X123.95 Y112.92 E4.2566
G1 X124.13 Y112.91 E4.2566
G1 X124.22 Y113 E4.2566
G1 X124.4 Y113 E4.2566
G1 X124.57 Y113.18 E4.2566
G1 X124.75 Y113.18 E4.2566
G1 X125.02 Y113.44 E4.2566
G1 X125.2 Y113.43 E4.2566
G1 X125.39 Y113.6 E4.2566
G1 X125.39 Y113.78 E4.2566
G1 X125.43 Y113.91 E4.2566
G1 X125.56 Y113.92 E4.2566
G1 X125.59 Y113.77 E4.2566
G1 X125.59 Y111.1 E4.2566
G1 X125.6 Y110.78 E4.2566
G1 X125.67 Y110.67 E4.2566
G1 X125.92 Y110.59 E4.2566
G1 X126.1 Y110.59 E4.2566
G1 X130.17 Y110.59 E4.2566
;
; 'Loop', 180.0 [RPM], 60.1 [mm/s]
G1 F15000
G1 X114.17 Y123.74 E4.2566
G1 F3607.9
G1 X114.26 Y123.65 E4.2644
G1 X114.29 Y123.5 E4.274
G1 X114.47 Y123.51 E4.2853
G1 X114.74 Y123.43 E4.3032
G1 X114.87 Y123.41 E4.3111
G1 X139.47 Y123.41 E5.8455
G1 X139.61 Y123.43 E5.8538
G1 X139.89 Y123.5 E5.8718
G1 X140.24 Y123.5 E5.8939
G1 X140.27 Y124 E5.925
G1 X140.36 Y124.08 E5.9328
G1 X140.37 Y124.43 E5.9545
G1 X140.46 Y124.52 E5.9623
G1 X140.46 Y124.7 E5.9732
;
; 'Perimeter', 180.0 [RPM], 60.1 [mm/s]
G1 F15000
G1 X114.35 Y123.05 E5.9732
G1 F3607.9
G1 X114.33 Y123.37 E5.9934
G1 X114.24 Y123.46 E6.0012
G1 X114.23 Y123.63 E6.012
G1 X114.15 Y123.72 E6.0198
G1 X114.14 Y124.07 E6.0417
G1 X114.05 Y124.16 E6.0495
G1 X114.05 Y124.51 E6.0715
G1 X113.96 Y124.6 E6.0792
;
; 'Wipe', 0.0 [RPM], 67.5 [mm/s]
G1 F15000
G1 X113.96 Y124.6 E6.0792
G1 F4050
G1 X114.05 Y124.51 E6.0792
G1 X114.05 Y124.16 E6.0792
G1 X114.14 Y124.07 E6.0792
G1 X114.15 Y123.72 E6.0792
G1 X114.23 Y123.63 E6.0792
G1 X114.24 Y123.46 E6.0792
G1 X114.33 Y123.37 E6.0792
G1 X114.35 Y123.05 E6.0792
;
; 'Perimeter', 180.0 [RPM], 60.1 [mm/s]
G1 F15000
G1 X115.2 Y121.79 E6.0792
G1 F3607.9
G1 X115.44 Y122.01 E6.0995
G1 X115.25 Y122.17 E6.1152
G1 X115.22 Y122.18 E6.1175
G1 X115.03 Y122.01 E6.1331
G1 X114.91 Y121.83 E6.1465
G1 X114.91 Y107.69 E7.0285
G1 X115.04 Y107.64 E7.037
G1 X116.85 Y107.64 E7.1501
G1 X116.83 Y107.67 E7.1522
G1 X116.85 Y107.86 E7.1642
G1 X115.98 Y108.76 E7.2422
G1 X115.98 Y121.31 E8.025
G1 X115.44 Y121.83 E8.0718
G1 X115.44 Y122.01 E8.0826
G1 X115.12 Y122 E8.1029
;
; 'Wipe', 0.0 [RPM], 67.5 [mm/s]
G1 F15000
G1 X115.12 Y122 E8.1029
G1 F4050
G1 X115.44 Y122.01 E8.1029
G1 X115.44 Y121.83 E8.1029
G1 X115.98 Y121.31 E8.1029
G1 X115.98 Y112.47 E8.1029
;
; 'Loop', 180.0 [RPM], 60.1 [mm/s]
G1 F15000
G1 X118.13 Y108.3 E8.1029
G1 F3607.9
G1 X118.13 Y121.74 E8.9407
G1 X119.33 Y120.59 E9.044
;
; 'Loop', 180.0 [RPM], 60.1 [mm/s]
G1 F15000
G1 X118.13 Y108.26 E9.044
G1 F3607.9
G1 X118.19 Y108.14 E9.0522
G1 X136.5 Y108.14 E10.194
G1 X136.58 Y108.24 E10.2019
G1 X136.58 Y110.09 E10.3168
G1 X126.07 Y110.09 E10.9718
G1 X125.7 Y110.11 E10.9951
G1 X125.41 Y110.23 E11.0148
G1 X125.23 Y110.41 E11.0304
G1 X125.12 Y110.65 E11.0469
G1 X125.08 Y111.08 E11.0739
G1 X125.08 Y113.38 E11.2172
G1 X125.05 Y113.41 E11.2201
G1 X124.77 Y113.16 E11.2435
G1 X124.59 Y113.16 E11.2548
G1 X124.41 Y112.99 E11.2704
G1 X124.23 Y112.99 E11.2816
G1 X124.14 Y112.9 E11.2894
G1 X123.96 Y112.9 E11.3006
G1 X123.87 Y112.82 E11.3084
;
; 'Wipe', 0.0 [RPM], 67.5 [mm/s]
G1 F15000
G1 X123.87 Y112.82 E11.3084
G1 F4050
G1 X123.96 Y112.9 E11.3084
G1 X124.14 Y112.9 E11.3084
G1 X124.23 Y112.99 E11.3084
G1 X124.41 Y112.99 E11.3084
G1 X124.59 Y113.16 E11.3084
G1 X124.77 Y113.16 E11.3084
G1 X125.05 Y113.41 E11.3084
G1 X125.08 Y113.38 E11.3084
G1 X125.08 Y111.08 E11.3084
G1 X125.11 Y110.7 E11.3084
G1 X125.23 Y110.41 E11.3084
G1 X125.41 Y110.23 E11.3084
G1 X125.65 Y110.12 E11.3084
G1 X126.07 Y110.09 E11.3084
G1 X130.67 Y110.09 E11.3084
;
; 'Perimeter', 180.0 [RPM], 60.1 [mm/s]
G1 F15000
G1 X117.62 Y107.75 E11.3084
G1 F3607.9
G1 X117.62 Y122.07 E12.2013
G1 X117.65 Y122.23 E12.211
G1 X118.18 Y121.75 E12.256
G1 X119.34 Y120.61 E12.3573
;
; 'Wipe', 0.0 [RPM], 67.5 [mm/s]
G1 F15000
G1 X119.34 Y120.61 E12.3573
G1 F4050
G1 X118.18 Y121.75 E12.3573
G1 X117.65 Y122.23 E12.3573
G1 X117.62 Y122.07 E12.3573
G1 X117.62 Y114.47 E12.3573
;
; 'Perimeter', 180.0 [RPM], 60.1 [mm/s]
G1 F15000
G1 X125.65 Y115.01 E12.3573
G1 F3607.9
G1 X125.86 Y115.28 E12.379
G1 X125.82 Y115.29 E12.3814
G1 X125.63 Y115.05 E12.4001
G1 X125.64 Y114.94 E12.4072
G1 X125.82 Y114.71 E12.4255
G1 X125.86 Y114.72 E12.4279
G1 X125.86 Y114.89 E12.4387
G1 X125.96 Y114.98 E12.4465
G1 X125.96 Y115.02 E12.4493
G1 X125.86 Y115.11 E12.4571
G1 X125.86 Y115.28 E12.468
G1 X125.54 Y115.15 E12.4897
;
; 'Wipe', 0.0 [RPM], 67.5 [mm/s]
G1 F15000
G1 X125.54 Y115.15 E12.4897
G1 F4050
G1 X125.86 Y115.28 E12.4897
G1 X125.86 Y115.11 E12.4897
G1 X125.96 Y115.02 E12.4897
G1 X125.96 Y114.98 E12.4897
G1 X125.86 Y114.89 E12.4897
G1 X125.86 Y114.72 E12.4897
G1 X125.82 Y114.71 E12.4897
G1 X125.64 Y114.94 E12.4897
G1 X125.63 Y115.05 E12.4897
G1 X125.82 Y115.29 E12.4897
G1 X125.86 Y115.28 E12.4897
G1 X125.65 Y115.01 E12.4897
;
; 'Loop', 180.0 [RPM], 60.1 [mm/s]
G1 F15000
G1 X138.97 Y121.68 E12.4897
G1 F3607.9
G1 X138.75 Y121.8 E12.5059
G1 X138.66 Y121.72 E12.5134
G1 X138.65 Y121.55 E12.5241
G1 X137.93 Y120.86 E12.5865
G1 X127.02 Y120.86 E13.267
G1 X126.14 Y121.69 E13.3427
G1 X126.14 Y119.98 E13.4497
G1 X126.25 Y119.91 E13.4578
G1 X137.28 Y119.91 E14.1459
G1 X137.54 Y119.88 E14.1616
G1 X137.77 Y119.77 E14.1781
G1 X137.95 Y119.59 E14.1937
G1 X138.11 Y119.22 E14.219
G1 X138.14 Y119.06 E14.2288
G1 X138.14 Y116.59 E14.3827
G1 X138.25 Y116.53 E14.3908
G1 X138.9 Y116.53 E14.4316
G1 X138.97 Y116.63 E14.4395
G1 X138.97 Y121.68 E14.7541
;
; 'Perimeter', 180.0 [RPM], 60.1 [mm/s]
G1 F15000
G1 X139.35 Y121.89 E14.7541
G1 F3607.9
G1 X139.46 Y122.16 E14.7729
G1 X139.43 Y122.18 E14.775
G1 X139.14 Y122.2 E14.7931
G1 X139 Y122.23 E14.8022
G1 X138.72 Y122.01 E14.8245
G1 X138.72 Y121.83 E14.8353
G1 X138.63 Y121.75 E14.8431
G1 X138.63 Y121.57 E14.8541
G1 X137.92 Y120.87 E14.9164
G1 X127.03 Y120.87 E15.5953
G1 X126.05 Y121.83 E15.6811
G1 X125.63 Y122.19 E15.7154
G1 X125.63 Y119.83 E15.863
G1 X125.89 Y119.55 E15.8864
G1 X126.12 Y119.41 E15.9034
G1 X137.26 Y119.41 E16.598
G1 X137.4 Y119.4 E16.607
G1 X137.52 Y119.33 E16.6151
G1 X137.63 Y119.04 E16.635
G1 X137.63 Y118.92 E16.6423
G1 X137.63 Y116.09 E16.8186
G1 X137.74 Y116.03 E16.8267
G1 X139.4 Y116.03 E16.9302
G1 X139.48 Y116.13 E16.9381
G1 X139.48 Y122.14 E17.3129
G1 X139.46 Y122.16 E17.3148
G1 X139.18 Y122.06 E17.3335
;
; 'Wipe', 0.0 [RPM], 67.5 [mm/s]
G1 F15000
G1 X139.18 Y122.06 E17.3335
G1 F4050
G1 X139.46 Y122.16 E17.3335
G1 X139.48 Y122.14 E17.3335
G1 X139.48 Y116.13 E17.3335
G1 X139.4 Y116.03 E17.3335
G1 X137.74 Y116.03 E17.3335
G1 X137.63 Y116.09 E17.3335
G1 X137.63 Y117.86 E17.3335
;
; 'Perimeter', 180.0 [RPM], 60.1 [mm/s]
G1 F15000
G1 X114.35 Y123.04 E17.3335
G1 F3607.9
G1 X114.39 Y123.01 E17.3365
G1 X114.49 Y123 E17.3426
G1 X114.75 Y122.91 E17.3601
G1 X135.97 Y122.91 E18.6831
G1 X139.5 Y122.91 E18.9035
G1 X139.55 Y122.95 E18.9075
G1 X139.71 Y122.95 E18.9174
G1 X139.76 Y122.92 E18.9205
G1 X139.87 Y122.99 E18.9286
G1 X140.13 Y123 E18.9447
G1 X140.17 Y123.04 E18.9482
G1 X140.19 Y123.37 E18.9689
G1 X140.28 Y123.46 E18.9767
G1 X140.29 Y123.98 E19.0094
G1 X140.38 Y124.07 E19.0172
G1 X140.38 Y124.42 E19.0391
G1 X140.47 Y124.51 E19.0469
G1 X140.47 Y124.68 E19.0579
;
; 'Wipe', 0.0 [RPM], 67.5 [mm/s]
G1 F15000
G1 X140.47 Y124.68 E19.0579
G1 F4050
G1 X140.47 Y124.51 E19.0579
G1 X140.38 Y124.42 E19.0579
G1 X140.38 Y124.07 E19.0579
G1 X140.29 Y123.98 E19.0579
G1 X140.28 Y123.46 E19.0579
G1 X140.19 Y123.37 E19.0579
G1 X140.17 Y123.04 E19.0579
G1 X140.13 Y123 E19.0579
G1 X139.87 Y122.99 E19.0579
G1 X139.76 Y122.92 E19.0579
G1 X139.71 Y122.95 E19.0579
G1 X139.55 Y122.95 E19.0579
G1 X139.5 Y122.91 E19.0579
G1 X131.9 Y122.91 E19.0579
;
; 'Crown', 180.0 [RPM], 60.1 [mm/s]
G1 F15000
G1 X125.58 Y116.06 E19.0579
G1 F3607.9
G1 X125.6 Y116.08 E19.0595
G1 X125.6 Y119.05 E19.2447
G1 X125.65 Y119.35 E19.2637
;
; 'Solid', 180.0 [RPM], 60.1 [mm/s]
G1 F15000
G1 X127.48 Y120.35 E19.2637
G1 F3607.9
G1 X126.63 Y121.2 E19.3387
;
; 'Solid', 180.0 [RPM], 60.1 [mm/s]
G1 F15000
G1 X138.48 Y119.95 E19.3387
G1 F3607.9
G1 X137.79 Y120.64 E19.3998
G1 X138.14 Y121.01 E19.431
G1 X138.46 Y120.68 E19.4598
G1 X138.48 Y121.37 E19.5029
;
; 'Wipe', 0.0 [RPM], 67.5 [mm/s]
G1 F15000
G1 X138.48 Y121.37 E19.5029
G1 F4050
G1 X138.46 Y120.68 E19.5029
G1 X138.14 Y121.01 E19.5029
G1 X137.79 Y120.64 E19.5029
G1 X138.48 Y119.95 E19.5029
;
; 'Solid', 180.0 [RPM], 60.1 [mm/s]
G1 F15000
G1 X127.88 Y139.04 E19.5029
G1 F3607.9
G1 X142.37 Y124.55 E20.781
G1 X142.37 Y123.84 E20.825
G1 X127.58 Y138.64 E22.1296
G1 X127.22 Y138.28 E22.1608
G1 X140.62 Y124.88 E23.3426
G1 X140.26 Y124.54 E23.3738
G1 X126.87 Y137.93 E24.5549
G1 X126.52 Y137.57 E24.5861
G1 X140.09 Y124.01 E25.7827
G1 X139.45 Y123.93 E25.8226
G1 X126.16 Y137.22 E26.9944
G1 X125.81 Y136.87 E27.0255
G1 X138.75 Y123.93 E28.1668
G1 X138.04 Y123.93 E28.2109
G1 X125.46 Y136.51 E29.3209
G1 X125.1 Y136.16 E29.3521
G1 X137.34 Y123.93 E30.431
G1 X136.63 Y123.93 E30.4751
G1 X124.75 Y135.81 E31.5228
G1 X124.4 Y135.45 E31.554
G1 X135.92 Y123.93 E32.5705
G1 X135.21 Y123.93 E32.6146
G1 X124.04 Y135.1 E33.5999
G1 X123.69 Y134.75 E33.6311
G1 X134.51 Y123.93 E34.5852
G1 X133.8 Y123.93 E34.6293
G1 X123.34 Y134.39 E35.5523
G1 X122.98 Y134.04 E35.5835
G1 X133.09 Y123.93 E36.4753
G1 X132.39 Y123.93 E36.5194
G1 X122.63 Y133.69 E37.38
G1 X122.27 Y133.33 E37.4111
G1 X131.68 Y123.93 E38.2406
G1 X130.97 Y123.93 E38.2847
G1 X121.92 Y132.98 E39.0829
G1 X121.57 Y132.62 E39.1141
G1 X130.27 Y123.93 E39.8811
G1 X129.56 Y123.93 E39.9252
G1 X121.21 Y132.27 E40.6611
G1 X120.86 Y131.92 E40.6923
G1 X128.85 Y123.93 E41.397
G1 X128.14 Y123.93 E41.4411
G1 X120.51 Y131.56 E42.1146
G1 X120.15 Y131.21 E42.1458
G1 X127.44 Y123.93 E42.7881
G1 X126.73 Y123.93 E42.8322
G1 X119.8 Y130.86 E43.4434
G1 X119.45 Y130.5 E43.4745
G1 X126.02 Y123.93 E44.0545
G1 X125.32 Y123.93 E44.0986
G1 X119.09 Y130.15 E44.6474
G1 X118.74 Y129.8 E44.6786
G1 X124.61 Y123.93 E45.1962
G1 X123.9 Y123.93 E45.2403
G1 X118.39 Y129.44 E45.7267
G1 X118.03 Y129.09 E45.7579
G1 X123.19 Y123.93 E46.2131
G1 X122.49 Y123.93 E46.2572
G1 X117.68 Y128.74 E46.6813
G1 X117.33 Y128.38 E46.7125
G1 X121.78 Y123.93 E47.1054
G1 X121.07 Y123.93 E47.1494
G1 X116.97 Y128.03 E47.5111
G1 X116.62 Y127.67 E47.5423
G1 X120.37 Y123.93 E47.8728
G1 X119.66 Y123.93 E47.9169
G1 X116.26 Y127.32 E48.2163
G1 X115.91 Y126.97 E48.2475
G1 X118.95 Y123.93 E48.5156
G1 X118.24 Y123.93 E48.5597
G1 X115.56 Y126.61 E48.7967
G1 X115.2 Y126.26 E48.8279
G1 X117.54 Y123.93 E49.0337
G1 X116.83 Y123.93 E49.0778
G1 X114.85 Y125.91 E49.2524
G1 X114.5 Y125.55 E49.2836
G1 X116.12 Y123.93 E49.427
G1 X115.42 Y123.93 E49.4711
G1 X114.14 Y125.2 E49.5833
G1 X113.79 Y124.85 E49.6145
G1 X114.6 Y124.04 E49.6856
G1 X113.44 Y124.49 E49.7632
;
; 'Wipe', 0.0 [RPM], 67.5 [mm/s]
G1 F15000
G1 X113.44 Y124.49 E49.7632
G1 F4050
G1 X114.6 Y124.04 E49.7632
G1 X113.79 Y124.85 E49.7632
G1 X114.14 Y125.2 E49.7632
G1 X115.42 Y123.93 E49.7632
G1 X116.12 Y123.93 E49.7632
G1 X114.5 Y125.55 E49.7632
G1 X114.85 Y125.91 E49.7632
G1 X116.83 Y123.93 E49.7632
;
; 'Solid', 180.0 [RPM], 60.1 [mm/s]
G1 F15000
G1 X123.36 Y120.23 E49.7632
G1 F3607.9
G1 X123.29 Y120.3 E49.7697
G1 X122.58 Y120.3 E49.8138
G1 X123.28 Y119.59 E49.876
G1 X123.28 Y118.89 E49.9201
G1 X121.87 Y120.3 E50.0446
G1 X121.16 Y120.3 E50.0887
G1 X123.28 Y118.18 E50.2757
G1 X123.28 Y117.47 E50.3198
G1 X120.46 Y120.3 E50.5691
G1 X119.75 Y120.3 E50.6132
G1 X123.28 Y116.77 E50.9248
G1 X123.28 Y116.06 E50.9689
G1 X118.65 Y120.7 E51.3778
G1 X118.65 Y119.99 E51.4219
G1 X123.28 Y115.35 E51.8309
G1 X123.28 Y114.64 E51.875
G1 X118.65 Y119.28 E52.2839
G1 X118.65 Y118.57 E52.328
G1 X123.36 Y113.86 E52.7434
;
; 'Solid', 180.0 [RPM], 60.1 [mm/s]
G1 F15000
G1 X124.31 Y112.91 E52.7434
G1 F3607.9
G1 X124.57 Y112.65 E52.7662
G1 X124.57 Y111.95 E52.8103
G1 X118.65 Y117.87 E53.3324
G1 X118.65 Y117.16 E53.3765
G1 X124.54 Y111.26 E53.8967
G1 X124.74 Y110.36 E53.9543
G1 X118.65 Y116.45 E54.4917
G1 X118.65 Y115.75 E54.5358
G1 X125.74 Y108.66 E55.1611
G1 X125.03 Y108.66 E55.2052
G1 X118.65 Y115.04 E55.768
G1 X118.65 Y114.33 E55.8121
G1 X124.32 Y108.66 E56.3126
G1 X123.62 Y108.66 E56.3567
G1 X118.65 Y113.62 E56.7949
G1 X118.65 Y112.92 E56.839
G1 X122.91 Y108.66 E57.2148
G1 X122.2 Y108.66 E57.2589
G1 X118.65 Y112.21 E57.5723
G1 X118.65 Y111.5 E57.6164
G1 X121.49 Y108.66 E57.8674
G1 X120.79 Y108.66 E57.9115
G1 X118.65 Y110.8 E58.1002
G1 X118.65 Y110.09 E58.1443
G1 X120.08 Y108.66 E58.2706
G1 X119.37 Y108.66 E58.3147
G1 X118.65 Y109.38 E58.3782
G1 X118.69 Y108.63 E58.4246
;
; 'Solid', 180.0 [RPM], 60.1 [mm/s]
G1 F15000
G1 X125.26 Y109.84 E58.4246
G1 F3607.9
G1 X126.44 Y108.66 E58.5288
G1 X127.15 Y108.66 E58.5729
G1 X126.23 Y109.57 E58.6539
G1 X126.94 Y109.57 E58.698
G1 X127.86 Y108.66 E58.7789
G1 X128.57 Y108.66 E58.823
G1 X127.65 Y109.57 E58.9039
G1 X128.35 Y109.57 E58.948
G1 X129.27 Y108.66 E59.0289
G1 X129.98 Y108.66 E59.073
G1 X129.06 Y109.57 E59.1539
G1 X129.77 Y109.57 E59.198
G1 X130.69 Y108.66 E59.2789
G1 X131.39 Y108.66 E59.323
G1 X130.48 Y109.57 E59.4039
G1 X131.18 Y109.57 E59.448
G1 X132.1 Y108.66 E59.5289
G1 X132.81 Y108.66 E59.573
G1 X131.89 Y109.57 E59.654
G1 X132.6 Y109.57 E59.6981
G1 X133.51 Y108.66 E59.779
G1 X134.22 Y108.66 E59.8231
G1 X133.3 Y109.57 E59.904
G1 X134.01 Y109.57 E59.9481
G1 X134.93 Y108.66 E60.029
G1 X135.64 Y108.66 E60.0731
G1 X134.72 Y109.57 E60.154
G1 X135.43 Y109.57 E60.1981
G1 X136.14 Y108.86 E60.2613
;
; 'Wipe', 0.0 [RPM], 67.5 [mm/s]
G1 F15000
G1 X136.14 Y108.86 E60.2613
G1 F4050
G1 X135.43 Y109.57 E60.2613
G1 X134.72 Y109.57 E60.2613
G1 X135.64 Y108.66 E60.2613
G1 X134.93 Y108.66 E60.2613
G1 X134.01 Y109.57 E60.2613
G1 X133.3 Y109.57 E60.2613
G1 X134.22 Y108.66 E60.2613
G1 X133.51 Y108.66 E60.2613
G1 X132.6 Y109.57 E60.2613
G1 X131.89 Y109.57 E60.2613
G1 X132.81 Y108.66 E60.2613
;
; 'Loop', 180.0 [RPM], 60.1 [mm/s]
G1 F15000
G1 X135.45 Y112.85 E60.2613
G1 F3607.9
G1 X136.58 Y111.78 E60.3583
G1 X136.58 Y113.98 E60.4954
G1 X136.51 Y114.32 E60.5174
G1 X136.46 Y114.38 E60.5225
G1 X135.42 Y114.41 E60.5872
G1 X135.33 Y114.5 E60.595
;
; 'Wipe', 0.0 [RPM], 67.5 [mm/s]
G1 F15000
G1 X135.33 Y114.5 E60.595
G1 F4050
G1 X135.42 Y114.41 E60.595
G1 X136.46 Y114.38 E60.595
G1 X136.51 Y114.32 E60.595
G1 X136.58 Y113.98 E60.595
G1 X136.58 Y111.78 E60.595
G1 X135.45 Y112.85 E60.595
;
; 'Perimeter', 180.0 [RPM], 60.1 [mm/s]
G1 F15000
G1 X135.44 Y112.84 E60.595
G1 F3607.9
G1 X136.6 Y111.7 E60.6964
G1 X137.05 Y111.31 E60.7338
G1 X137.08 Y111.45 E60.7431
G1 X137.08 Y114.1 E60.9084
G1 X137.03 Y114.25 E60.9182
G1 X136.91 Y114.31 E60.9263
G1 X136.74 Y114.32 E60.9368
G1 X136.66 Y114.41 E60.9446
G1 X136.61 Y114.41 E60.9477
G1 X135.43 Y114.42 E61.021
G1 X135.34 Y114.51 E61.0288
;
; 'Solid', 180.0 [RPM], 60.1 [mm/s]
G1 F15000
G1 X135.62 Y114.33 E61.0288
G1 F3607.9
G1 X136.06 Y113.89 E61.0679
G1 X136.07 Y113.18 E61.1124
G1 X132.48 Y116.76 E61.4289
G1 X131.77 Y116.76 E61.473
G1 X136.14 Y112.39 E61.8584
;
; 'Wipe', 0.0 [RPM], 67.5 [mm/s]
G1 F15000
G1 X136.14 Y112.39 E61.8584
G1 F4050
G1 X131.77 Y116.76 E61.8584
G1 X132.48 Y116.76 E61.8584
G1 X136.07 Y113.18 E61.8584
;
; 'Solid', 180.0 [RPM], 60.1 [mm/s]
G1 F15000
G1 X134.67 Y113.16 E61.8584
G1 F3607.9
G1 X131.06 Y116.76 E62.1761
G1 X130.36 Y116.76 E62.2202
G1 X133.89 Y113.24 E62.5314
G1 X133.18 Y113.24 E62.5754
G1 X129.65 Y116.76 E62.8866
G1 X128.94 Y116.76 E62.9307
G1 X132.47 Y113.24 E63.2418
G1 X131.76 Y113.24 E63.2859
G1 X128.24 Y116.76 E63.597
G1 X128.24 Y116.06 E63.6411
G1 X131.06 Y113.24 E63.8898
G1 X130.35 Y113.24 E63.9339
G1 X128.21 Y115.37 E64.1223
G1 X127.85 Y115.02 E64.1535
G1 X129.64 Y113.24 E64.3112
G1 X128.94 Y113.24 E64.3553
G1 X128.24 Y113.94 E64.417
G1 X128.24 Y113.23 E64.4612
G1 X128.25 Y113.21 E64.4624
;
; 'Wipe', 0.0 [RPM], 67.5 [mm/s]
G1 F15000
G1 X128.25 Y113.21 E64.4624
G1 F4050
G1 X128.24 Y113.23 E64.4624
G1 X128.24 Y113.94 E64.4624
G1 X128.94 Y113.24 E64.4624
G1 X129.64 Y113.24 E64.4624
G1 X127.85 Y115.02 E64.4624
G1 X128.21 Y115.37 E64.4624
G1 X130.35 Y113.24 E64.4624
G1 X131.06 Y113.24 E64.4624
G1 X128.24 Y116.06 E64.4624
;
; 'Solid', 180.0 [RPM], 60.1 [mm/s]
G1 F15000
G1 X135.02 Y114.93 E64.4624
G1 F3607.9
G1 X133.19 Y116.76 E64.6242
G1 X133.89 Y116.76 E64.6683
G1 X134.95 Y115.71 E64.7611
G1 X134.95 Y116.42 E64.8052
G1 X134.53 Y116.84 E64.8423
;
; 'Wipe', 0.0 [RPM], 67.5 [mm/s]
G1 F15000
G1 X134.53 Y116.84 E64.8423
G1 F4050
G1 X134.95 Y116.42 E64.8423
G1 X134.95 Y115.71 E64.8423
G1 X133.89 Y116.76 E64.8423
G1 X133.19 Y116.76 E64.8423
G1 X135.02 Y114.93 E64.8423
;
; 'Loop', 180.0 [RPM], 60.1 [mm/s]
G1 F15000
G1 X138.9 Y113.47 E64.8423
G1 F3607.9
G1 X138.25 Y113.47 E64.8831
G1 X138.56 Y113.13 E64.912
G1 X138.56 Y108.56 E65.1969
G1 X138.17 Y108.14 E65.2326
G1 X138.97 Y108.15 E65.2828
G1 X138.97 Y113.37 E65.6084
G1 X138.9 Y113.47 E65.6163
;
; 'Wipe', 0.0 [RPM], 67.5 [mm/s]
G1 F15000
G1 X138.9 Y113.47 E65.6163
G1 F4050
G1 X138.97 Y113.37 E65.6163
G1 X138.97 Y108.15 E65.6163
G1 X138.17 Y108.14 E65.6163
G1 X138.56 Y108.56 E65.6163
G1 X138.56 Y111.89 E65.6163
;
; 'Perimeter', 180.0 [RPM], 60.1 [mm/s]
G1 F15000
G1 X139.36 Y113.65 E65.6163
G1 F3607.9
G1 X139.4 Y113.97 E65.6366
G1 X137.92 Y113.97 E65.7291
G1 X137.95 Y113.94 E65.7321
G1 X137.94 Y113.74 E65.7441
G1 X138.54 Y113.11 E65.7987
G1 X138.54 Y108.58 E66.0811
G1 X137.85 Y107.86 E66.1435
G1 X137.86 Y107.67 E66.1556
G1 X137.84 Y107.64 E66.1577
G1 X139.48 Y107.64 E66.2596
G1 X139.48 Y113.87 E66.6481
G1 X139.4 Y113.97 E66.656
G1 X139.17 Y113.75 E66.6763
;
; 'Wipe', 0.0 [RPM], 67.5 [mm/s]
G1 F15000
G1 X139.17 Y113.75 E66.6763
G1 F4050
G1 X139.4 Y113.97 E66.6763
G1 X139.48 Y113.87 E66.6763
G1 X139.48 Y107.64 E66.6763
G1 X137.84 Y107.64 E66.6763
G1 X137.86 Y107.67 E66.6763
G1 X137.85 Y107.86 E66.6763
G1 X138.54 Y108.58 E66.6763
G1 X138.54 Y109.04 E66.6763
;
; 'Solid', 180.0 [RPM], 60.1 [mm/s]
G1 F15000
G1 X145.13 Y121.79 E66.6763
G1 F3607.9
G1 X152.93 Y113.99 E67.3638
G1 X152.57 Y113.64 E67.395
G1 X145.21 Y121.01 E68.0448
G1 X145.21 Y120.3 E68.0889
G1 X152.22 Y113.29 E68.7075
G1 X151.87 Y112.93 E68.7386
G1 X145.56 Y119.24 E69.2949
G1 X145.56 Y118.53 E69.3389
G1 X151.51 Y112.58 E69.864
G1 X151.16 Y112.22 E69.8952
G1 X145.21 Y118.18 E70.4202
G1 X145.21 Y117.47 E70.4643
G1 X150.81 Y111.87 E70.9581
G1 X150.45 Y111.52 E70.9893
G1 X144.85 Y117.12 E71.4832
G1 X144.85 Y116.41 E71.5273
G1 X150.1 Y111.16 E71.9899
G1 X149.75 Y110.81 E72.0211
G1 X146.97 Y113.58 E72.2655
G1 X146.97 Y112.87 E72.3096
G1 X149.39 Y110.46 E72.5228
G1 X149.04 Y110.1 E72.554
G1 X146.97 Y112.17 E72.7361
G1 X146.97 Y111.46 E72.7802
G1 X148.69 Y109.75 E72.931
G1 X148.33 Y109.4 E72.9622
G1 X146.97 Y110.75 E73.0819
G1 X146.97 Y110.05 E73.126
G1 X147.98 Y109.04 E73.2145
G1 X147.62 Y108.69 E73.2456
G1 X146.97 Y109.34 E73.3029
G1 X146.97 Y108.63 E73.347
G1 X147.27 Y108.34 E73.3732
;
; 'Wipe', 0.0 [RPM], 67.5 [mm/s]
G1 F15000
G1 X147.27 Y108.34 E73.3732
G1 F4050
G1 X146.97 Y108.63 E73.3732
G1 X146.97 Y109.34 E73.3732
G1 X147.62 Y108.69 E73.3732
G1 X147.98 Y109.04 E73.3732
G1 X146.97 Y110.05 E73.3732
G1 X146.97 Y110.75 E73.3732
G1 X148.33 Y109.4 E73.3732
G1 X148.69 Y109.75 E73.3732
G1 X146.97 Y111.46 E73.3732
G1 X146.97 Y112.17 E73.3732
; fan off
M107
G1 F210
G1 X146.97 Y112.17 Z1.2 E73.3732
; END_LAYER_OBJECT z=0.90
; Reset extruder pos
G92 E0
; BEGIN_LAYER_OBJECT z=1.20
; fan on
M106
;
; 'Loop', 180.0 [RPM], 60.1 [mm/s]
G1 F15000
G1 X115.79 Y121.12 E0
G1 F3607.9
G1 X115.04 Y121.83 E0.0646
G1 X115.04 Y108.17 E0.9165
G1 X115.19 Y108.14 E0.926
G1 X116.53 Y108.14 E1.0095
G1 X115.79 Y108.92 E1.0764
G1 X115.79 Y121.12 E1.8371
;
; 'Perimeter', 180.0 [RPM], 60.1 [mm/s]
G1 F15000
G1 X115.57 Y120.92 E1.8371
G1 F3607.9
G1 X115.81 Y121.14 E1.857
G1 X114.91 Y122.01 E1.935
G1 X114.64 Y122.23 E1.9571
G1 X114.53 Y122.16 E1.965
G1 X114.53 Y107.66 E2.8694
G1 X114.69 Y107.64 E2.8792
G1 X116.85 Y107.64 E3.0145
G1 X116.83 Y107.67 E3.0165
G1 X116.85 Y107.86 E3.0286
G1 X115.81 Y108.94 E3.1221
G1 X115.81 Y121.14 E3.8829
G1 X115.49 Y121.13 E3.9028
;
; 'Wipe', 0.0 [RPM], 67.5 [mm/s]
G1 F15000
G1 X115.49 Y121.13 E3.9028
G1 F4050
G1 X115.81 Y121.14 E3.9028
G1 X115.81 Y111.41 E3.9028
;
; 'Perimeter', 180.0 [RPM], 60.1 [mm/s]
G1 F15000
G1 X117.62 Y107.75 E3.9028
G1 F3607.9
G1 X117.69 Y107.64 E3.9109
G1 X137.01 Y107.64 E5.1154
G1 X137.08 Y107.74 E5.1233
G1 X137.08 Y110.59 E5.3012
G1 X126.1 Y110.59 E5.9862
G1 X125.78 Y110.6 E6.0061
G1 X125.67 Y110.67 E6.0141
G1 X125.59 Y110.92 E6.0305
G1 X125.59 Y111.1 E6.0419
G1 X125.59 Y113.77 E6.2082
G1 X125.56 Y113.92 E6.2177
G1 X125.43 Y113.91 E6.2259
G1 X125.39 Y113.78 E6.2347
G1 X125.39 Y113.6 E6.2457
G1 X125.2 Y113.43 E6.2613
G1 X125.02 Y113.44 E6.2727
G1 X124.75 Y113.18 E6.2961
G1 X124.57 Y113.18 E6.3073
G1 X124.4 Y113 E6.3229
G1 X124.22 Y113 E6.334
G1 X124.13 Y112.91 E6.3418
G1 X123.95 Y112.92 E6.3529
G1 X123.86 Y112.83 E6.3607
;
; 'Wipe', 0.0 [RPM], 67.5 [mm/s]
G1 F15000
G1 X123.86 Y112.83 E6.3607
G1 F4050
G1 X123.95 Y112.92 E6.3607
G1 X124.13 Y112.91 E6.3607
G1 X124.22 Y113 E6.3607
G1 X124.4 Y113 E6.3607
G1 X124.57 Y113.18 E6.3607
G1 X124.75 Y113.18 E6.3607
G1 X125.02 Y113.44 E6.3607
G1 X125.2 Y113.43 E6.3607
G1 X125.39 Y113.6 E6.3607
G1 X125.39 Y113.78 E6.3607
G1 X125.43 Y113.91 E6.3607
G1 X125.56 Y113.92 E6.3607
G1 X125.59 Y113.77 E6.3607
G1 X125.59 Y111.1 E6.3607
G1 X125.6 Y110.78 E6.3607
G1 X125.67 Y110.67 E6.3607
G1 X125.92 Y110.59 E6.3607
G1 X126.1 Y110.59 E6.3607
G1 X130.17 Y110.59 E6.3607
;
; 'Loop', 180.0 [RPM], 60.1 [mm/s]
G1 F15000
G1 X113.81 Y123.74 E6.3607
G1 F3607.9
G1 X113.91 Y123.65 E6.3685
G1 X113.93 Y123.5 E6.378
G1 X114.28 Y123.5 E6.3996
G1 X114.69 Y123.41 E6.4259
G1 X133.99 Y123.41 E7.6296
G1 X140.53 Y123.41 E8.0374
G1 X140.67 Y123.43 E8.0458
G1 X140.94 Y123.5 E8.0637
G1 X141.3 Y123.5 E8.0858
G1 X141.33 Y123.83 E8.1061
G1 X141.42 Y123.91 E8.1139
G1 X141.42 Y124.26 E8.1355
G1 X141.51 Y124.35 E8.1433
G1 X141.52 Y124.7 E8.1651
;
; 'Wipe', 0.0 [RPM], 67.5 [mm/s]
G1 F15000
G1 X141.52 Y124.7 E8.1651
G1 F4050
G1 X141.51 Y124.35 E8.1651
G1 X141.42 Y124.26 E8.1651
G1 X141.42 Y123.91 E8.1651
G1 X141.33 Y123.83 E8.1651
G1 X141.3 Y123.5 E8.1651
G1 X140.94 Y123.5 E8.1651
G1 X140.53 Y123.41 E8.1651
G1 X140.5 Y123.41 E8.1651
G1 X132.58 Y123.41 E8.1651
;
; 'Perimeter', 180.0 [RPM], 60.1 [mm/s]
G1 F15000
G1 X114 Y123.05 E8.1651
G1 F3607.9
G1 X113.98 Y123.2 E8.1747
G1 X113.89 Y123.28 E8.1825
G1 X113.88 Y123.63 E8.2041
G1 X113.79 Y123.72 E8.2119
G1 X113.79 Y123.89 E8.2228
G1 X113.7 Y123.98 E8.2306
G1 X113.7 Y124.33 E8.2525
G1 X113.61 Y124.42 E8.2603
G1 X113.61 Y124.6 E8.2713
;
; 'Wipe', 0.0 [RPM], 67.5 [mm/s]
G1 F15000
G1 X113.61 Y124.6 E8.2713
G1 F4050
G1 X113.61 Y124.42 E8.2713
G1 X113.7 Y124.33 E8.2713
G1 X113.7 Y123.98 E8.2713
G1 X113.79 Y123.89 E8.2713
G1 X113.79 Y123.72 E8.2713
G1 X113.88 Y123.63 E8.2713
G1 X113.89 Y123.28 E8.2713
G1 X113.98 Y123.2 E8.2713
G1 X114 Y123.05 E8.2713
;
; 'Loop', 180.0 [RPM], 60.1 [mm/s]
G1 F15000
G1 X118.13 Y108.3 E8.2713
G1 F3607.9
G1 X118.13 Y121.74 E9.1092
G1 X119.33 Y120.59 E9.2124
;
; 'Loop', 180.0 [RPM], 60.1 [mm/s]
G1 F15000
G1 X118.13 Y108.26 E9.2124
G1 F3607.9
G1 X118.19 Y108.14 E9.2206
G1 X136.5 Y108.14 E10.3624
G1 X136.58 Y108.24 E10.3703
G1 X136.58 Y110.09 E10.4852
G1 X126.07 Y110.09 E11.1402
G1 X125.7 Y110.11 E11.1636
G1 X125.41 Y110.23 E11.1833
G1 X125.23 Y110.41 E11.1989
G1 X125.12 Y110.65 E11.2153
G1 X125.08 Y111.08 E11.2424
G1 X125.08 Y113.38 E11.3857
G1 X125.05 Y113.41 E11.3885
G1 X124.77 Y113.16 E11.4119
G1 X124.59 Y113.16 E11.4232
G1 X124.41 Y112.99 E11.4388
G1 X124.23 Y112.99 E11.45
G1 X124.14 Y112.9 E11.4578
G1 X123.96 Y112.9 E11.469
G1 X123.87 Y112.82 E11.4768
;
; 'Wipe', 0.0 [RPM], 67.5 [mm/s]
G1 F15000
G1 X123.87 Y112.82 E11.4768
G1 F4050
G1 X123.96 Y112.9 E11.4768
G1 X124.14 Y112.9 E11.4768
G1 X124.23 Y112.99 E11.4768
G1 X124.41 Y112.99 E11.4768
G1 X124.59 Y113.16 E11.4768
G1 X124.77 Y113.16 E11.4768
G1 X125.05 Y113.41 E11.4768
G1 X125.08 Y113.38 E11.4768
G1 X125.08 Y111.08 E11.4768
G1 X125.11 Y110.7 E11.4768
G1 X125.23 Y110.41 E11.4768
G1 X125.41 Y110.23 E11.4768
G1 X125.65 Y110.12 E11.4768
G1 X126.07 Y110.09 E11.4768
G1 X130.67 Y110.09 E11.4768
;
; 'Perimeter', 180.0 [RPM], 60.1 [mm/s]
G1 F15000
G1 X117.62 Y107.75 E11.4768
G1 F3607.9
G1 X117.62 Y122.07 E12.3698
G1 X117.65 Y122.23 E12.3795
G1 X118.18 Y121.75 E12.4244
G1 X119.34 Y120.61 E12.5258
;
; 'Wipe', 0.0 [RPM], 67.5 [mm/s]
G1 F15000
G1 X119.34 Y120.61 E12.5258
G1 F4050
G1 X118.18 Y121.75 E12.5258
G1 X117.65 Y122.23 E12.5258
G1 X117.62 Y122.07 E12.5258
G1 X117.62 Y114.47 E12.5258
;
; 'Perimeter', 180.0 [RPM], 60.1 [mm/s]
G1 F15000
G1 X125.65 Y115.01 E12.5258
G1 F3607.9
G1 X125.86 Y115.28 E12.5475
G1 X125.82 Y115.29 E12.5498
G1 X125.63 Y115.05 E12.5686
G1 X125.64 Y114.94 E12.5756
G1 X125.82 Y114.71 E12.5939
G1 X125.86 Y114.72 E12.5963
G1 X125.86 Y114.89 E12.6072
G1 X125.96 Y114.98 E12.615
G1 X125.96 Y115.02 E12.6178
G1 X125.86 Y115.11 E12.6256
G1 X125.86 Y115.28 E12.6364
G1 X125.54 Y115.15 E12.6581
;
; 'Wipe', 0.0 [RPM], 67.5 [mm/s]
G1 F15000
G1 X125.54 Y115.15 E12.6581
G1 F4050
G1 X125.86 Y115.28 E12.6581
G1 X125.86 Y115.11 E12.6581
G1 X125.96 Y115.02 E12.6581
G1 X125.96 Y114.98 E12.6581
G1 X125.86 Y114.89 E12.6581
G1 X125.86 Y114.72 E12.6581
G1 X125.82 Y114.71 E12.6581
G1 X125.64 Y114.94 E12.6581
G1 X125.63 Y115.05 E12.6581
G1 X125.82 Y115.29 E12.6581
G1 X125.86 Y115.28 E12.6581
G1 X125.65 Y115.01 E12.6581
;
; 'Loop', 180.0 [RPM], 60.1 [mm/s]
G1 F15000
G1 X139.93 Y121.57 E12.6581
G1 F3607.9
G1 X139.81 Y121.46 E12.6689
G1 X139.62 Y121.46 E12.6804
G1 X138.72 Y120.59 E12.7583
G1 X138.6 Y120.59 E12.7661
G1 X138.51 Y120.68 E12.7739
G1 X138.33 Y120.68 E12.785
G1 X138.25 Y120.77 E12.7928
G1 X137.89 Y120.77 E12.815
G1 X137.8 Y120.86 E12.8228
G1 X127.02 Y120.86 E13.4954
G1 X126.14 Y121.69 E13.5712
G1 X126.14 Y119.98 E13.6782
G1 X126.25 Y119.91 E13.6863
G1 X137.28 Y119.91 E14.3744
G1 X137.54 Y119.88 E14.3901
G1 X137.77 Y119.77 E14.4066
G1 X137.95 Y119.59 E14.4222
G1 X138.11 Y119.22 E14.4475
G1 X138.14 Y119.06 E14.4573
G1 X138.14 Y116.59 E14.6112
G1 X138.25 Y116.53 E14.6193
G1 X139.79 Y116.53 E14.7152
G1 X139.93 Y116.56 E14.7247
G1 X139.93 Y121.57 E15.0376
;
; 'Perimeter', 180.0 [RPM], 60.1 [mm/s]
G1 F15000
G1 X140.26 Y121.95 E15.0376
G1 F3607.9
G1 X140.44 Y122.26 E15.0595
G1 X140.29 Y122.21 E15.0691
G1 X140.03 Y122.2 E15.0855
G1 X139.98 Y122.17 E15.0893
G1 X139.96 Y121.83 E15.1101
G1 X139.87 Y121.75 E15.1179
G1 X139.87 Y121.57 E15.129
G1 X139.78 Y121.48 E15.1368
G1 X139.6 Y121.49 E15.1481
G1 X138.71 Y120.61 E15.226
G1 X138.61 Y120.61 E15.2324
G1 X138.52 Y120.69 E15.2402
G1 X138.35 Y120.69 E15.2513
G1 X138.26 Y120.78 E15.2591
G1 X137.9 Y120.78 E15.2813
G1 X137.82 Y120.87 E15.2891
G1 X127.03 Y120.87 E15.9617
G1 X126.05 Y121.83 E16.0474
G1 X125.63 Y122.19 E16.0817
G1 X125.63 Y119.83 E16.2293
G1 X125.89 Y119.55 E16.2527
G1 X126.12 Y119.41 E16.2698
G1 X137.26 Y119.41 E16.9643
G1 X137.4 Y119.4 E16.9734
G1 X137.52 Y119.33 E16.9814
G1 X137.63 Y119.04 E17.0014
G1 X137.63 Y118.92 E17.0086
G1 X137.63 Y116.09 E17.185
G1 X137.74 Y116.03 E17.1931
G1 X140.29 Y116.03 E17.3517
G1 X140.44 Y116.05 E17.3613
G1 X140.44 Y122.26 E17.7484
G1 X140.14 Y122.08 E17.7702
;
; 'Wipe', 0.0 [RPM], 67.5 [mm/s]
G1 F15000
G1 X140.14 Y122.08 E17.7702
G1 F4050
G1 X140.44 Y122.26 E17.7702
G1 X140.44 Y116.05 E17.7702
G1 X140.29 Y116.03 E17.7702
G1 X137.74 Y116.03 E17.7702
G1 X137.63 Y116.09 E17.7702
G1 X137.63 Y116.74 E17.7702
;
; 'Perimeter', 180.0 [RPM], 60.1 [mm/s]
G1 F15000
G1 X114 Y123.04 E17.7702
G1 F3607.9
G1 X114.03 Y123.01 E17.7732
G1 X114.3 Y122.99 E17.7896
G1 X114.49 Y122.91 E17.8024
G1 X136.14 Y122.91 E19.1529
G1 X140.67 Y122.89 E19.435
G1 X140.81 Y122.92 E19.4443
G1 X140.92 Y122.99 E19.4524
G1 X141.19 Y123.01 E19.4689
G1 X141.23 Y123.04 E19.4722
G1 X141.25 Y123.37 E19.4929
G1 X141.34 Y123.46 E19.5007
G1 X141.35 Y123.8 E19.5224
G1 X141.44 Y123.89 E19.5302
G1 X141.44 Y124.24 E19.5522
G1 X141.53 Y124.33 E19.5599
G1 X141.53 Y124.68 E19.5819
;
; 'Wipe', 0.0 [RPM], 67.5 [mm/s]
G1 F15000
G1 X141.53 Y124.68 E19.5819
G1 F4050
G1 X141.53 Y124.33 E19.5819
G1 X141.44 Y124.24 E19.5819
G1 X141.44 Y123.89 E19.5819
G1 X141.35 Y123.8 E19.5819
G1 X141.34 Y123.46 E19.5819
G1 X141.25 Y123.37 E19.5819
G1 X141.23 Y123.04 E19.5819
G1 X141.19 Y123.01 E19.5819
G1 X140.92 Y122.99 E19.5819
G1 X140.73 Y122.9 E19.5819
G1 X140.67 Y122.89 E19.5819
G1 X132.96 Y122.91 E19.5819
;
; 'Crown', 180.0 [RPM], 60.1 [mm/s]
G1 F15000
G1 X125.58 Y116.06 E19.5819
G1 F3607.9
G1 X125.6 Y116.08 E19.5834
G1 X125.6 Y119.05 E19.7687
G1 X125.65 Y119.35 E19.7877
;
; 'Solid', 180.0 [RPM], 60.1 [mm/s]
G1 F15000
G1 X127.21 Y120.69 E19.7877
G1 F3607.9
G1 X126.92 Y120.4 E19.813
G1 X126.63 Y120.82 E19.8447
G1 X126.8 Y120.99 E19.8595
;
; 'Solid', 180.0 [RPM], 60.1 [mm/s]
G1 F15000
G1 X127.57 Y120.35 E19.8595
G1 F3607.9
G1 X127.86 Y120.64 E19.8848
G1 X128.33 Y120.4 E19.9177
G1 X128.62 Y120.69 E19.9431
G1 X128.99 Y120.35 E19.9743
G1 X129.27 Y120.64 E19.9996
G1 X129.75 Y120.4 E20.0325
G1 X130.03 Y120.69 E20.0579
G1 X130.4 Y120.35 E20.0891
G1 X130.69 Y120.64 E20.1144
G1 X131.16 Y120.4 E20.1473
G1 X131.45 Y120.69 E20.1727
G1 X131.82 Y120.35 E20.2039
G1 X132.1 Y120.64 E20.2292
G1 X132.58 Y120.4 E20.2621
G1 X132.86 Y120.69 E20.2875
G1 X133.23 Y120.35 E20.3187
G1 X133.52 Y120.64 E20.344
G1 X133.99 Y120.4 E20.3769
G1 X134.28 Y120.69 E20.4023
G1 X134.64 Y120.35 E20.4335
G1 X134.93 Y120.64 E20.4588
G1 X135.4 Y120.4 E20.4917
G1 X135.69 Y120.69 E20.5171
G1 X136.06 Y120.35 E20.5483
G1 X136.35 Y120.64 E20.5736
G1 X136.82 Y120.4 E20.6066
G1 X137.11 Y120.69 E20.6319
G1 X137.77 Y120.64 E20.6732
G1 X137.52 Y120.4 E20.6948
G1 X138.04 Y120.21 E20.7293
G1 X138.45 Y120.62 E20.7656
G1 X139.39 Y120.86 E20.8261
G1 X138.39 Y119.86 E20.9143
G1 X138.59 Y119.35 E20.9482
G1 X139.42 Y120.18 E21.0211
G1 X139.42 Y119.47 E21.0652
G1 X138.65 Y118.7 E21.1333
G1 X138.65 Y117.99 E21.1774
G1 X139.42 Y118.76 E21.2455
G1 X139.42 Y118.06 E21.2896
G1 X138.63 Y117.27 E21.3595
G1 X139.09 Y117.02 E21.3922
G1 X139.46 Y117.39 E21.4245
;
; 'Wipe', 0.0 [RPM], 67.5 [mm/s]
G1 F15000
G1 X139.46 Y117.39 E21.4245
G1 F4050
G1 X139.09 Y117.02 E21.4245
G1 X138.63 Y117.27 E21.4245
G1 X139.42 Y118.06 E21.4245
G1 X139.42 Y118.76 E21.4245
G1 X138.65 Y117.99 E21.4245
G1 X138.65 Y118.7 E21.4245
G1 X139.42 Y119.47 E21.4245
G1 X139.42 Y120.18 E21.4245
G1 X138.59 Y119.35 E21.4245
G1 X138.39 Y119.86 E21.4245
G1 X139.39 Y120.86 E21.4245
G1 X138.45 Y120.62 E21.4245
;
; 'Solid', 180.0 [RPM], 60.1 [mm/s]
G1 F15000
G1 X135.6 Y108.58 E21.4245
G1 F3607.9
G1 X136.08 Y109.06 E21.4669
G1 X135.9 Y109.59 E21.5017
G1 X134.97 Y108.66 E21.584
G1 X134.26 Y108.66 E21.6281
G1 X135.18 Y109.57 E21.709
G1 X134.47 Y109.57 E21.7531
G1 X133.56 Y108.66 E21.834
G1 X132.85 Y108.66 E21.8781
G1 X133.77 Y109.57 E21.959
G1 X133.06 Y109.57 E22.0031
G1 X132.14 Y108.66 E22.084
G1 X131.43 Y108.66 E22.1281
G1 X132.35 Y109.57 E22.209
G1 X131.65 Y109.57 E22.2531
G1 X130.73 Y108.66 E22.3341
G1 X130.02 Y108.66 E22.3782
G1 X130.94 Y109.57 E22.4591
G1 X130.23 Y109.57 E22.5032
G1 X129.31 Y108.66 E22.5841
G1 X128.61 Y108.66 E22.6282
G1 X129.52 Y109.57 E22.7091
G1 X128.82 Y109.57 E22.7532
G1 X127.9 Y108.66 E22.8341
G1 X127.19 Y108.66 E22.8782
G1 X128.11 Y109.57 E22.9591
G1 X127.4 Y109.57 E23.0032
G1 X126.49 Y108.66 E23.0841
G1 X125.78 Y108.66 E23.1282
G1 X126.7 Y109.57 E23.2092
G1 X125.99 Y109.57 E23.2532
G1 X125.07 Y108.66 E23.3342
G1 X124.36 Y108.66 E23.3783
G1 X125.38 Y109.68 E23.4682
G1 X124.95 Y109.95 E23.5001
G1 X123.66 Y108.66 E23.6144
G1 X122.95 Y108.66 E23.6585
G1 X124.66 Y110.37 E23.8097
G1 X124.58 Y110.99 E23.8488
G1 X122.24 Y108.66 E24.0548
G1 X121.54 Y108.66 E24.0989
G1 X124.57 Y111.69 E24.3663
G1 X124.57 Y112.4 E24.4104
G1 X120.83 Y108.66 E24.7402
G1 X120.12 Y108.66 E24.7843
G1 X124.31 Y112.85 E25.1539
G1 X123.64 Y112.89 E25.1957
G1 X119.41 Y108.66 E25.5686
G1 X118.71 Y108.66 E25.6127
G1 X123.28 Y113.23 E26.0162
G1 X123.28 Y113.94 E26.0605
G1 X118.65 Y109.3 E26.4694
G1 X118.65 Y110.01 E26.5135
G1 X123.28 Y114.65 E26.9224
G1 X123.28 Y115.36 E26.9665
G1 X118.65 Y110.72 E27.3754
G1 X118.65 Y111.43 E27.4195
G1 X123.28 Y116.06 E27.8285
G1 X123.28 Y116.77 E27.8726
G1 X118.65 Y112.13 E28.2815
G1 X118.65 Y112.84 E28.3256
G1 X123.28 Y117.48 E28.7345
G1 X123.28 Y118.18 E28.7786
G1 X118.65 Y113.55 E29.1875
G1 X118.65 Y114.25 E29.2316
G1 X123.28 Y118.89 E29.6406
G1 X123.28 Y119.6 E29.6847
G1 X118.65 Y114.96 E30.0936
G1 X118.65 Y115.67 E30.1377
G1 X123.28 Y120.3 E30.5466
G1 X122.57 Y120.3 E30.591
G1 X118.65 Y116.38 E30.9371
G1 X118.65 Y117.08 E30.9812
G1 X121.86 Y120.3 E31.2649
G1 X121.16 Y120.3 E31.309
G1 X118.65 Y117.79 E31.5304
G1 X118.65 Y118.5 E31.5745
G1 X120.45 Y120.3 E31.7336
G1 X119.74 Y120.3 E31.7777
G1 X118.65 Y119.2 E31.8744
G1 X118.65 Y119.91 E31.9184
G1 X119.03 Y120.3 E31.9523
G1 X118.65 Y120.62 E31.9836
G1 X118.63 Y120.6 E31.9855
;
; 'Wipe', 0.0 [RPM], 67.5 [mm/s]
G1 F15000
G1 X118.63 Y120.6 E31.9855
G1 F4050
G1 X118.65 Y120.62 E31.9855
G1 X119.03 Y120.3 E31.9855
G1 X118.65 Y119.91 E31.9855
G1 X118.65 Y119.2 E31.9855
G1 X119.74 Y120.3 E31.9855
G1 X120.45 Y120.3 E31.9855
G1 X118.65 Y118.5 E31.9855
G1 X118.65 Y117.79 E31.9855
G1 X121.16 Y120.3 E31.9855
;
; 'Solid', 180.0 [RPM], 60.1 [mm/s]
G1 F15000
G1 X141.06 Y123.94 E31.9855
G1 F3607.9
G1 X141.23 Y124.1 E31.9997
G1 X141.55 Y125.14 E32.0674
G1 X140.34 Y123.93 E32.174
G1 X139.63 Y123.93 E32.2182
G1 X141.26 Y125.55 E32.3616
G1 X140.91 Y125.91 E32.3928
G1 X138.93 Y123.93 E32.5674
G1 X138.22 Y123.93 E32.6115
G1 X140.55 Y126.26 E32.8173
G1 X140.2 Y126.61 E32.8485
G1 X137.51 Y123.93 E33.0855
G1 X136.81 Y123.93 E33.1295
G1 X139.85 Y126.97 E33.3977
G1 X139.49 Y127.32 E33.4289
G1 X136.1 Y123.93 E33.7282
G1 X135.39 Y123.93 E33.7723
G1 X139.14 Y127.67 E34.1028
G1 X138.79 Y128.03 E34.134
G1 X134.68 Y123.93 E34.4957
G1 X133.98 Y123.93 E34.5398
G1 X138.43 Y128.38 E34.9327
G1 X138.08 Y128.74 E34.9639
G1 X133.27 Y123.93 E35.3879
G1 X132.56 Y123.93 E35.432
G1 X137.73 Y129.09 E35.8873
G1 X137.37 Y129.44 E35.9185
G1 X131.86 Y123.93 E36.4049
G1 X131.15 Y123.93 E36.449
G1 X137.02 Y129.8 E36.9666
G1 X136.66 Y130.15 E36.9978
G1 X130.44 Y123.93 E37.5466
G1 X129.73 Y123.93 E37.5907
G1 X136.31 Y130.5 E38.1706
G1 X135.96 Y130.86 E38.2018
G1 X129.03 Y123.93 E38.813
G1 X128.32 Y123.93 E38.8571
G1 X135.6 Y131.21 E39.4994
G1 X135.25 Y131.56 E39.5306
G1 X127.61 Y123.93 E40.2041
G1 X126.91 Y123.93 E40.2482
G1 X134.9 Y131.92 E40.9529
G1 X134.54 Y132.27 E40.9841
G1 X126.2 Y123.93 E41.7199
G1 X125.49 Y123.93 E41.764
G1 X134.19 Y132.62 E42.5311
G1 X133.84 Y132.98 E42.5623
G1 X124.79 Y123.93 E43.3605
G1 X124.08 Y123.93 E43.4046
G1 X133.48 Y133.33 E44.234
G1 X133.13 Y133.69 E44.2652
G1 X123.37 Y123.93 E45.1258
G1 X122.66 Y123.93 E45.1699
G1 X132.78 Y134.04 E46.0617
G1 X132.42 Y134.39 E46.0929
G1 X121.96 Y123.93 E47.0158
G1 X121.25 Y123.93 E47.0599
G1 X132.07 Y134.75 E48.0141
G1 X131.71 Y135.1 E48.0453
G1 X120.54 Y123.93 E49.0306
G1 X119.84 Y123.93 E49.0747
G1 X131.36 Y135.45 E50.0912
G1 X131.01 Y135.81 E50.1224
G1 X119.13 Y123.93 E51.1701
G1 X118.42 Y123.93 E51.2142
G1 X130.65 Y136.16 E52.293
G1 X130.3 Y136.51 E52.3242
G1 X117.71 Y123.93 E53.4343
G1 X117.01 Y123.93 E53.4784
G1 X129.95 Y136.87 E54.6196
G1 X129.59 Y137.22 E54.6508
G1 X116.3 Y123.93 E55.8232
G1 X115.59 Y123.93 E55.8673
G1 X129.24 Y137.57 E57.0709
G1 X128.89 Y137.93 E57.1021
G1 X114.88 Y123.92 E58.3376
G1 X114.26 Y124.01 E58.3766
G1 X128.53 Y138.28 E59.6354
G1 X128.18 Y138.64 E59.6666
G1 X113.77 Y124.23 E60.9372
G1 X113.74 Y124.9 E60.979
G1 X127.83 Y138.99 E62.2217
;
; 'Wipe', 0.0 [RPM], 67.5 [mm/s]
G1 F15000
G1 X127.83 Y138.99 E62.2217
G1 F4050
G1 X113.74 Y124.9 E62.2217
;
; 'Solid', 180.0 [RPM], 60.1 [mm/s]
G1 F15000
G1 X143.01 Y115.28 E62.2217
G1 F3607.9
G1 X147.27 Y119.54 E62.5974
G1 X147.62 Y119.19 E62.6286
G1 X144.19 Y115.75 E62.9315
G1 X145.25 Y116.11 E63.0012
G1 X147.98 Y118.84 E63.2418
G1 X148.33 Y118.48 E63.273
G1 X145.56 Y115.71 E63.5174
G1 X146.27 Y115.71 E63.5615
G1 X148.69 Y118.13 E63.7747
G1 X149.04 Y117.78 E63.8059
G1 X146.6 Y115.34 E64.021
G1 X146.95 Y114.98 E64.0522
G1 X149.39 Y117.42 E64.2674
G1 X149.75 Y117.07 E64.2985
G1 X146.95 Y114.28 E64.5449
G1 X147.31 Y113.92 E64.5761
G1 X150.1 Y116.71 E64.8224
G1 X150.45 Y116.36 E64.8536
G1 X147.68 Y113.59 E65.098
G1 X147.68 Y112.88 E65.1421
G1 X150.81 Y116.01 E65.4177
G1 X151.16 Y115.65 E65.4488
G1 X147.68 Y112.18 E65.7556
G1 X147.68 Y111.47 E65.7997
G1 X151.51 Y115.3 E66.1376
G1 X151.87 Y114.95 E66.1688
G1 X147.68 Y110.76 E66.5379
G1 X147.68 Y110.05 E66.582
G1 X152.22 Y114.59 E66.9824
G1 X152.57 Y114.24 E67.0135
G1 X147.73 Y109.39 E67.4412
G1 X147.37 Y108.33 E67.5109
G1 X152.93 Y113.89 E68.0009
G1 X153.28 Y113.53 E68.0321
G1 X147.61 Y107.86 E68.5326
;
; 'Wipe', 0.0 [RPM], 67.5 [mm/s]
G1 F15000
G1 X147.61 Y107.86 E68.5326
G1 F4050
G1 X153.28 Y113.53 E68.5326
G1 X152.93 Y113.89 E68.5326
G1 X147.37 Y108.33 E68.5326
;
; 'Solid', 180.0 [RPM], 60.1 [mm/s]
G1 F15000
G1 X144.78 Y117.76 E68.5326
G1 F3607.9
G1 X146.92 Y119.9 E68.7212
G1 X146.56 Y120.25 E68.7524
G1 X145.21 Y118.89 E68.8721
G1 X145.21 Y119.6 E68.9162
G1 X146.21 Y120.6 E69.0046
G1 X145.86 Y120.96 E69.0358
G1 X145.19 Y120.29 E69.0951
G1 X144.83 Y120.64 E69.1263
G1 X145.5 Y121.31 E69.1855
;
; 'Wipe', 0.0 [RPM], 67.5 [mm/s]
G1 F15000
G1 X145.5 Y121.31 E69.1855
G1 F4050
G1 X144.83 Y120.64 E69.1855
G1 X145.19 Y120.29 E69.1855
G1 X145.86 Y120.96 E69.1855
G1 X146.21 Y120.6 E69.1855
G1 X145.21 Y119.6 E69.1855
G1 X145.21 Y118.89 E69.1855
G1 X146.56 Y120.25 E69.1855
G1 X146.92 Y119.9 E69.1855
G1 X144.78 Y117.76 E69.1855
;
; 'Loop', 180.0 [RPM], 60.1 [mm/s]
G1 F15000
G1 X139.93 Y113.44 E69.1855
G1 F3607.9
G1 X139.78 Y113.47 E69.1949
G1 X138.25 Y113.47 E69.2909
G1 X139.08 Y112.59 E69.3666
G1 X139.08 Y109.1 E69.5843
G1 X138.17 Y108.14 E69.6667
G1 X139.86 Y108.14 E69.7722
G1 X139.93 Y108.25 E69.7802
G1 X139.93 Y113.44 E70.1041
;
; 'Perimeter', 180.0 [RPM], 60.1 [mm/s]
G1 F15000
G1 X140.25 Y113.67 E70.1041
G1 F3607.9
G1 X140.44 Y113.95 E70.1255
G1 X140.29 Y113.97 E70.1351
G1 X137.92 Y113.97 E70.2827
G1 X137.95 Y113.94 E70.2858
G1 X137.94 Y113.74 E70.2977
G1 X139.07 Y112.58 E70.3991
G1 X139.07 Y109.11 E70.6151
G1 X137.85 Y107.86 E70.7242
G1 X137.86 Y107.67 E70.7363
G1 X137.84 Y107.64 E70.7384
G1 X140.36 Y107.64 E70.8957
G1 X140.44 Y107.74 E70.9035
G1 X140.44 Y113.95 E71.2906
G1 X140.12 Y113.82 E71.312
;
; 'Wipe', 0.0 [RPM], 67.5 [mm/s]
G1 F15000
G1 X140.12 Y113.82 E71.312
G1 F4050
G1 X140.44 Y113.95 E71.312
G1 X140.44 Y107.74 E71.312
G1 X140.36 Y107.64 E71.312
G1 X137.84 Y107.64 E71.312
G1 X137.86 Y107.67 E71.312
G1 X137.85 Y107.86 E71.312
G1 X138.28 Y108.31 E71.312
;
; 'Solid', 180.0 [RPM], 60.1 [mm/s]
G1 F15000
G1 X139.35 Y113.03 E71.312
G1 F3607.9
G1 X139.23 Y112.91 E71.3227
G1 X139.44 Y112.42 E71.3561
G1 X139.16 Y112.14 E71.3814
G1 X139.5 Y111.77 E71.4126
G1 X139.21 Y111.48 E71.4378
G1 X139.44 Y111.01 E71.4708
G1 X139.16 Y110.72 E71.496
G1 X139.5 Y110.35 E71.5272
G1 X139.21 Y110.07 E71.5525
G1 X139.44 Y109.59 E71.5854
G1 X139.16 Y109.31 E71.6107
G1 X139.38 Y108.82 E71.644
G1 X139.19 Y108.63 E71.6604
;
; 'Wipe', 0.0 [RPM], 67.5 [mm/s]
G1 F15000
G1 X139.19 Y108.63 E71.6604
G1 F4050
G1 X139.38 Y108.82 E71.6604
G1 X139.16 Y109.31 E71.6604
G1 X139.44 Y109.59 E71.6604
G1 X139.21 Y110.07 E71.6604
G1 X139.5 Y110.35 E71.6604
G1 X139.16 Y110.72 E71.6604
G1 X139.44 Y111.01 E71.6604
G1 X139.21 Y111.48 E71.6604
G1 X139.5 Y111.77 E71.6604
G1 X139.16 Y112.14 E71.6604
G1 X139.44 Y112.42 E71.6604
G1 X139.23 Y112.91 E71.6604
G1 X139.35 Y113.03 E71.6604
;
; 'Loop', 180.0 [RPM], 60.1 [mm/s]
G1 F15000
G1 X135.45 Y112.85 E71.6604
G1 F3607.9
G1 X136.58 Y111.78 E71.7574
G1 X136.58 Y113.98 E71.8946
G1 X136.51 Y114.32 E71.9165
G1 X136.46 Y114.38 E71.9217
G1 X135.42 Y114.41 E71.9864
G1 X135.33 Y114.5 E71.9942
;
; 'Wipe', 0.0 [RPM], 67.5 [mm/s]
G1 F15000
G1 X135.33 Y114.5 E71.9942
G1 F4050
G1 X135.42 Y114.41 E71.9942
G1 X136.46 Y114.38 E71.9942
G1 X136.51 Y114.32 E71.9942
G1 X136.58 Y113.98 E71.9942
G1 X136.58 Y111.78 E71.9942
G1 X135.45 Y112.85 E71.9942
;
; 'Perimeter', 180.0 [RPM], 60.1 [mm/s]
G1 F15000
G1 X135.44 Y112.84 E71.9942
G1 F3607.9
G1 X136.6 Y111.7 E72.0955
G1 X137.05 Y111.31 E72.1329
G1 X137.08 Y111.45 E72.1422
G1 X137.08 Y114.1 E72.3076
G1 X137.03 Y114.25 E72.3173
G1 X136.91 Y114.31 E72.3255
G1 X136.74 Y114.32 E72.3359
G1 X136.66 Y114.41 E72.3437
G1 X136.61 Y114.41 E72.3469
G1 X135.43 Y114.42 E72.4202
G1 X135.34 Y114.51 E72.428
;
; 'Solid', 180.0 [RPM], 60.1 [mm/s]
G1 F15000
G1 X136.14 Y112.66 E72.428
G1 F3607.9
G1 X136.05 Y112.56 E72.4364
G1 X135.66 Y112.88 E72.4678
G1 X136.07 Y113.29 E72.504
G1 X136.04 Y113.97 E72.5464
G1 X135.31 Y113.24 E72.6112
G1 X134.6 Y113.24 E72.6553
G1 X135.63 Y114.27 E72.7465
G1 X134.95 Y114.29 E72.7893
G1 X133.89 Y113.24 E72.8823
G1 X133.19 Y113.24 E72.9264
G1 X134.95 Y115 E73.0816
G1 X134.95 Y115.7 E73.1257
G1 X132.48 Y113.24 E73.3432
G1 X131.77 Y113.24 E73.3873
G1 X134.97 Y116.43 E73.6692
G1 X134.61 Y116.79 E73.7004
G1 X131.06 Y113.24 E74.0134
G1 X130.36 Y113.24 E74.0575
G1 X133.89 Y116.76 E74.3686
G1 X133.18 Y116.76 E74.4127
G1 X129.65 Y113.24 E74.7238
G1 X128.94 Y113.24 E74.7679
G1 X132.47 Y116.76 E75.079
G1 X131.76 Y116.76 E75.1231
G1 X128.24 Y113.24 E75.4342
G1 X128.24 Y113.94 E75.4783
G1 X131.06 Y116.76 E75.7271
G1 X130.35 Y116.76 E75.7712
G1 X128.21 Y114.63 E75.9596
G1 X127.85 Y114.98 E75.9907
G1 X129.64 Y116.76 E76.1485
G1 X128.94 Y116.76 E76.1926
G1 X128.24 Y116.06 E76.2543
G1 X128.24 Y116.77 E76.2984
G1 X128.25 Y116.79 E76.2996
;
; 'Wipe', 0.0 [RPM], 67.5 [mm/s]
G1 F15000
G1 X128.25 Y116.79 E76.2996
G1 F4050
G1 X128.24 Y116.77 E76.2996
G1 X128.24 Y116.06 E76.2996
G1 X128.94 Y116.76 E76.2996
G1 X129.64 Y116.76 E76.2996
G1 X127.85 Y114.98 E76.2996
G1 X128.21 Y114.63 E76.2996
G1 X130.35 Y116.76 E76.2996
G1 X131.06 Y116.76 E76.2996
G1 X128.24 Y113.94 E76.2996
; fan off
M107
G1 F210
G1 X128.24 Y113.94 Z1.5 E76.2996
; END_LAYER_OBJECT z=1.20
; Reset extruder pos
G92 E0
; BEGIN_LAYER_OBJECT z=1.50
; fan on
M106
;
; 'Perimeter', 180.0 [RPM], 60.1 [mm/s]
G1 F15000
G1 X117.62 Y107.75 E0
G1 F3607.9
G1 X117.69 Y107.64 E0.008
G1 X137.01 Y107.64 E1.2126
G1 X137.08 Y107.74 E1.2204
G1 X137.08 Y110.59 E1.3984
G1 X126.1 Y110.59 E2.0833
G1 X125.78 Y110.6 E2.1033
G1 X125.67 Y110.67 E2.1113
G1 X125.59 Y110.92 E2.1277
G1 X125.59 Y111.1 E2.1391
G1 X125.59 Y113.77 E2.3053
G1 X125.56 Y113.92 E2.3149
G1 X125.43 Y113.91 E2.3231
G1 X125.39 Y113.78 E2.3319
G1 X125.39 Y113.6 E2.3429
G1 X125.2 Y113.43 E2.3585
G1 X125.02 Y113.44 E2.3699
G1 X124.75 Y113.18 E2.3933
G1 X124.57 Y113.18 E2.4045
G1 X124.4 Y113 E2.4201
G1 X124.22 Y113 E2.4312
G1 X124.13 Y112.91 E2.439
G1 X123.95 Y112.92 E2.4501
G1 X123.86 Y112.83 E2.4579
;
; 'Loop', 180.0 [RPM], 60.1 [mm/s]
G1 F15000
G1 X118.13 Y108.3 E2.4579
G1 F3607.9
G1 X118.13 Y121.74 E3.2957
G1 X119.33 Y120.59 E3.399
;
; 'Loop', 180.0 [RPM], 60.1 [mm/s]
G1 F15000
G1 X118.13 Y108.26 E3.399
G1 F3607.9
G1 X118.19 Y108.14 E3.4072
G1 X136.5 Y108.14 E4.549
G1 X136.58 Y108.24 E4.5569
G1 X136.58 Y110.09 E4.6718
G1 X126.07 Y110.09 E5.3268
G1 X125.7 Y110.11 E5.3501
G1 X125.41 Y110.23 E5.3698
G1 X125.23 Y110.41 E5.3854
G1 X125.12 Y110.65 E5.4019
G1 X125.08 Y111.08 E5.4289
G1 X125.08 Y113.38 E5.5722
G1 X125.05 Y113.41 E5.5751
G1 X124.77 Y113.16 E5.5985
G1 X124.59 Y113.16 E5.6098
G1 X124.41 Y112.99 E5.6254
G1 X124.23 Y112.99 E5.6366
G1 X124.14 Y112.9 E5.6444
G1 X123.96 Y112.9 E5.6556
G1 X123.87 Y112.82 E5.6634
;
; 'Wipe', 0.0 [RPM], 67.5 [mm/s]
G1 F15000
G1 X123.87 Y112.82 E5.6634
G1 F4050
G1 X123.96 Y112.9 E5.6634
G1 X124.14 Y112.9 E5.6634
G1 X124.23 Y112.99 E5.6634
G1 X124.41 Y112.99 E5.6634
G1 X124.59 Y113.16 E5.6634
G1 X124.77 Y113.16 E5.6634
G1 X125.05 Y113.41 E5.6634
G1 X125.08 Y113.38 E5.6634
G1 X125.08 Y111.08 E5.6634
G1 X125.11 Y110.7 E5.6634
G1 X125.23 Y110.41 E5.6634
G1 X125.41 Y110.23 E5.6634
G1 X125.65 Y110.12 E5.6634
G1 X126.07 Y110.09 E5.6634
G1 X130.67 Y110.09 E5.6634
;
; 'Perimeter', 180.0 [RPM], 60.1 [mm/s]
G1 F15000
G1 X117.62 Y107.75 E5.6634
G1 F3607.9
G1 X117.62 Y122.07 E6.5563
G1 X117.65 Y122.23 E6.566
G1 X118.18 Y121.75 E6.611
G1 X119.34 Y120.61 E6.7123
;
; 'Wipe', 0.0 [RPM], 67.5 [mm/s]
G1 F15000
G1 X119.34 Y120.61 E6.7123
G1 F4050
G1 X118.18 Y121.75 E6.7123
G1 X117.65 Y122.23 E6.7123
G1 X117.62 Y122.07 E6.7123
G1 X117.62 Y114.47 E6.7123
;
; 'Loop', 180.0 [RPM], 60.1 [mm/s]
G1 F15000
G1 X113.81 Y123.74 E6.7123
G1 F3607.9
G1 X113.91 Y123.65 E6.7201
G1 X113.93 Y123.5 E6.7298
G1 X114.34 Y123.41 E6.7559
G1 X137.88 Y123.41 E8.2242
G1 X141.59 Y123.4 E8.4551
G1 X141.95 Y123.42 E8.4782
G1 X142.12 Y123.41 E8.4885
G1 X142.26 Y123.37 E8.4975
G1 X142.48 Y123.24 E8.5136
G1 X143.37 Y124.08 E8.5899
;
; 'Wipe', 0.0 [RPM], 67.5 [mm/s]
G1 F15000
G1 X143.37 Y124.08 E8.5899
G1 F4050
G1 X142.48 Y123.24 E8.5899
G1 X142.26 Y123.37 E8.5899
G1 X141.95 Y123.42 E8.5899
G1 X141.59 Y123.4 E8.5899
G1 X141.39 Y123.41 E8.5899
G1 X133.64 Y123.41 E8.5899
;
; 'Perimeter', 180.0 [RPM], 60.1 [mm/s]
G1 F15000
G1 X113.9 Y123.14 E8.5899
G1 F3607.9
G1 X113.88 Y123.63 E8.6202
G1 X113.79 Y123.72 E8.628
G1 X113.79 Y124.67 E8.6875
;
; 'Wipe', 0.0 [RPM], 67.5 [mm/s]
G1 F15000
G1 X113.79 Y124.67 E8.6875
G1 F4050
G1 X113.79 Y123.72 E8.6875
G1 X113.88 Y123.63 E8.6875
G1 X113.9 Y123.14 E8.6875
;
; 'Loop', 180.0 [RPM], 60.1 [mm/s]
G1 F15000
G1 X115.62 Y120.95 E8.6875
G1 F3607.9
G1 X114.7 Y121.81 E8.7659
G1 X114.7 Y108.19 E9.6154
G1 X114.84 Y108.14 E9.624
G1 X116.53 Y108.14 E9.7296
G1 X115.62 Y109.1 E9.812
G1 X115.62 Y120.95 E10.5507
;
; 'Perimeter', 180.0 [RPM], 60.1 [mm/s]
G1 F15000
G1 X115.4 Y120.74 E10.5507
G1 F3607.9
G1 X115.63 Y120.96 E10.5706
G1 X114.56 Y122.01 E10.6642
G1 X114.28 Y122.23 E10.6862
G1 X114.2 Y122.14 E10.694
G1 X114.2 Y107.68 E11.5954
G1 X114.33 Y107.64 E11.6042
G1 X116.85 Y107.64 E11.7614
G1 X116.83 Y107.67 E11.7635
G1 X116.85 Y107.86 E11.7756
G1 X115.63 Y109.11 E11.8847
G1 X115.63 Y120.96 E12.6234
G1 X115.31 Y120.95 E12.6433
;
; 'Wipe', 0.0 [RPM], 67.5 [mm/s]
G1 F15000
G1 X115.31 Y120.95 E12.6433
G1 F4050
G1 X115.63 Y120.96 E12.6433
G1 X115.63 Y111.24 E12.6433
;
; 'Loop', 180.0 [RPM], 60.1 [mm/s]
G1 F15000
G1 X126.14 Y120.1 E12.6433
G1 F3607.9
G1 X126.14 Y121.69 E12.7426
G1 X127.02 Y120.86 E12.8183
G1 X137.8 Y120.86 E13.4909
G1 X137.89 Y120.77 E13.4987
G1 X138.25 Y120.77 E13.5209
G1 X138.33 Y120.68 E13.5287
G1 X138.51 Y120.68 E13.5398
G1 X138.6 Y120.59 E13.5476
G1 X138.78 Y120.6 E13.5588
;
; 'Loop', 180.0 [RPM], 60.1 [mm/s]
G1 F15000
G1 X126.14 Y119.98 E13.5588
G1 F3607.9
G1 X126.25 Y119.91 E13.5669
G1 X137.28 Y119.91 E14.2549
G1 X137.54 Y119.88 E14.2707
G1 X137.77 Y119.77 E14.2872
G1 X137.95 Y119.59 E14.3028
G1 X138.11 Y119.22 E14.3281
G1 X138.14 Y119.06 E14.3379
G1 X138.14 Y116.59 E14.4918
G1 X138.25 Y116.53 E14.4998
G1 X140.85 Y116.53 E14.662
G1 X140.89 Y116.66 E14.6705
G1 X140.89 Y121.65 E14.9819
G1 X140.81 Y121.75 E14.9897
G1 X140.69 Y121.8 E14.998
G1 X140.6 Y121.72 E15.0055
G1 X140.59 Y121.55 E15.0162
G1 X139.7 Y120.68 E15.0941
;
; 'Wipe', 0.0 [RPM], 67.5 [mm/s]
G1 F15000
G1 X139.7 Y120.68 E15.0941
G1 F4050
G1 X140.59 Y121.55 E15.0941
G1 X140.6 Y121.72 E15.0941
G1 X140.69 Y121.8 E15.0941
G1 X140.81 Y121.75 E15.0941
G1 X140.89 Y121.65 E15.0941
G1 X140.89 Y116.66 E15.0941
G1 X140.85 Y116.53 E15.0941
G1 X138.25 Y116.53 E15.0941
G1 X138.14 Y116.59 E15.0941
G1 X138.14 Y116.94 E15.0941
;
; 'Perimeter', 180.0 [RPM], 60.1 [mm/s]
G1 F15000
G1 X125.63 Y119.9 E15.0941
G1 F3607.9
G1 X125.63 Y122.19 E15.2375
G1 X126.05 Y121.83 E15.2718
G1 X127.03 Y120.87 E15.3575
G1 X137.82 Y120.87 E16.0301
G1 X137.9 Y120.78 E16.0379
G1 X138.26 Y120.78 E16.0601
G1 X138.35 Y120.69 E16.0679
G1 X138.52 Y120.69 E16.079
G1 X138.61 Y120.61 E16.0868
G1 X138.79 Y120.61 E16.0979
;
; 'Perimeter', 180.0 [RPM], 60.1 [mm/s]
G1 F15000
G1 X125.63 Y119.83 E16.0979
G1 F3607.9
G1 X125.89 Y119.55 E16.1213
G1 X126.12 Y119.41 E16.1383
G1 X137.26 Y119.41 E16.8329
G1 X137.4 Y119.4 E16.842
G1 X137.52 Y119.33 E16.85
G1 X137.63 Y119.04 E16.8699
G1 X137.63 Y118.92 E16.8772
G1 X137.63 Y116.09 E17.0536
G1 X137.74 Y116.03 E17.0616
G1 X141.28 Y116.03 E17.2821
G1 X141.4 Y116.15 E17.293
G1 X141.4 Y122.16 E17.6677
G1 X141.09 Y122.2 E17.6876
G1 X140.95 Y122.23 E17.6967
G1 X140.76 Y122.09 E17.7111
G1 X140.76 Y121.92 E17.7218
G1 X140.58 Y121.75 E17.7374
G1 X140.57 Y121.57 E17.7483
G1 X139.68 Y120.7 E17.8263
;
; 'Wipe', 0.0 [RPM], 67.5 [mm/s]
G1 F15000
G1 X139.68 Y120.7 E17.8263
G1 F4050
G1 X140.57 Y121.57 E17.8263
G1 X140.58 Y121.75 E17.8263
G1 X140.76 Y121.92 E17.8263
G1 X140.76 Y122.09 E17.8263
G1 X140.95 Y122.23 E17.8263
G1 X141.09 Y122.2 E17.8263
G1 X141.4 Y122.16 E17.8263
G1 X141.4 Y116.15 E17.8263
G1 X141.28 Y116.03 E17.8263
G1 X139.93 Y116.03 E17.8263
;
; 'Perimeter', 180.0 [RPM], 60.1 [mm/s]
G1 F15000
G1 X125.65 Y115.01 E17.8263
G1 F3607.9
G1 X125.86 Y115.28 E17.8479
G1 X125.82 Y115.29 E17.8503
G1 X125.63 Y115.05 E17.8691
G1 X125.64 Y114.94 E17.8761
G1 X125.82 Y114.71 E17.8944
G1 X125.86 Y114.72 E17.8968
G1 X125.86 Y114.89 E17.9076
G1 X125.96 Y114.98 E17.9154
G1 X125.96 Y115.02 E17.9182
G1 X125.86 Y115.11 E17.926
G1 X125.86 Y115.28 E17.9369
G1 X125.54 Y115.15 E17.9586
;
; 'Wipe', 0.0 [RPM], 67.5 [mm/s]
G1 F15000
G1 X125.54 Y115.15 E17.9586
G1 F4050
G1 X125.86 Y115.28 E17.9586
G1 X125.86 Y115.11 E17.9586
G1 X125.96 Y115.02 E17.9586
G1 X125.96 Y114.98 E17.9586
G1 X125.86 Y114.89 E17.9586
G1 X125.86 Y114.72 E17.9586
G1 X125.82 Y114.71 E17.9586
G1 X125.64 Y114.94 E17.9586
G1 X125.63 Y115.05 E17.9586
G1 X125.82 Y115.29 E17.9586
G1 X125.86 Y115.28 E17.9586
G1 X125.65 Y115.01 E17.9586
;
; 'Perimeter', 180.0 [RPM], 60.1 [mm/s]
G1 F15000
G1 X141.87 Y115.22 E17.9586
G1 F3607.9
G1 X142.11 Y115.45 E17.9792
G1 X142.07 Y115.48 E17.9825
G1 X141.8 Y115.49 E17.9993
G1 X141.65 Y115.37 E18.0113
G1 X141.66 Y115.34 E18.013
G1 X141.82 Y115.16 E18.0286
G1 X141.81 Y114.97 E18.0401
G1 X142.22 Y114.97 E18.0656
G1 X142.23 Y115.03 E18.0691
G1 X142.14 Y115.12 E18.0769
G1 X142.11 Y115.45 E18.0976
G1 X141.78 Y115.42 E18.1183
;
; 'Wipe', 0.0 [RPM], 67.5 [mm/s]
G1 F15000
G1 X141.78 Y115.42 E18.1183
G1 F4050
G1 X142.11 Y115.45 E18.1183
G1 X142.14 Y115.12 E18.1183
G1 X142.23 Y115.03 E18.1183
G1 X142.22 Y114.97 E18.1183
G1 X141.81 Y114.97 E18.1183
G1 X141.82 Y115.16 E18.1183
G1 X141.66 Y115.34 E18.1183
G1 X141.65 Y115.37 E18.1183
G1 X141.8 Y115.49 E18.1183
G1 X142.07 Y115.48 E18.1183
G1 X142.11 Y115.45 E18.1183
G1 X141.87 Y115.22 E18.1183
;
; 'Perimeter', 180.0 [RPM], 60.1 [mm/s]
G1 F15000
G1 X113.9 Y123.12 E18.1183
G1 F3607.9
G1 X113.95 Y122.99 E18.1268
G1 X114.13 Y122.91 E18.1394
G1 X140.03 Y122.91 E19.7545
G1 X141.36 Y122.91 E19.8371
G1 X141.44 Y122.91 E19.8424
G1 X141.5 Y122.95 E19.8467
G1 X141.65 Y122.94 E19.8563
G1 X141.72 Y122.9 E19.8615
G1 X141.98 Y122.92 E19.8776
G1 X142.12 Y122.88 E19.8867
G1 X142.49 Y123.19 E19.9167
G1 X143.38 Y124.07 E19.9947
;
; 'Wipe', 0.0 [RPM], 67.5 [mm/s]
G1 F15000
G1 X143.38 Y124.07 E19.9947
G1 F4050
G1 X142.49 Y123.19 E19.9947
G1 X142.12 Y122.88 E19.9947
G1 X141.98 Y122.92 E19.9947
G1 X141.72 Y122.9 E19.9947
G1 X141.65 Y122.94 E19.9947
G1 X141.5 Y122.95 E19.9947
G1 X141.44 Y122.91 E19.9947
G1 X141.36 Y122.91 E19.9947
G1 X133.85 Y122.91 E19.9947
;
; 'Crown', 180.0 [RPM], 60.1 [mm/s]
G1 F15000
G1 X125.58 Y116.06 E19.9947
G1 F3607.9
G1 X125.6 Y116.08 E19.9962
G1 X125.6 Y119.05 E20.1814
G1 X125.65 Y119.35 E20.2005
;
; 'Solid', 180.0 [RPM], 60.1 [mm/s]
G1 F15000
G1 X127.48 Y120.35 E20.2005
G1 F3607.9
G1 X126.63 Y121.2 E20.2754
;
; 'Wipe', 0.0 [RPM], 67.5 [mm/s]
G1 F15000
G1 X126.63 Y121.2 E20.2754
G1 F4050
G1 X127.48 Y120.35 E20.2754
;
; 'Solid', 180.0 [RPM], 60.1 [mm/s]
G1 F15000
G1 X140.23 Y121.04 E20.2754
G1 F3607.9
G1 X140.38 Y120.89 E20.2887
G1 X140.38 Y120.18 E20.3328
G1 X139.9 Y120.66 E20.3753
G1 X139.53 Y120.32 E20.4065
G1 X140.38 Y119.47 E20.4815
G1 X140.38 Y118.76 E20.5256
G1 X138.49 Y120.65 E20.6923
G1 X137.81 Y120.63 E20.7346
G1 X140.38 Y118.06 E20.9611
G1 X140.38 Y117.35 E21.0052
G1 X138.63 Y119.1 E21.1592
G1 X138.65 Y118.37 E21.2045
G1 X139.98 Y117.04 E21.3217
G1 X139.27 Y117.04 E21.3658
G1 X138.63 Y117.69 E21.4227
;
; 'Wipe', 0.0 [RPM], 67.5 [mm/s]
G1 F15000
G1 X138.63 Y117.69 E21.4227
G1 F4050
G1 X139.27 Y117.04 E21.4227
G1 X139.98 Y117.04 E21.4227
G1 X138.65 Y118.37 E21.4227
G1 X138.63 Y119.1 E21.4227
G1 X140.38 Y117.35 E21.4227
G1 X140.38 Y118.06 E21.4227
G1 X137.81 Y120.63 E21.4227
;
; 'Solid', 180.0 [RPM], 60.1 [mm/s]
G1 F15000
G1 X144.07 Y115.78 E21.4227
G1 F3607.9
G1 X144.16 Y115.69 E21.431
G1 X144.51 Y116.04 E21.4621
G1 X144.15 Y116.41 E21.4946
G1 X144.15 Y117.12 E21.5386
G1 X145.27 Y115.99 E21.638
;
; 'Wipe', 0.0 [RPM], 67.5 [mm/s]
G1 F15000
G1 X145.27 Y115.99 E21.638
G1 F4050
G1 X144.15 Y117.12 E21.638
G1 X144.15 Y116.41 E21.638
G1 X144.51 Y116.04 E21.638
G1 X144.16 Y115.69 E21.638
G1 X144.07 Y115.78 E21.638
;
; 'Solid', 180.0 [RPM], 60.1 [mm/s]
G1 F15000
G1 X144.42 Y117.55 E21.638
G1 F3607.9
G1 X150.81 Y111.16 E22.2009
G1 X151.16 Y111.52 E22.2321
G1 X144.48 Y118.2 E22.8214
G1 X144.83 Y118.55 E22.8526
G1 X151.51 Y111.87 E23.4419
G1 X151.87 Y112.22 E23.4731
G1 X144.9 Y119.19 E24.0878
G1 X144.54 Y120.26 E24.1575
G1 X152.22 Y112.58 E24.8346
G1 X152.57 Y112.93 E24.8658
G1 X144.5 Y121.01 E25.5779
G1 X145.21 Y121.01 E25.622
G1 X152.93 Y113.29 E26.303
G1 X153.28 Y113.64 E26.3342
G1 X145.65 Y121.27 E27.0069
G1 X144.95 Y122.68 E27.1055
G1 X153.69 Y113.94 E27.8765
;
; 'Wipe', 0.0 [RPM], 67.5 [mm/s]
G1 F15000
G1 X153.69 Y113.94 E27.8765
G1 F4050
G1 X144.95 Y122.68 E27.8765
;
; 'Solid', 180.0 [RPM], 60.1 [mm/s]
G1 F15000
G1 X147.61 Y113.66 E27.8765
G1 F3607.9
G1 X150.45 Y110.81 E28.1275
G1 X150.1 Y110.46 E28.1587
G1 X148.04 Y112.52 E28.3407
G1 X148.04 Y111.81 E28.3848
G1 X149.75 Y110.1 E28.5357
G1 X149.39 Y109.75 E28.5669
G1 X148.39 Y110.75 E28.6554
G1 X148.39 Y110.05 E28.6995
G1 X149.04 Y109.4 E28.7568
G1 X148.69 Y109.04 E28.788
G1 X148.04 Y109.69 E28.8453
G1 X148.04 Y108.99 E28.8894
G1 X148.33 Y108.69 E28.9155
;
; 'Wipe', 0.0 [RPM], 67.5 [mm/s]
G1 F15000
G1 X148.33 Y108.69 E28.9155
G1 F4050
G1 X148.04 Y108.99 E28.9155
G1 X148.04 Y109.69 E28.9155
G1 X148.69 Y109.04 E28.9155
G1 X149.04 Y109.4 E28.9155
G1 X148.39 Y110.05 E28.9155
G1 X148.39 Y110.75 E28.9155
G1 X149.39 Y109.75 E28.9155
G1 X149.75 Y110.1 E28.9155
G1 X148.04 Y111.81 E28.9155
G1 X148.04 Y112.52 E28.9155
G1 X150.1 Y110.46 E28.9155
;
; 'Solid', 180.0 [RPM], 60.1 [mm/s]
G1 F15000
G1 X136.14 Y108.86 E28.9155
G1 F3607.9
G1 X135.43 Y109.57 E28.9787
G1 X134.72 Y109.57 E29.0228
G1 X135.64 Y108.66 E29.1037
G1 X134.93 Y108.66 E29.1478
G1 X134.01 Y109.57 E29.2287
G1 X133.3 Y109.57 E29.2728
G1 X134.22 Y108.66 E29.3537
G1 X133.51 Y108.66 E29.3978
G1 X132.6 Y109.57 E29.4787
G1 X131.89 Y109.57 E29.5228
G1 X132.81 Y108.66 E29.6038
G1 X132.1 Y108.66 E29.6478
G1 X131.18 Y109.57 E29.7288
G1 X130.48 Y109.57 E29.7729
G1 X131.39 Y108.66 E29.8538
G1 X130.69 Y108.66 E29.8979
G1 X129.77 Y109.57 E29.9788
G1 X129.06 Y109.57 E30.0229
G1 X129.98 Y108.66 E30.1038
G1 X129.27 Y108.66 E30.1479
G1 X128.35 Y109.57 E30.2288
G1 X127.65 Y109.57 E30.2729
G1 X128.57 Y108.66 E30.3538
G1 X127.86 Y108.66 E30.3979
G1 X126.94 Y109.57 E30.4788
G1 X126.23 Y109.57 E30.5229
G1 X127.15 Y108.66 E30.6039
G1 X126.44 Y108.66 E30.648
G1 X125.26 Y109.84 E30.7522
;
; 'Wipe', 0.0 [RPM], 67.5 [mm/s]
G1 F15000
G1 X125.26 Y109.84 E30.7522
G1 F4050
G1 X126.44 Y108.66 E30.7522
G1 X127.15 Y108.66 E30.7522
G1 X126.23 Y109.57 E30.7522
G1 X126.94 Y109.57 E30.7522
G1 X127.86 Y108.66 E30.7522
G1 X128.57 Y108.66 E30.7522
G1 X127.65 Y109.57 E30.7522
G1 X128.35 Y109.57 E30.7522
G1 X129.27 Y108.66 E30.7522
G1 X129.98 Y108.66 E30.7522
;
; 'Solid', 180.0 [RPM], 60.1 [mm/s]
G1 F15000
G1 X124.31 Y112.91 E30.7522
G1 F3607.9
G1 X124.57 Y112.65 E30.775
G1 X124.57 Y111.95 E30.8191
G1 X118.65 Y117.87 E31.3412
G1 X118.65 Y117.16 E31.3853
G1 X124.54 Y111.26 E31.9055
G1 X124.74 Y110.36 E31.9631
G1 X118.65 Y116.45 E32.5005
G1 X118.65 Y115.75 E32.5446
G1 X125.74 Y108.66 E33.1699
G1 X125.03 Y108.66 E33.214
G1 X118.65 Y115.04 E33.7768
G1 X118.65 Y114.33 E33.8209
G1 X124.32 Y108.66 E34.3214
G1 X123.62 Y108.66 E34.3655
G1 X118.65 Y113.62 E34.8037
G1 X118.65 Y112.92 E34.8478
G1 X122.91 Y108.66 E35.2236
G1 X122.2 Y108.66 E35.2677
G1 X118.65 Y112.21 E35.5811
G1 X118.65 Y111.5 E35.6252
G1 X121.49 Y108.66 E35.8762
G1 X120.79 Y108.66 E35.9203
G1 X118.65 Y110.8 E36.109
G1 X118.65 Y110.09 E36.1531
G1 X120.08 Y108.66 E36.2795
G1 X119.37 Y108.66 E36.3236
G1 X118.65 Y109.38 E36.3871
G1 X118.69 Y108.63 E36.4334
;
; 'Wipe', 0.0 [RPM], 67.5 [mm/s]
G1 F15000
G1 X118.69 Y108.63 E36.4334
G1 F4050
