; KISSlicer - FREE
; Linux
; version 1.0.9.7
; Built: Jun 12 2012, 22:45:36
;
; Saved: Sat Nov 17 20:42:55 2012
; 'footbroken(0).gco'
;
; *** Printer Settings ***
;
; printer_name = Series
; extension = gco
; cost_per_hour = 0
; g_code_prefix = 4D333031205032342E37322049302E383820443233312E310A473238200A473020583132302059313135205A3135204631303030300A4739322045300A4731205935205A31352046353030300A4D31303920533138350A47312046313030204535300A4739322045300A473120583530205A302E3320463130303030
; g_code_postfix = 47312059323330204631303030300A4739322045300A473120452D31300A4D3130370A4D3130342053300A4731205A323330204631303030300A4D3834204520582059
; g_code_ext_change = NULL
; post_process = NULL
; num_extruders = 1
; firmware_type = 2
; M104_M109 = 0
; add_comments = 1
; z_speed_mm_per_s = 3.5
; z_settle_mm = 0
; bed_size_x_mm = 260
; bed_size_y_mm = 230
; bed_size_z_mm = 230
; bed_offset_x_mm = 130
; bed_offset_y_mm = 115
; bed_offset_z_mm = 0
; bed_roughness_mm = 0
; travel_speed_mm_per_s = 250
; first_layer_speed_mm_per_s = 25
; lo_speed_perim_mm_per_s = 45
; lo_speed_solid_mm_per_s = 45
; lo_speed_sparse_mm_per_s = 90
; hi_speed_perim_mm_per_s = 180
; hi_speed_solid_mm_per_s = 90
; hi_speed_sparse_mm_per_s = 180
; ext_mm_per_rev_1 = 1.25
; ext_material_1 = 2
; ext_axis_1 = 0
; ext_mm_per_rev_2 = 1.25
; ext_material_2 = 0
; ext_axis_2 = 0
; ext_mm_per_rev_3 = 1.25
; ext_material_3 = 0
; ext_axis_3 = 0
; model_ext = 0
; support_ext = 0
; support_body_ext = 0
; raft_ext = 0
; solid_loop_overlap_fraction = 0.25
;
; *** Material Settings for Extruder 1 ***
;
; material_name = PLA
; fan_off_ISOs_all = 2
; temperature_C = 160
; keep_warm_C = 159
; first_layer_C = 185
; bed_C = 81
; sec_per_C_per_C = 0
; RPM_min = 3
; RPM_max = 180
; destring_suck = 1
; destring_prime = 1
; destring_min_mm = 0
; destring_speed_mm_per_s = 15
; min_layer_time_s = 12
; wipe_mm = 5
; cost_per_cm3 = 0
; flowrate_tweak = 1
; fiber_dia_mm = 1.75
; color = 0
;
; *** Style Settings ***
;
; style_name = Fine
; layer_thickness_mm = 0.2
; extrusion_width_mm = 0.5
; num_loops = 2
; skin_thickness_mm = 1
; infill_extrusion_width = 0.5
; infill_density_denominator = 4
; stacked_layers = 1
; use_destring = 0
; loops_insideout = 0
; round_infill = 1
;
; *** Actual Slicing Settings As Used ***
;
; layer_thickness_mm = 0.2
; extrusion_width = 0.5
; num_ISOs = 2
; wall_thickness = 1
; infill_style = 5
; support_style = 0
; support_angle = 90
; destring_min_mm = 0
; stacked_infill_layers = 1
; ISO_wipe_mm = 10
; raft_style = 0
; extra_raft_depth = 0
; oversample_res_mm = 0.125
; crowning_threshold_mm = 1
; loops_insideout = 0
; sheathed_support = 0
; solid_loop_overlap_fraction = 0.25
; inflate_raft_mm = 0
; inflate_support_mm = 2
; model_support_gap_mm = 0.5
; round_infill = 1
; Speed vs Quality = 0.50
;
; *** Header ***
;
; fan off
M107
; [mm] mode
G21
; absolute mode
G90
; *** User-Supplied G-code Prefix ***
;
M301 P24.72 I0.88 D231.1
G28 
G0 X120 Y115 Z15 F10000
G92 E0
G1 Y5 Z15 F5000
M109 S185
G1 F100 E50
G92 E0
G1 X50 Z0.3 F10000
;
; *** Main G-code ***
;
; Reset extruder pos
G92 E0
; BEGIN_LAYER_OBJECT z=0.20
;
; *** Warming Extruder 1 to 185 C ***
M104 S185
G92 E0
;
;
; 'Perimeter', 49.9 [RPM], 25.0 [mm/s]
G1 F15000
G1 X115.76 Y123.04 Z0.2 E0
G1 F1500
G1 X115.82 Y123 E0.0028
G1 X116.06 Y122.98 E0.013
G1 X116.17 Y122.92 E0.0184
G1 X116.32 Y122.89 E0.0246
G1 X116.43 Y122.82 E0.03
G1 X116.52 Y122.83 E0.0335
G1 X116.69 Y122.9 E0.0412
G1 X135.96 Y122.9 E0.8423
G1 X137.37 Y122.9 E0.9011
G1 X137.54 Y123.02 E0.9096
G1 X137.67 Y123.03 E0.9153
G1 X137.76 Y122.98 E0.9193
G1 X138.17 Y123 E0.9367
G1 X138.23 Y123.04 E0.9394
G1 X138.24 Y123.2 E0.9462
G1 X138.33 Y123.28 E0.9514
G1 X138.34 Y123.63 E0.9658
G1 X138.43 Y123.72 E0.971
G1 X138.43 Y123.89 E0.9783
G1 X138.52 Y123.98 E0.9835
G1 X138.52 Y124.33 E0.9981
G1 X138.61 Y124.42 E1.0033
G1 X138.61 Y124.6 E1.0106
;
; 'Wipe', 0.0 [RPM], 25.0 [mm/s]
G1 F15000
G1 X138.61 Y124.6 E1.0106
G1 F1500
G1 X138.61 Y124.42 E1.0106
G1 X138.52 Y124.33 E1.0106
G1 X138.52 Y123.98 E1.0106
G1 X138.43 Y123.89 E1.0106
G1 X138.43 Y123.72 E1.0106
G1 X138.34 Y123.63 E1.0106
G1 X138.33 Y123.28 E1.0106
G1 X138.24 Y123.2 E1.0106
G1 X138.23 Y123.04 E1.0106
G1 X138.17 Y123 E1.0106
G1 X137.76 Y122.98 E1.0106
G1 X137.67 Y123.03 E1.0106
G1 X137.54 Y123.02 E1.0106
G1 X137.37 Y122.9 E1.0106
G1 X129.95 Y122.9 E1.0106
;
; 'Perimeter', 49.9 [RPM], 25.0 [mm/s]
G1 F15000
G1 X137.19 Y122 E1.0106
G1 F1500
G1 X137.42 Y122.24 E1.0242
G1 X137.32 Y122.32 E1.0294
G1 X125.69 Y122.32 E1.5128
G1 X125.62 Y122.2 E1.5182
G1 X125.62 Y119.82 E1.6174
G1 X125.89 Y119.55 E1.633
G1 X125.99 Y119.48 E1.6383
G1 X126.13 Y119.4 E1.645
G1 X137.23 Y119.4 E2.1063
G1 X137.35 Y119.49 E2.1128
G1 X137.42 Y119.59 E2.1177
G1 X137.42 Y122.24 E2.2279
G1 X137.09 Y122.2 E2.2414
;
; 'Loop', 49.9 [RPM], 25.0 [mm/s]
G1 F15000
G1 X136.91 Y121.73 E2.2414
G1 F1500
G1 X136.81 Y121.81 E2.2467
G1 X126.19 Y121.81 E2.6881
G1 X126.13 Y121.7 E2.6935
G1 X126.13 Y119.97 E2.7657
G1 X126.24 Y119.9 E2.7711
G1 X136.76 Y119.9 E3.2086
G1 X136.91 Y119.93 E3.2148
G1 X136.91 Y121.73 E3.2896
;
; 'Wipe', 0.0 [RPM], 25.0 [mm/s]
G1 F15000
G1 X136.91 Y121.73 E3.2896
G1 F1500
G1 X136.91 Y119.93 E3.2896
G1 X136.76 Y119.9 E3.2896
G1 X128.63 Y119.9 E3.2896
;
; 'Perimeter', 49.9 [RPM], 25.0 [mm/s]
G1 F15000
G1 X136.92 Y110.3 E3.2896
G1 F1500
G1 X137.09 Y110.6 E3.3041
G1 X126.09 Y110.6 E3.7615
G1 X125.79 Y110.61 E3.7741
G1 X125.68 Y110.68 E3.7795
G1 X125.6 Y110.95 E3.7915
G1 X125.6 Y111.1 E3.7973
G1 X125.6 Y113.78 E3.9089
G1 X125.55 Y113.91 E3.9145
G1 X125.2 Y113.91 E3.9289
G1 X125.09 Y113.98 E3.9343
G1 X125.02 Y114.15 E3.942
G1 X125.02 Y114.44 E3.9542
G1 X125.02 Y122.22 E4.2776
G1 X124.94 Y122.32 E4.2828
G1 X117.73 Y122.32 E4.5825
G1 X117.62 Y122.26 E4.588
G1 X117.62 Y107.74 E5.1914
G1 X117.68 Y107.63 E5.1968
G1 X137.02 Y107.63 E6.0006
G1 X137.09 Y107.73 E6.0059
G1 X137.09 Y110.6 E6.1253
G1 X136.79 Y110.42 E6.1398
;
; 'Loop', 49.9 [RPM], 25.0 [mm/s]
G1 F15000
G1 X136.59 Y110.1 E6.1398
G1 F1500
G1 X126.06 Y110.1 E6.5772
G1 X125.66 Y110.13 E6.5942
G1 X125.42 Y110.24 E6.6053
G1 X125.18 Y110.53 E6.6209
G1 X125.09 Y110.98 E6.6398
G1 X125.09 Y113.27 E6.7353
G1 X125.08 Y113.38 E6.7397
G1 X125.07 Y113.43 E6.7419
G1 X124.83 Y113.54 E6.7529
G1 X124.66 Y113.72 E6.7633
G1 X124.54 Y113.96 E6.7743
G1 X124.51 Y114.12 E6.7811
G1 X124.52 Y114.47 E6.7955
G1 X124.52 Y121.72 E7.097
G1 X124.44 Y121.81 E7.1022
G1 X118.24 Y121.81 E7.3599
G1 X118.12 Y121.75 E7.3653
G1 X118.12 Y108.25 E7.9264
G1 X118.18 Y108.13 E7.9319
G1 X136.51 Y108.13 E8.6939
G1 X136.59 Y108.23 E8.6992
G1 X136.59 Y110.1 E8.7766
;
; 'Wipe', 0.0 [RPM], 25.0 [mm/s]
G1 F15000
G1 X136.59 Y110.1 E8.7766
G1 F1500
G1 X136.59 Y108.23 E8.7766
G1 X136.51 Y108.13 E8.7766
G1 X128.44 Y108.13 E8.7766
;
; 'Perimeter', 49.9 [RPM], 25.0 [mm/s]
G1 F15000
G1 X125.76 Y115.06 E8.7766
G1 F1500
G1 X125.8 Y115.4 E8.7909
G1 X125.73 Y115.38 E8.794
G1 X125.63 Y115.13 E8.8053
G1 X125.63 Y114.88 E8.8158
G1 X125.73 Y114.62 E8.8271
G1 X125.8 Y114.6 E8.8303
G1 X125.86 Y114.72 E8.8357
G1 X125.86 Y114.89 E8.843
G1 X125.96 Y114.98 E8.8482
G1 X125.96 Y115.02 E8.8501
G1 X125.87 Y115.11 E8.8553
G1 X125.86 Y115.28 E8.8626
G1 X125.8 Y115.4 E8.868
G1 X125.58 Y115.14 E8.8823
;
; 'Wipe', 0.0 [RPM], 25.0 [mm/s]
G1 F15000
G1 X125.58 Y115.14 E8.8823
G1 F1500
G1 X125.8 Y115.4 E8.8823
G1 X125.86 Y115.28 E8.8823
G1 X125.87 Y115.11 E8.8823
G1 X125.96 Y115.02 E8.8823
G1 X125.96 Y114.98 E8.8823
G1 X125.86 Y114.89 E8.8823
G1 X125.86 Y114.72 E8.8823
G1 X125.8 Y114.6 E8.8823
G1 X125.73 Y114.62 E8.8823
G1 X125.63 Y114.88 E8.8823
G1 X125.63 Y115.13 E8.8823
G1 X125.73 Y115.38 E8.8823
G1 X125.8 Y115.4 E8.8823
G1 X125.76 Y115.06 E8.8823
;
; 'Perimeter', 49.9 [RPM], 25.0 [mm/s]
G1 F15000
G1 X116.78 Y122 E8.8823
G1 F1500
G1 X116.96 Y122.29 E8.8967
G1 X116.7 Y122.29 E8.9077
G1 X116.56 Y122.25 E8.9136
G1 X116.56 Y107.75 E9.5166
G1 X116.62 Y107.63 E9.522
G1 X116.86 Y107.63 E9.5321
G1 X116.96 Y107.71 E9.5373
G1 X116.96 Y122.29 E10.1435
G1 X116.65 Y122.13 E10.1579
;
; 'Wipe', 0.0 [RPM], 25.0 [mm/s]
G1 F15000
G1 X116.65 Y122.13 E10.1579
G1 F1500
G1 X116.96 Y122.29 E10.1579
G1 X116.96 Y112.57 E10.1579
;
; 'Perimeter', 49.9 [RPM], 25.0 [mm/s]
G1 F15000
G1 X115.76 Y123.05 E10.1579
G1 F1500
G1 X115.75 Y123.2 E10.1642
G1 X115.66 Y123.28 E10.1694
G1 X115.65 Y123.63 E10.1838
G1 X115.56 Y123.72 E10.189
G1 X115.56 Y124.07 E10.2036
G1 X115.47 Y124.16 E10.2088
G1 X115.47 Y124.51 E10.2234
G1 X115.38 Y124.6 E10.2286
;
; 'Loop', 49.9 [RPM], 25.0 [mm/s]
G1 F15000
G1 X115.58 Y123.74 E10.2286
G1 F1500
G1 X115.67 Y123.65 E10.2338
G1 X115.69 Y123.49 E10.2406
G1 X116.04 Y123.49 E10.2555
G1 X116.45 Y123.37 E10.2733
G1 X116.65 Y123.4 E10.2814
G1 X116.66 Y123.4 E10.282
G1 X137.34 Y123.4 E11.1418
G1 X137.49 Y123.41 E11.1482
G1 X137.78 Y123.49 E11.1602
G1 X138.3 Y123.49 E11.1822
G1 X138.32 Y123.65 E11.189
G1 X138.41 Y123.74 E11.1942
G1 X138.41 Y123.91 E11.2014
G1 X138.5 Y124 E11.2066
G1 X138.51 Y124.34 E11.221
G1 X138.6 Y124.43 E11.2262
G1 X138.6 Y124.61 E11.2335
;
; 'Wipe', 0.0 [RPM], 25.0 [mm/s]
G1 F15000
G1 X138.6 Y124.61 E11.2335
G1 F1500
G1 X138.6 Y124.43 E11.2335
G1 X138.51 Y124.34 E11.2335
G1 X138.5 Y124 E11.2335
G1 X138.41 Y123.91 E11.2335
G1 X138.41 Y123.74 E11.2335
G1 X138.32 Y123.65 E11.2335
G1 X138.3 Y123.49 E11.2335
G1 X137.78 Y123.49 E11.2335
G1 X137.34 Y123.4 E11.2335
G1 X135.22 Y123.4 E11.2335
G1 X129.39 Y123.4 E11.2335
;
; 'Crown', 49.9 [RPM], 25.0 [mm/s]
G1 F15000
G1 X125.58 Y116.06 E11.2335
G1 F1500
G1 X125.6 Y116.08 E11.2345
G1 X125.6 Y119.05 E11.358
G1 X125.65 Y119.35 E11.3707
;
; 'Wipe', 0.0 [RPM], 25.0 [mm/s]
G1 F15000
G1 X125.65 Y119.35 E11.3707
G1 F1500
G1 X125.6 Y119.05 E11.3707
G1 X125.6 Y116.08 E11.3707
G1 X125.58 Y116.06 E11.3707
;
; 'Crown', 49.9 [RPM], 25.0 [mm/s]
G1 F15000
G1 X137.52 Y119.16 E11.3707
G1 F1500
G1 X137.52 Y115.97 E11.5034
;
; 'Wipe', 0.0 [RPM], 25.0 [mm/s]
G1 F15000
G1 X137.52 Y115.97 E11.5034
G1 F1500
G1 X137.52 Y119.16 E11.5034
;
; 'Solid', 49.9 [RPM], 25.0 [mm/s]
G1 F15000
G1 X136.37 Y121.35 E11.5034
G1 F1500
G1 X135.72 Y121.3 E11.5306
G1 X136.41 Y120.61 E11.5712
G1 X135.92 Y120.4 E11.5937
G1 X135.02 Y121.3 E11.6465
G1 X134.31 Y121.3 E11.6759
G1 X135.19 Y120.42 E11.7277
G1 X134.48 Y120.42 E11.7571
G1 X133.6 Y121.3 E11.8089
G1 X132.9 Y121.3 E11.8383
G1 X133.78 Y120.42 E11.8901
G1 X133.07 Y120.42 E11.9195
G1 X132.19 Y121.3 E11.9713
G1 X131.48 Y121.3 E12.0007
G1 X132.36 Y120.42 E12.0525
G1 X131.66 Y120.42 E12.0819
G1 X130.77 Y121.3 E12.1337
G1 X130.07 Y121.3 E12.1631
G1 X130.95 Y120.42 E12.2149
G1 X130.24 Y120.42 E12.2443
G1 X129.36 Y121.3 E12.2961
G1 X128.65 Y121.3 E12.3255
G1 X129.53 Y120.42 E12.3773
G1 X128.83 Y120.42 E12.4067
G1 X127.95 Y121.3 E12.4585
G1 X127.24 Y121.3 E12.4879
G1 X128.12 Y120.42 E12.5397
G1 X127.41 Y120.42 E12.5691
G1 X126.62 Y121.21 E12.6159
;
; 'Solid', 49.9 [RPM], 25.0 [mm/s]
G1 F15000
G1 X124.08 Y120.92 E12.6159
G1 F1500
G1 X123.7 Y121.3 E12.6382
G1 X123 Y121.3 E12.6676
G1 X124.01 Y120.28 E12.7271
G1 X124.01 Y119.58 E12.7565
G1 X122.29 Y121.3 E12.8576
G1 X121.58 Y121.3 E12.887
G1 X124.01 Y118.87 E13.0296
G1 X124.01 Y118.16 E13.059
G1 X120.87 Y121.3 E13.2432
G1 X120.17 Y121.3 E13.2726
G1 X124.01 Y117.46 E13.4984
G1 X124.01 Y116.75 E13.5278
G1 X119.46 Y121.3 E13.7952
G1 X118.75 Y121.3 E13.8246
G1 X124.01 Y116.04 E14.1336
G1 X124.01 Y115.33 E14.163
G1 X118.64 Y120.71 E14.4788
G1 X118.64 Y120 E14.5082
G1 X124 Y114.64 E14.8232
G1 X124.08 Y113.84 E14.8565
G1 X118.64 Y119.29 E15.1767
G1 X118.64 Y118.58 E15.2061
G1 X124.58 Y112.64 E15.5554
G1 X124.58 Y111.94 E15.5848
G1 X118.64 Y117.88 E15.9341
G1 X118.64 Y117.17 E15.9635
G1 X124.55 Y111.26 E16.3112
G1 X124.77 Y110.33 E16.3509
G1 X118.64 Y116.46 E16.7116
G1 X118.64 Y115.76 E16.741
G1 X125.75 Y108.65 E17.159
G1 X125.04 Y108.65 E17.1884
G1 X118.64 Y115.05 E17.5648
G1 X118.64 Y114.34 E17.5942
G1 X124.33 Y108.65 E17.9291
G1 X123.63 Y108.65 E17.9585
G1 X118.64 Y113.63 E18.2517
G1 X118.64 Y112.93 E18.2811
G1 X122.92 Y108.65 E18.5328
G1 X122.21 Y108.65 E18.5622
G1 X118.64 Y112.22 E18.7723
G1 X118.64 Y111.51 E18.8017
G1 X121.5 Y108.65 E18.9703
G1 X120.8 Y108.65 E18.9997
G1 X118.64 Y110.81 E19.1267
G1 X118.64 Y110.1 E19.1561
G1 X120.09 Y108.65 E19.2415
G1 X119.38 Y108.65 E19.2709
G1 X118.64 Y109.39 E19.3144
G1 X118.69 Y108.63 E19.3458
G1 X118.7 Y108.62 E19.3463
;
; 'Solid', 49.9 [RPM], 25.0 [mm/s]
G1 F15000
G1 X125.23 Y109.87 E19.3463
G1 F1500
G1 X126.45 Y108.65 E19.4184
G1 X127.16 Y108.65 E19.4478
G1 X126.22 Y109.58 E19.5029
G1 X126.93 Y109.58 E19.5323
G1 X127.87 Y108.65 E19.5874
G1 X128.58 Y108.65 E19.6168
G1 X127.64 Y109.58 E19.672
G1 X128.34 Y109.58 E19.7014
G1 X129.28 Y108.65 E19.7565
G1 X129.99 Y108.65 E19.7859
G1 X129.05 Y109.58 E19.841
G1 X129.76 Y109.58 E19.8704
G1 X130.7 Y108.65 E19.9255
G1 X131.4 Y108.65 E19.9549
G1 X130.47 Y109.58 E20.01
G1 X131.17 Y109.58 E20.0394
G1 X132.11 Y108.65 E20.0946
G1 X132.82 Y108.65 E20.124
G1 X131.88 Y109.58 E20.1791
G1 X132.59 Y109.58 E20.2085
G1 X133.52 Y108.65 E20.2636
G1 X134.23 Y108.65 E20.293
G1 X133.29 Y109.58 E20.3481
G1 X134 Y109.58 E20.3775
G1 X134.94 Y108.65 E20.4326
G1 X135.65 Y108.65 E20.462
G1 X134.71 Y109.58 E20.5172
G1 X135.42 Y109.58 E20.5465
G1 X136.15 Y108.85 E20.5899
;
; 'Wipe', 0.0 [RPM], 25.0 [mm/s]
G1 F15000
G1 X136.15 Y108.85 E20.5899
G1 F1500
G1 X135.42 Y109.58 E20.5899
G1 X134.71 Y109.58 E20.5899
G1 X135.65 Y108.65 E20.5899
G1 X134.94 Y108.65 E20.5899
G1 X134 Y109.58 E20.5899
G1 X133.29 Y109.58 E20.5899
G1 X134.23 Y108.65 E20.5899
G1 X133.52 Y108.65 E20.5899
G1 X132.59 Y109.58 E20.5899
G1 X131.88 Y109.58 E20.5899
G1 X132.82 Y108.65 E20.5899
;
; 'Sparse Infill', 49.9 [RPM], 25.0 [mm/s]
G1 F15000
G1 X133.54 Y124.19 E20.5899
G1 F1500
G1 X133.54 Y124.62 E20.6078
G1 X133.5 Y124.86 E20.6182
G1 X133.39 Y125.04 E20.6268
G1 X132.26 Y126.17 E20.6933
G1 X132.09 Y126.28 E20.7018
G1 X131.84 Y126.31 E20.7122
G1 X129.58 Y126.31 E20.8063
G1 X129.33 Y126.35 E20.8167
G1 X129.15 Y126.46 E20.8253
G1 X128.02 Y127.59 E20.8918
G1 X127.91 Y127.76 E20.9004
G1 X127.88 Y128.01 E20.9108
G1 X127.88 Y130.27 E21.0048
G1 X127.84 Y130.52 E21.0152
G1 X127.74 Y130.7 E21.0238
G1 X126.61 Y131.83 E21.0903
G1 X126.43 Y131.94 E21.0989
G1 X126.18 Y131.97 E21.1093
G1 X123.92 Y131.97 E21.2034
G1 X123.67 Y132.01 E21.2138
G1 X123.49 Y132.11 E21.2223
G1 X122.58 Y133.03 E21.2764
G1 X121.16 Y131.62 E21.3595
G1 X122.08 Y130.7 E21.4136
G1 X122.19 Y130.52 E21.4221
G1 X122.22 Y130.27 E21.4325
G1 X122.22 Y128.01 E21.5266
G1 X122.26 Y127.76 E21.537
G1 X122.36 Y127.59 E21.5456
G1 X123.49 Y126.46 E21.6121
G1 X123.67 Y126.35 E21.6207
G1 X123.92 Y126.31 E21.6311
G1 X126.18 Y126.31 E21.7251
G1 X126.43 Y126.28 E21.7355
G1 X126.61 Y126.17 E21.7441
G1 X127.74 Y125.04 E21.8106
G1 X127.84 Y124.86 E21.8192
G1 X127.88 Y124.62 E21.8296
G1 X127.88 Y124.19 E21.8475
G1 X122.22 Y124.19 E22.0827
G1 X122.22 Y124.62 E22.1006
G1 X122.19 Y124.86 E22.111
G1 X122.08 Y125.04 E22.1196
G1 X120.95 Y126.17 E22.1861
G1 X120.77 Y126.28 E22.1947
G1 X120.52 Y126.31 E22.2051
G1 X118.26 Y126.31 E22.2991
G1 X118.01 Y126.35 E22.3095
G1 X117.84 Y126.46 E22.3181
G1 X116.92 Y127.37 E22.3722
G1 X115.5 Y125.96 E22.4553
G1 X116.42 Y125.04 E22.5094
G1 X116.53 Y124.86 E22.5179
G1 X116.56 Y124.62 E22.5283
G1 X116.56 Y124.19 E22.5463
;
; 'Wipe', 0.0 [RPM], 25.0 [mm/s]
G1 F15000
G1 X116.56 Y124.19 E22.5463
G1 F1500
G1 X116.56 Y124.62 E22.5463
G1 X116.53 Y124.86 E22.5463
G1 X116.42 Y125.04 E22.5463
G1 X115.5 Y125.96 E22.5463
G1 X116.92 Y127.37 E22.5463
G1 X117.84 Y126.46 E22.5463
G1 X118.01 Y126.35 E22.5463
G1 X118.26 Y126.31 E22.5463
G1 X120.52 Y126.31 E22.5463
G1 X120.77 Y126.28 E22.5463
G1 X120.95 Y126.17 E22.5463
G1 X122.01 Y125.11 E22.5463
;
; 'Sparse Infill', 49.9 [RPM], 25.0 [mm/s]
G1 F15000
G1 X126.82 Y137.27 E22.5463
G1 F1500
G1 X127.74 Y136.35 E22.6003
G1 X127.84 Y136.18 E22.6089
G1 X127.88 Y135.93 E22.6193
G1 X127.88 Y133.67 E22.7133
G1 X127.91 Y133.42 E22.7237
G1 X128.02 Y133.24 E22.7323
G1 X129.15 Y132.11 E22.7988
G1 X129.33 Y132.01 E22.8074
G1 X129.58 Y131.97 E22.8178
G1 X131.84 Y131.97 E22.9119
G1 X132.09 Y131.94 E22.9223
G1 X132.26 Y131.83 E22.9308
G1 X133.39 Y130.7 E22.9973
G1 X133.5 Y130.52 E23.0059
G1 X133.54 Y130.27 E23.0163
G1 X133.54 Y128.01 E23.1104
G1 X133.57 Y127.76 E23.1208
G1 X133.68 Y127.59 E23.1294
G1 X134.81 Y126.46 E23.1959
G1 X134.99 Y126.35 E23.2044
G1 X135.23 Y126.31 E23.2148
G1 X137.5 Y126.31 E23.3089
G1 X137.74 Y126.28 E23.3193
G1 X137.92 Y126.17 E23.3279
G1 X139.19 Y124.9 E23.4027
;
; 'Wipe', 0.0 [RPM], 25.0 [mm/s]
G1 F15000
G1 X139.19 Y124.9 E23.4027
G1 F1500
G1 X137.92 Y126.17 E23.4027
G1 X137.74 Y126.28 E23.4027
G1 X137.5 Y126.31 E23.4027
G1 X135.23 Y126.31 E23.4027
G1 X134.99 Y126.35 E23.4027
G1 X134.81 Y126.46 E23.4027
G1 X133.68 Y127.59 E23.4027
G1 X133.57 Y127.76 E23.4027
G1 X133.54 Y128.01 E23.4027
G1 X133.54 Y130.27 E23.4027
G1 X133.5 Y130.52 E23.4027
G1 X133.39 Y130.7 E23.4027
G1 X133.18 Y130.91 E23.4027
;
; 'Perimeter', 49.9 [RPM], 25.0 [mm/s]
G1 F15000
G1 X135.44 Y112.84 E23.4027
G1 F1500
G1 X136.6 Y111.7 E23.4703
G1 X137.06 Y111.3 E23.4957
G1 X137.09 Y111.44 E23.5018
G1 X137.09 Y114.09 E23.6121
G1 X137.03 Y114.25 E23.6192
G1 X136.91 Y114.31 E23.6248
G1 X136.74 Y114.32 E23.6318
G1 X136.66 Y114.41 E23.637
G1 X136.6 Y114.41 E23.6392
G1 X135.43 Y114.42 E23.688
G1 X135.34 Y114.51 E23.6932
;
; 'Wipe', 0.0 [RPM], 25.0 [mm/s]
G1 F15000
G1 X135.34 Y114.51 E23.6932
G1 F1500
G1 X135.43 Y114.42 E23.6932
G1 X136.6 Y114.41 E23.6932
G1 X136.66 Y114.41 E23.6932
G1 X136.74 Y114.32 E23.6932
G1 X136.91 Y114.31 E23.6932
G1 X137.03 Y114.25 E23.6932
G1 X137.09 Y114.09 E23.6932
G1 X137.09 Y111.44 E23.6932
G1 X137.06 Y111.3 E23.6932
G1 X136.6 Y111.7 E23.6932
G1 X135.44 Y112.84 E23.6932
;
; 'Loop', 49.9 [RPM], 25.0 [mm/s]
G1 F15000
G1 X135.45 Y112.85 E23.6932
G1 F1500
G1 X136.59 Y111.77 E23.7584
G1 X136.59 Y113.99 E23.8506
G1 X136.52 Y114.31 E23.8645
G1 X136.46 Y114.39 E23.8685
G1 X135.42 Y114.41 E23.9116
G1 X135.33 Y114.5 E23.9168
;
; 'Wipe', 0.0 [RPM], 25.0 [mm/s]
G1 F15000
G1 X135.33 Y114.5 E23.9168
G1 F1500
G1 X135.42 Y114.41 E23.9168
G1 X136.46 Y114.39 E23.9168
G1 X136.52 Y114.31 E23.9168
G1 X136.59 Y113.99 E23.9168
G1 X136.59 Y111.77 E23.9168
G1 X135.45 Y112.85 E23.9168
;
; 'Crown', 49.9 [RPM], 25.0 [mm/s]
G1 F15000
G1 X137.58 Y114.13 E23.9168
G1 F1500
G1 X137.58 Y108.62 E24.1461
;
; 'Wipe', 0.0 [RPM], 25.0 [mm/s]
G1 F15000
G1 X137.58 Y108.62 E24.1461
G1 F1500
G1 X137.58 Y114.13 E24.1461
;
; 'Sparse Infill', 49.9 [RPM], 25.0 [mm/s]
G1 F15000
G1 X133.54 Y113.58 E24.1461
G1 F1500
G1 X132.26 Y114.86 E24.2209
G1 X132.09 Y114.96 E24.2295
G1 X131.84 Y115 E24.2399
G1 X129.58 Y115 E24.334
G1 X129.33 Y115.04 E24.3444
G1 X129.15 Y115.14 E24.3529
G1 X127.88 Y116.42 E24.4278
;
; 'Wipe', 0.0 [RPM], 25.0 [mm/s]
G1 F15000
G1 X127.88 Y116.42 E24.4278
G1 F1500
G1 X129.15 Y115.14 E24.4278
G1 X129.33 Y115.04 E24.4278
G1 X129.58 Y115 E24.4278
G1 X131.84 Y115 E24.4278
G1 X132.09 Y114.96 E24.4278
G1 X132.26 Y114.86 E24.4278
G1 X133.54 Y113.58 E24.4278
;
; 'Sparse Infill', 49.9 [RPM], 25.0 [mm/s]
G1 F15000
G1 X127.88 Y113.59 E24.4278
G1 F1500
G1 X127.88 Y113.58 E24.4281
G1 X133.54 Y116.42 E24.691
G1 X134.81 Y115.14 E24.7659
G1 X134.95 Y115 E24.7743
;
; 'Wipe', 0.0 [RPM], 25.0 [mm/s]
G1 F15000
G1 X134.95 Y115 E24.7743
G1 F1500
G1 X134.81 Y115.14 E24.7743
G1 X133.54 Y116.42 E24.7743
G1 X127.88 Y113.58 E24.7743
G1 X127.88 Y113.59 E24.7743
G1 F210
G1 X127.88 Y113.59 Z0.4 E24.7743
; END_LAYER_OBJECT z=0.20
; Reset extruder pos
G92 E0
; BEGIN_LAYER_OBJECT z=0.40
;
; *** Warming Extruder 1 to 160 C ***
M104 S160
G92 E0
;
; *** Cooling...speed multiplier is 0.822569 ***
; fan on
M106
;
; 'Perimeter', 180.0 [RPM], 90.2 [mm/s]
G1 F15000
G1 X115.23 Y123.04 E0
G1 F5411.9
G1 X115.29 Y123 E0.0029
G1 X115.36 Y122.99 E0.0058
G1 X115.47 Y122.92 E0.0112
G1 X115.62 Y123.02 E0.0186
G1 X115.74 Y123.02 E0.0238
G1 X115.91 Y122.9 E0.0324
G1 X138.08 Y122.9 E0.9539
G1 X138.14 Y122.95 E0.9571
G1 X138.3 Y122.94 E0.9636
G1 X138.35 Y122.91 E0.9661
G1 X138.46 Y122.98 E0.9714
G1 X138.7 Y123 E0.9815
G1 X138.76 Y123.04 E0.9844
G1 X138.78 Y123.37 E0.9983
G1 X138.87 Y123.46 E1.0035
G1 X138.87 Y123.8 E1.018
G1 X138.96 Y123.89 E1.0232
G1 X138.97 Y124.42 E1.0451
G1 X139.05 Y124.51 E1.0503
G1 X139.05 Y124.68 E1.0576
;
; 'Wipe', 0.0 [RPM], 55.5 [mm/s]
G1 F12338.5
G1 X139.05 Y124.68 E1.0576
G1 F3331.4
G1 X139.05 Y124.51 E1.0576
G1 X138.97 Y124.42 E1.0576
G1 X138.96 Y123.89 E1.0576
G1 X138.87 Y123.8 E1.0576
G1 X138.87 Y123.46 E1.0576
G1 X138.78 Y123.37 E1.0576
G1 X138.76 Y123.04 E1.0576
G1 X138.7 Y123 E1.0576
G1 X138.46 Y122.98 E1.0576
G1 X138.35 Y122.91 E1.0576
G1 X138.3 Y122.94 E1.0576
G1 X138.14 Y122.95 E1.0576
G1 X138.08 Y122.9 E1.0576
G1 X130.48 Y122.9 E1.0576
;
; 'Perimeter', 180.0 [RPM], 90.2 [mm/s]
G1 F12338.5
G1 X137.93 Y121.89 E1.0576
G1 F5411.9
G1 X138.05 Y122.16 E1.0701
G1 X138.02 Y122.18 E1.0713
G1 X137.59 Y122.24 E1.0893
G1 X137.31 Y122.01 E1.1045
G1 X137.31 Y121.84 E1.1118
G1 X137.22 Y121.75 E1.117
G1 X137.21 Y121.57 E1.1243
G1 X136.5 Y120.87 E1.1658
G1 X127.03 Y120.87 E1.5597
G1 X126.05 Y121.83 E1.6168
G1 X125.62 Y122.2 E1.6403
G1 X125.62 Y119.82 E1.7396
G1 X125.89 Y119.55 E1.7552
G1 X125.99 Y119.48 E1.7604
G1 X126.13 Y119.4 E1.7671
G1 X137.27 Y119.4 E2.2301
G1 X137.4 Y119.39 E2.2355
G1 X137.51 Y119.33 E2.2408
G1 X137.62 Y119.05 E2.2534
G1 X137.62 Y116.08 E2.3767
G1 X137.73 Y116.02 E2.3821
G1 X138 Y116.02 E2.3931
G1 X138.06 Y116.14 E2.3987
G1 X138.06 Y122.15 E2.6485
G1 X138.05 Y122.16 E2.6493
G1 X137.76 Y122.07 E2.6618
;
; 'Wipe', 0.0 [RPM], 55.5 [mm/s]
G1 F12338.5
G1 X137.76 Y122.07 E2.6618
G1 F3331.4
G1 X138.05 Y122.16 E2.6618
G1 X138.06 Y122.15 E2.6618
G1 X138.06 Y116.14 E2.6618
G1 X138 Y116.02 E2.6618
G1 X137.73 Y116.02 E2.6618
G1 X137.62 Y116.08 E2.6618
G1 X137.62 Y119.05 E2.6618
G1 X137.51 Y119.33 E2.6618
;
; 'Loop', 132.4 [RPM], 66.4 [mm/s]
G1 F12338.5
G1 X137.46 Y121.75 E2.6618
G1 F3981.9
G1 X137.34 Y121.81 E2.6673
G1 X137.24 Y121.72 E2.6727
G1 X137.24 Y121.55 E2.6799
G1 X136.52 Y120.86 E2.7214
G1 X127.02 Y120.86 E3.1164
G1 X126.13 Y121.7 E3.1674
G1 X126.13 Y119.97 E3.2396
G1 X126.24 Y119.9 E3.245
G1 X137.2 Y119.9 E3.7007
G1 X137.37 Y120.01 E3.7088
G1 X137.45 Y120.1 E3.714
G1 X137.55 Y120.25 E3.7215
G1 X137.55 Y121.66 E3.7803
G1 X137.46 Y121.75 E3.7855
;
; 'Wipe', 0.0 [RPM], 55.5 [mm/s]
G1 F12338.5
G1 X137.46 Y121.75 E3.7855
G1 F3331.4
G1 X137.55 Y121.66 E3.7855
G1 X137.55 Y120.25 E3.7855
G1 X137.45 Y120.1 E3.7855
G1 X137.37 Y120.01 E3.7855
G1 X137.2 Y119.9 E3.7855
G1 X129.16 Y119.9 E3.7855
;
; 'Perimeter', 180.0 [RPM], 90.2 [mm/s]
G1 F12338.5
G1 X125.65 Y115.01 E3.7855
G1 F5411.9
G1 X125.86 Y115.28 E3.7999
G1 X125.82 Y115.29 E3.8016
G1 X125.62 Y115.04 E3.8147
G1 X125.63 Y114.95 E3.8185
G1 X125.82 Y114.71 E3.8314
G1 X125.86 Y114.72 E3.8331
G1 X125.86 Y114.89 E3.8403
G1 X125.96 Y114.98 E3.8455
G1 X125.96 Y115.02 E3.8475
G1 X125.87 Y115.11 E3.8527
G1 X125.86 Y115.28 E3.8599
G1 X125.54 Y115.15 E3.8744
;
; 'Wipe', 0.0 [RPM], 55.5 [mm/s]
G1 F12338.5
G1 X125.54 Y115.15 E3.8744
G1 F3331.4
G1 X125.86 Y115.28 E3.8744
G1 X125.87 Y115.11 E3.8744
G1 X125.96 Y115.02 E3.8744
G1 X125.96 Y114.98 E3.8744
G1 X125.86 Y114.89 E3.8744
G1 X125.86 Y114.72 E3.8744
G1 X125.82 Y114.71 E3.8744
G1 X125.63 Y114.95 E3.8744
G1 X125.62 Y115.04 E3.8744
G1 X125.82 Y115.29 E3.8744
G1 X125.86 Y115.28 E3.8744
G1 X125.65 Y115.01 E3.8744
;
; 'Perimeter', 180.0 [RPM], 90.2 [mm/s]
G1 F12338.5
G1 X117.62 Y107.76 E3.8744
G1 F5411.9
G1 X117.62 Y122.08 E4.4697
G1 X117.64 Y122.24 E4.4762
G1 X118.18 Y121.75 E4.5067
G1 X119.34 Y120.61 E4.5742
;
; 'Loop', 132.4 [RPM], 66.4 [mm/s]
G1 F12338.5
G1 X118.12 Y108.25 E4.5742
G1 F3981.9
G1 X118.18 Y108.13 E4.5797
G1 X136.51 Y108.13 E5.3417
G1 X136.59 Y108.23 E5.347
G1 X136.59 Y110.1 E5.4244
G1 X126.06 Y110.1 E5.8618
G1 X125.66 Y110.13 E5.8788
G1 X125.42 Y110.24 E5.8899
G1 X125.18 Y110.53 E5.9055
G1 X125.09 Y110.98 E5.9244
G1 X125.09 Y111.07 E5.9284
G1 X125.09 Y113.37 E6.0239
G1 X125.05 Y113.41 E6.0264
G1 X124.77 Y113.16 E6.042
G1 X124.59 Y113.16 E6.0495
G1 X124.41 Y112.99 E6.0599
G1 X124.23 Y112.99 E6.0674
G1 X124.14 Y112.9 E6.0726
G1 X123.96 Y112.9 E6.08
G1 X123.87 Y112.82 E6.0852
;
; 'Loop', 132.4 [RPM], 66.4 [mm/s]
G1 F12338.5
G1 X118.12 Y108.31 E6.0852
G1 F3981.9
G1 X118.12 Y121.75 E6.6438
G1 X119.33 Y120.59 E6.7132
;
; 'Wipe', 0.0 [RPM], 55.5 [mm/s]
G1 F12338.5
G1 X119.33 Y120.59 E6.7132
G1 F3331.4
G1 X118.12 Y121.75 E6.7132
G1 X118.12 Y113.38 E6.7132
;
; 'Perimeter', 180.0 [RPM], 90.2 [mm/s]
G1 F12338.5
G1 X116.35 Y121.87 E6.7132
G1 F5411.9
G1 X116.59 Y122.09 E6.7268
G1 X116.4 Y122.24 E6.7368
G1 X116.08 Y122.2 E6.75
G1 X115.86 Y122.24 E6.7593
G1 X115.86 Y107.75 E7.3617
G1 X115.91 Y107.63 E7.3674
G1 X116.86 Y107.63 E7.4069
G1 X116.83 Y107.67 E7.4088
G1 X116.85 Y107.86 E7.4168
G1 X116.51 Y108.22 E7.4376
G1 X116.51 Y121.66 E7.9963
G1 X116.5 Y121.78 E8.0012
G1 X116.59 Y121.87 E8.0064
G1 X116.59 Y122.09 E8.0157
G1 X116.26 Y122.07 E8.0293
;
; 'Loop', 132.4 [RPM], 66.4 [mm/s]
G1 F12338.5
G1 X116.48 Y121.63 E8.0293
G1 F3981.9
G1 X116.39 Y121.72 E8.0344
G1 X116.37 Y121.56 E8.041
G1 X116.37 Y108.26 E8.5938
G1 X116.42 Y108.13 E8.5995
G1 X116.54 Y108.13 E8.6045
G1 X116.48 Y108.2 E8.6081
G1 X116.48 Y121.63 E9.1668
;
; 'Wipe', 0.0 [RPM], 55.5 [mm/s]
G1 F12338.5
G1 X116.48 Y121.63 E9.1668
G1 F3331.4
G1 X116.48 Y111.56 E9.1668
;
; 'Perimeter', 180.0 [RPM], 90.2 [mm/s]
G1 F12338.5
G1 X115.23 Y123.05 E9.1668
G1 F5411.9
G1 X115.22 Y123.2 E9.173
G1 X115.21 Y123.72 E9.1946
G1 X115.12 Y123.8 E9.1997
G1 X115.11 Y124.33 E9.2217
G1 X115.02 Y124.42 E9.2269
G1 X115.03 Y124.67 E9.2373
;
; 'Loop', 132.4 [RPM], 66.4 [mm/s]
G1 F12338.5
G1 X115.24 Y123.57 E9.2373
G1 F3981.9
G1 X115.32 Y123.5 E9.2418
G1 X115.62 Y123.42 E9.2547
G1 X115.76 Y123.4 E9.2609
G1 X138.05 Y123.4 E10.1875
G1 X138.2 Y123.42 E10.1937
G1 X138.48 Y123.49 E10.2057
G1 X138.84 Y123.49 E10.2205
G1 X138.85 Y123.82 E10.2345
G1 X138.94 Y123.91 E10.2397
G1 X138.95 Y124.43 E10.2614
G1 X139.04 Y124.52 E10.2666
G1 X139.04 Y124.69 E10.2739
;
; 'Loop', 132.4 [RPM], 66.4 [mm/s]
G1 F12338.5
G1 X115.24 Y123.58 E10.2739
G1 F3981.9
G1 X115.23 Y123.74 E10.2806
G1 X115.14 Y123.82 E10.2858
G1 X115.13 Y124.35 E10.3075
G1 X115.04 Y124.43 E10.3127
G1 X115.04 Y124.66 E10.3221
;
; 'Wipe', 0.0 [RPM], 55.5 [mm/s]
G1 F12338.5
G1 X115.04 Y124.66 E10.3221
G1 F3331.4
G1 X115.04 Y124.43 E10.3221
G1 X115.13 Y124.35 E10.3221
G1 X115.14 Y123.82 E10.3221
G1 X115.23 Y123.74 E10.3221
G1 X115.24 Y123.58 E10.3221
;
; 'Perimeter', 180.0 [RPM], 90.2 [mm/s]
G1 F12338.5
G1 X117.62 Y107.74 E10.3221
G1 F5411.9
G1 X117.68 Y107.63 E10.3275
G1 X137.02 Y107.63 E11.1314
G1 X137.09 Y107.73 E11.1366
G1 X137.09 Y110.6 E11.256
G1 X126.09 Y110.6 E11.7134
G1 X125.79 Y110.61 E11.726
G1 X125.68 Y110.68 E11.7313
G1 X125.6 Y110.95 E11.7433
G1 X125.6 Y111.1 E11.7492
G1 X125.6 Y113.78 E11.8607
G1 X125.57 Y113.93 E11.8671
G1 X125.42 Y113.92 E11.8732
G1 X125.39 Y113.78 E11.8793
G1 X125.39 Y113.6 E11.8866
G1 X125.2 Y113.43 E11.897
G1 X125.02 Y113.44 E11.9046
G1 X124.75 Y113.18 E11.9202
G1 X124.57 Y113.18 E11.9277
G1 X124.4 Y113 E11.9381
G1 X124.22 Y113 E11.9455
G1 X124.13 Y112.92 E11.9507
G1 X123.95 Y112.92 E11.9581
G1 X123.86 Y112.83 E11.9633
;
; 'Wipe', 0.0 [RPM], 55.5 [mm/s]
G1 F12338.5
G1 X123.86 Y112.83 E11.9633
G1 F3331.4
G1 X123.95 Y112.92 E11.9633
G1 X124.13 Y112.92 E11.9633
G1 X124.22 Y113 E11.9633
G1 X124.4 Y113 E11.9633
G1 X124.57 Y113.18 E11.9633
G1 X124.75 Y113.18 E11.9633
G1 X125.02 Y113.44 E11.9633
G1 X125.2 Y113.43 E11.9633
G1 X125.39 Y113.6 E11.9633
G1 X125.39 Y113.78 E11.9633
G1 X125.42 Y113.92 E11.9633
G1 X125.57 Y113.93 E11.9633
G1 X125.6 Y113.78 E11.9633
G1 X125.6 Y111.1 E11.9633
G1 X125.61 Y110.79 E11.9633
G1 X125.68 Y110.68 E11.9633
G1 X125.91 Y110.6 E11.9633
G1 X126.09 Y110.6 E11.9633
G1 X130.16 Y110.6 E11.9633
;
; 'Crown', 180.0 [RPM], 90.2 [mm/s]
G1 F12338.5
G1 X125.58 Y116.06 E11.9633
G1 F5411.9
G1 X125.6 Y116.08 E11.9643
G1 X125.6 Y119.05 E12.0878
G1 X125.65 Y119.35 E12.1005
;
; 'Solid', 110.8 [RPM], 55.5 [mm/s]
G1 F12338.5
G1 X127.21 Y120.69 E12.1005
G1 F3331.4
G1 X126.91 Y120.39 E12.118
G1 X126.62 Y120.81 E12.1391
G1 X126.8 Y120.99 E12.1496
G1 X127.56 Y120.34 E12.1914
G1 X127.86 Y120.64 E12.2089
G1 X128.32 Y120.39 E12.2306
G1 X128.62 Y120.69 E12.2482
G1 X128.98 Y120.34 E12.269
G1 X129.28 Y120.64 E12.2865
G1 X129.74 Y120.39 E12.3083
G1 X130.04 Y120.69 E12.3258
G1 X130.39 Y120.34 E12.3466
G1 X130.69 Y120.64 E12.3642
G1 X131.15 Y120.39 E12.3859
G1 X131.45 Y120.69 E12.4035
G1 X131.81 Y120.34 E12.4243
G1 X132.1 Y120.64 E12.4418
G1 X132.57 Y120.39 E12.4635
G1 X132.86 Y120.69 E12.4811
G1 X133.22 Y120.34 E12.5019
G1 X133.52 Y120.64 E12.5194
G1 X133.98 Y120.39 E12.5412
G1 X134.28 Y120.69 E12.5587
G1 X134.63 Y120.34 E12.5795
G1 X134.93 Y120.64 E12.5971
G1 X135.39 Y120.39 E12.6188
G1 X135.69 Y120.69 E12.6364
;
; 'Solid', 110.8 [RPM], 55.5 [mm/s]
G1 F12338.5
G1 X137.11 Y120.69 E12.6364
G1 F3331.4
G1 X136.98 Y120.57 E12.6437
G1 X136.14 Y120.43 E12.6793
G1 X137.05 Y121.34 E12.7328
;
; 'Wipe', 0.0 [RPM], 55.5 [mm/s]
G1 F12338.5
G1 X137.05 Y121.34 E12.7328
G1 F3331.4
G1 X136.14 Y120.43 E12.7328
G1 X136.98 Y120.57 E12.7328
G1 X137.11 Y120.69 E12.7328
;
; 'Solid', 110.8 [RPM], 55.5 [mm/s]
G1 F12338.5
G1 X135.59 Y108.57 E12.7328
G1 F3331.4
G1 X136.09 Y109.07 E12.7622
G1 X135.91 Y109.6 E12.7854
G1 X134.96 Y108.65 E12.8415
G1 X134.25 Y108.65 E12.8709
G1 X135.19 Y109.58 E12.926
G1 X134.48 Y109.58 E12.9554
G1 X133.55 Y108.65 E13.0105
G1 X132.84 Y108.65 E13.0399
G1 X133.78 Y109.58 E13.095
G1 X133.07 Y109.58 E13.1244
G1 X132.13 Y108.65 E13.1796
G1 X131.42 Y108.65 E13.209
G1 X132.36 Y109.58 E13.2641
G1 X131.66 Y109.58 E13.2935
G1 X130.72 Y108.65 E13.3486
G1 X130.01 Y108.65 E13.378
G1 X130.95 Y109.58 E13.4331
G1 X130.24 Y109.58 E13.4625
G1 X129.3 Y108.65 E13.5176
G1 X128.6 Y108.65 E13.547
G1 X129.53 Y109.58 E13.6021
G1 X128.83 Y109.58 E13.6315
G1 X127.89 Y108.65 E13.6867
G1 X127.18 Y108.65 E13.7161
G1 X128.12 Y109.58 E13.7712
G1 X127.41 Y109.58 E13.8006
G1 X126.48 Y108.65 E13.8557
G1 X125.77 Y108.65 E13.8851
G1 X126.71 Y109.58 E13.9402
G1 X126 Y109.58 E13.9696
G1 X125.06 Y108.65 E14.0248
G1 X124.35 Y108.65 E14.0542
G1 X125.39 Y109.68 E14.1152
G1 X124.96 Y109.96 E14.1365
G1 X123.65 Y108.65 E14.2136
G1 X122.94 Y108.65 E14.243
G1 X124.67 Y110.38 E14.3449
G1 X124.59 Y111 E14.371
G1 X122.23 Y108.65 E14.5095
G1 X121.53 Y108.65 E14.5389
G1 X124.58 Y111.7 E14.7184
G1 X124.58 Y112.41 E14.7478
G1 X120.82 Y108.65 E14.9688
G1 X120.11 Y108.65 E14.9982
G1 X124.31 Y112.85 E15.2453
G1 X123.64 Y112.89 E15.2732
G1 X119.4 Y108.65 E15.5224
G1 X118.7 Y108.65 E15.5518
G1 X123.28 Y113.23 E15.8214
G1 X123.28 Y113.94 E15.8509
G1 X118.64 Y109.29 E16.1241
G1 X118.64 Y110 E16.1535
G1 X123.28 Y114.65 E16.4267
G1 X123.28 Y115.36 E16.4561
G1 X118.64 Y110.71 E16.7293
G1 X118.64 Y111.42 E16.7587
G1 X123.28 Y116.06 E17.0319
G1 X123.28 Y116.77 E17.0613
G1 X118.64 Y112.12 E17.3346
G1 X118.64 Y112.83 E17.364
G1 X123.28 Y117.48 E17.6372
G1 X123.28 Y118.18 E17.6666
G1 X118.64 Y113.54 E17.9398
G1 X118.64 Y114.24 E17.9692
G1 X123.28 Y118.89 E18.2424
G1 X123.28 Y119.6 E18.2718
G1 X118.64 Y114.95 E18.545
G1 X118.64 Y115.66 E18.5744
G1 X123.28 Y120.3 E18.8476
G1 X122.57 Y120.3 E18.8772
G1 X118.64 Y116.37 E19.1085
G1 X118.64 Y117.07 E19.1379
G1 X121.87 Y120.3 E19.3277
G1 X121.16 Y120.3 E19.3571
G1 X118.64 Y117.78 E19.5053
G1 X118.64 Y118.49 E19.5347
G1 X120.45 Y120.3 E19.6414
G1 X119.74 Y120.3 E19.6708
G1 X118.64 Y119.19 E19.7358
G1 X118.64 Y119.9 E19.7652
G1 X119.03 Y120.3 E19.7885
G1 X118.65 Y120.62 E19.8093
G1 X118.62 Y120.59 E19.8112
;
; 'Wipe', 0.0 [RPM], 55.5 [mm/s]
G1 F12338.5
G1 X118.62 Y120.59 E19.8112
G1 F3331.4
G1 X118.65 Y120.62 E19.8112
G1 X119.03 Y120.3 E19.8112
G1 X118.64 Y119.9 E19.8112
G1 X118.64 Y119.19 E19.8112
G1 X119.74 Y120.3 E19.8112
G1 X120.45 Y120.3 E19.8112
G1 X118.64 Y118.49 E19.8112
G1 X118.64 Y117.78 E19.8112
G1 X121.16 Y120.3 E19.8112
;
; 'Stacked Sparse Infill', 180.0 [RPM], 90.2 [mm/s]
G1 F12338.5
G1 X139.19 Y124.9 E19.8112
G1 F5411.9
G1 X140.25 Y125.96 E19.8736
G1 X138.84 Y127.37 E19.9568
G1 X137.92 Y126.46 E20.0108
G1 X137.74 Y126.35 E20.0194
G1 X137.5 Y126.31 E20.0298
G1 X135.23 Y126.31 E20.1239
G1 X134.99 Y126.28 E20.1343
G1 X134.81 Y126.17 E20.1428
G1 X133.68 Y125.04 E20.2094
G1 X133.57 Y124.86 E20.2179
G1 X133.54 Y124.62 E20.2283
G1 X133.54 Y124.19 E20.2462
G1 X127.88 Y124.19 E20.4814
G1 X127.88 Y124.62 E20.4994
G1 X127.91 Y124.86 E20.5098
G1 X128.02 Y125.04 E20.5183
G1 X129.15 Y126.17 E20.5848
G1 X129.33 Y126.28 E20.5934
G1 X129.58 Y126.31 E20.6038
G1 X131.84 Y126.31 E20.6979
G1 X132.09 Y126.35 E20.7083
G1 X132.26 Y126.46 E20.7168
G1 X133.39 Y127.59 E20.7834
G1 X133.5 Y127.76 E20.7919
G1 X133.54 Y128.01 E20.8023
G1 X133.54 Y130.27 E20.8964
G1 X133.57 Y130.52 E20.9068
G1 X133.68 Y130.7 E20.9154
G1 X134.6 Y131.62 E20.9694
G1 X133.18 Y133.03 E21.0526
G1 X132.26 Y132.11 E21.1066
G1 X132.09 Y132.01 E21.1152
G1 X131.84 Y131.97 E21.1256
G1 X129.58 Y131.97 E21.2197
G1 X129.33 Y131.94 E21.2301
G1 X129.15 Y131.83 E21.2386
G1 X128.02 Y130.7 E21.3051
G1 X127.91 Y130.52 E21.3137
G1 X127.88 Y130.27 E21.3241
G1 X127.88 Y128.01 E21.4182
G1 X127.84 Y127.76 E21.4286
G1 X127.74 Y127.59 E21.4371
G1 X126.61 Y126.46 E21.5037
G1 X126.43 Y126.35 E21.5122
G1 X126.18 Y126.31 E21.5226
G1 X123.92 Y126.31 E21.6167
G1 X123.67 Y126.28 E21.6271
G1 X123.49 Y126.17 E21.6357
G1 X122.36 Y125.04 E21.7022
G1 X122.26 Y124.86 E21.7108
G1 X122.22 Y124.62 E21.7212
G1 X122.22 Y124.19 E21.7391
G1 X116.56 Y124.19 E21.9743
G1 X116.56 Y124.62 E21.9922
G1 X116.6 Y124.86 E22.0026
G1 X116.71 Y125.04 E22.0112
G1 X117.84 Y126.17 E22.0777
G1 X118.01 Y126.28 E22.0863
G1 X118.26 Y126.31 E22.0966
G1 X120.52 Y126.31 E22.1907
G1 X120.77 Y126.35 E22.2011
G1 X120.95 Y126.46 E22.2097
G1 X122.08 Y127.59 E22.2762
G1 X122.19 Y127.76 E22.2848
G1 X122.22 Y128.01 E22.2952
G1 X122.22 Y130.27 E22.3892
G1 X122.26 Y130.52 E22.3996
G1 X122.36 Y130.7 E22.4082
G1 X123.49 Y131.83 E22.4747
G1 X123.67 Y131.94 E22.4833
G1 X123.92 Y131.97 E22.4937
G1 X126.18 Y131.97 E22.5878
G1 X126.43 Y132.01 E22.5982
G1 X126.61 Y132.11 E22.6067
G1 X127.74 Y133.24 E22.6733
G1 X127.84 Y133.42 E22.6818
G1 X127.88 Y133.67 E22.6922
G1 X127.88 Y135.93 E22.7863
G1 X127.91 Y136.18 E22.7967
G1 X128.02 Y136.35 E22.8053
G1 X128.94 Y137.27 E22.8593
;
; 'Wipe', 0.0 [RPM], 55.5 [mm/s]
G1 F12338.5
G1 X128.94 Y137.27 E22.8593
G1 F3331.4
G1 X128.02 Y136.35 E22.8593
G1 X127.91 Y136.18 E22.8593
G1 X127.88 Y135.93 E22.8593
G1 X127.88 Y133.67 E22.8593
G1 X127.84 Y133.42 E22.8593
G1 X127.74 Y133.24 E22.8593
G1 X126.61 Y132.11 E22.8593
G1 X126.43 Y132.01 E22.8593
G1 X126.18 Y131.97 E22.8593
G1 X123.92 Y131.97 E22.8593
G1 X123.67 Y131.94 E22.8593
G1 X123.49 Y131.83 E22.8593
G1 X122.93 Y131.26 E22.8593
;
; 'Perimeter', 180.0 [RPM], 90.2 [mm/s]
G1 F12338.5
G1 X137.92 Y113.66 E22.8593
G1 F5411.9
G1 X138 Y113.98 E22.8732
G1 X137.91 Y113.98 E22.8769
G1 X137.79 Y113.93 E22.8825
G1 X137.85 Y113.84 E22.8872
G1 X137.85 Y113.69 E22.8932
G1 X137.85 Y107.82 E23.1373
G1 X137.86 Y107.67 E23.1437
G1 X137.83 Y107.63 E23.1457
G1 X138.06 Y107.65 E23.155
G1 X138.06 Y113.86 E23.4133
G1 X138 Y113.98 E23.4188
G1 X137.74 Y113.77 E23.4327
;
; 'Wipe', 0.0 [RPM], 55.5 [mm/s]
G1 F12338.5
G1 X137.74 Y113.77 E23.4327
G1 F3331.4
G1 X138 Y113.98 E23.4327
G1 X138.06 Y113.86 E23.4327
G1 X138.06 Y107.65 E23.4327
G1 X137.83 Y107.63 E23.4327
G1 X137.86 Y107.67 E23.4327
G1 X137.85 Y107.82 E23.4327
G1 X137.85 Y110.83 E23.4327
;
; 'Perimeter', 180.0 [RPM], 90.2 [mm/s]
G1 F12338.5
G1 X135.44 Y112.84 E23.4327
G1 F5411.9
G1 X136.6 Y111.7 E23.5002
G1 X137.06 Y111.3 E23.5256
G1 X137.09 Y111.44 E23.5318
G1 X137.09 Y114.09 E23.642
G1 X137.03 Y114.25 E23.6492
G1 X136.91 Y114.31 E23.6548
G1 X136.74 Y114.32 E23.6617
G1 X136.66 Y114.41 E23.6669
G1 X136.6 Y114.41 E23.6691
G1 X135.43 Y114.42 E23.7179
G1 X135.34 Y114.51 E23.7231
;
; 'Wipe', 0.0 [RPM], 55.5 [mm/s]
G1 F12338.5
G1 X135.34 Y114.51 E23.7231
G1 F3331.4
G1 X135.43 Y114.42 E23.7231
G1 X136.6 Y114.41 E23.7231
G1 X136.66 Y114.41 E23.7231
G1 X136.74 Y114.32 E23.7231
G1 X136.91 Y114.31 E23.7231
G1 X137.03 Y114.25 E23.7231
G1 X137.09 Y114.09 E23.7231
G1 X137.09 Y111.44 E23.7231
G1 X137.06 Y111.3 E23.7231
G1 X136.6 Y111.7 E23.7231
G1 X135.44 Y112.84 E23.7231
;
; 'Loop', 132.4 [RPM], 66.4 [mm/s]
G1 F12338.5
G1 X135.45 Y112.85 E23.7231
G1 F3981.9
G1 X136.59 Y111.77 E23.7884
G1 X136.59 Y113.99 E23.8806
G1 X136.52 Y114.31 E23.8944
G1 X136.46 Y114.39 E23.8984
G1 X135.42 Y114.41 E23.9416
G1 X135.33 Y114.5 E23.9468
;
; 'Wipe', 0.0 [RPM], 55.5 [mm/s]
G1 F12338.5
G1 X135.33 Y114.5 E23.9468
G1 F3331.4
G1 X135.42 Y114.41 E23.9468
G1 X136.46 Y114.39 E23.9468
G1 X136.52 Y114.31 E23.9468
G1 X136.59 Y113.99 E23.9468
G1 X136.59 Y111.77 E23.9468
G1 X135.45 Y112.85 E23.9468
;
; 'Stacked Sparse Infill', 180.0 [RPM], 90.2 [mm/s]
G1 F12338.5
G1 X134.95 Y115 E23.9468
G1 F5411.9
G1 X134.81 Y114.86 E23.9551
G1 X133.54 Y113.58 E24.03
G1 X133.54 Y116.42 E24.1477
G1 X132.26 Y115.14 E24.2225
G1 X132.09 Y115.04 E24.2311
G1 X131.84 Y115 E24.2415
G1 X129.58 Y115 E24.3356
G1 X129.33 Y114.96 E24.346
G1 X129.15 Y114.86 E24.3545
G1 X127.88 Y113.58 E24.4294
;
; 'Wipe', 0.0 [RPM], 55.5 [mm/s]
G1 F12338.5
G1 X127.88 Y113.58 E24.4294
G1 F3331.4
G1 X129.15 Y114.86 E24.4294
G1 X129.33 Y114.96 E24.4294
G1 X129.58 Y115 E24.4294
G1 X131.84 Y115 E24.4294
G1 X132.09 Y115.04 E24.4294
G1 X132.26 Y115.14 E24.4294
G1 X133.54 Y116.42 E24.4294
G1 X133.54 Y113.58 E24.4294
G1 X133.89 Y113.94 E24.4294
; fan off
M107
G1 F210
G1 X133.89 Y113.94 Z0.6 E24.4294
; END_LAYER_OBJECT z=0.40
; Reset extruder pos
G92 E0
; BEGIN_LAYER_OBJECT z=0.60
; *** Cooling...speed multiplier is 0.825731 ***
; fan on
M106
;
; 'Perimeter', 180.0 [RPM], 90.2 [mm/s]
G1 F15000
G1 X114.86 Y123.2 E0
G1 F5411.9
G1 X114.96 Y123.12 E0.0052
G1 X115 Y122.98 E0.011
G1 X115.11 Y122.92 E0.0163
G1 X115.16 Y122.94 E0.0185
G1 X115.32 Y122.94 E0.025
G1 X115.38 Y122.9 E0.0283
G1 X138.96 Y122.9 E1.0086
G1 X139.05 Y122.92 E1.0125
G1 X139.16 Y122.98 E1.0179
G1 X139.41 Y123 E1.0281
G1 X139.46 Y123.04 E1.0309
G1 X139.48 Y123.2 E1.0377
G1 X139.57 Y123.28 E1.0429
G1 X139.58 Y123.63 E1.0573
G1 X139.67 Y123.72 E1.0625
G1 X139.67 Y124.07 E1.077
G1 X139.76 Y124.16 E1.0822
G1 X139.76 Y124.33 E1.0896
G1 X139.85 Y124.42 E1.0948
G1 X139.85 Y124.6 E1.1021
;
; 'Wipe', 0.0 [RPM], 55.7 [mm/s]
G1 F12386
G1 X139.85 Y124.6 E1.1021
G1 F3344.2
G1 X139.85 Y124.42 E1.1021
G1 X139.76 Y124.33 E1.1021
G1 X139.76 Y124.16 E1.1021
G1 X139.67 Y124.07 E1.1021
G1 X139.67 Y123.72 E1.1021
G1 X139.58 Y123.63 E1.1021
G1 X139.57 Y123.28 E1.1021
G1 X139.48 Y123.2 E1.1021
G1 X139.46 Y123.04 E1.1021
G1 X139.41 Y123 E1.1021
G1 X139.16 Y122.98 E1.1021
G1 X138.96 Y122.9 E1.1021
G1 X138.89 Y122.9 E1.1021
G1 X131.18 Y122.9 E1.1021
;
; 'Perimeter', 180.0 [RPM], 90.2 [mm/s]
G1 F12386
G1 X138.36 Y121.76 E1.1021
G1 F5411.9
G1 X138.45 Y122.03 E1.114
G1 X138.24 Y122.18 E1.1245
G1 X138.21 Y122.17 E1.1258
G1 X138.19 Y121.83 E1.1397
G1 X138.1 Y121.75 E1.1449
G1 X138.1 Y121.57 E1.1523
G1 X138.01 Y121.48 E1.1575
G1 X137.83 Y121.49 E1.165
G1 X137.21 Y120.87 E1.2014
G1 X127.03 Y120.87 E1.6246
G1 X126.05 Y121.83 E1.6818
G1 X125.62 Y122.2 E1.7053
G1 X125.62 Y119.82 E1.8045
G1 X125.89 Y119.55 E1.8201
G1 X125.99 Y119.48 E1.8254
G1 X126.13 Y119.4 E1.8321
G1 X137.27 Y119.4 E2.2951
G1 X137.4 Y119.39 E2.3004
G1 X137.51 Y119.33 E2.3058
G1 X137.57 Y119.21 E2.3111
G1 X137.62 Y119.05 E2.3184
G1 X137.62 Y116.08 E2.4417
G1 X137.73 Y116.02 E2.4471
G1 X138.53 Y116.02 E2.4802
G1 X138.69 Y116.03 E2.4869
G1 X138.69 Y121.75 E2.7244
G1 X138.45 Y122.03 E2.7401
G1 X138.18 Y121.93 E2.752
;
; 'Loop', 132.9 [RPM], 66.6 [mm/s]
G1 F12386
G1 X138.13 Y121.72 E2.752
G1 F3997.2
G1 X138.13 Y121.54 E2.7592
G1 X138.04 Y121.46 E2.7645
G1 X137.85 Y121.47 E2.7721
G1 X137.22 Y120.86 E2.8085
G1 X127.02 Y120.86 E3.2328
G1 X126.13 Y121.7 E3.2838
G1 X126.13 Y119.97 E3.356
G1 X126.24 Y119.9 E3.3615
G1 X137.29 Y119.9 E3.821
G1 X137.66 Y119.83 E3.8363
G1 X137.77 Y119.76 E3.8417
G1 X137.94 Y119.58 E3.8521
G1 X138.08 Y119.64 E3.8585
G1 X138.19 Y119.72 E3.8637
G1 X138.19 Y121.6 E3.9417
G1 X138.13 Y121.72 E3.9473
;
; 'Wipe', 0.0 [RPM], 55.7 [mm/s]
G1 F12386
G1 X138.13 Y121.72 E3.9473
G1 F3344.2
G1 X138.19 Y121.6 E3.9473
G1 X138.19 Y119.72 E3.9473
G1 X138.08 Y119.64 E3.9473
G1 X137.94 Y119.58 E3.9473
G1 X137.77 Y119.76 E3.9473
G1 X137.53 Y119.88 E3.9473
G1 X137.29 Y119.9 E3.9473
G1 X130.31 Y119.9 E3.9473
;
; 'Perimeter', 180.0 [RPM], 90.2 [mm/s]
G1 F12386
G1 X125.65 Y115.01 E3.9473
G1 F5411.9
G1 X125.86 Y115.28 E3.9618
G1 X125.82 Y115.29 E3.9635
G1 X125.62 Y115.04 E3.9766
G1 X125.63 Y114.95 E3.9804
G1 X125.82 Y114.71 E3.9933
G1 X125.86 Y114.72 E3.995
G1 X125.86 Y114.89 E4.0022
G1 X125.96 Y114.98 E4.0074
G1 X125.96 Y115.02 E4.0094
G1 X125.87 Y115.11 E4.0146
G1 X125.86 Y115.28 E4.0218
G1 X125.54 Y115.15 E4.0362
;
; 'Wipe', 0.0 [RPM], 55.7 [mm/s]
G1 F12386
G1 X125.54 Y115.15 E4.0362
G1 F3344.2
G1 X125.86 Y115.28 E4.0362
G1 X125.87 Y115.11 E4.0362
G1 X125.96 Y115.02 E4.0362
G1 X125.96 Y114.98 E4.0362
G1 X125.86 Y114.89 E4.0362
G1 X125.86 Y114.72 E4.0362
G1 X125.82 Y114.71 E4.0362
G1 X125.63 Y114.95 E4.0362
G1 X125.62 Y115.04 E4.0362
G1 X125.82 Y115.29 E4.0362
G1 X125.86 Y115.28 E4.0362
G1 X125.65 Y115.01 E4.0362
;
; 'Perimeter', 180.0 [RPM], 90.2 [mm/s]
G1 F12386
G1 X117.62 Y107.76 E4.0362
G1 F5411.9
G1 X117.62 Y122.08 E4.6316
G1 X117.64 Y122.24 E4.638
G1 X118.18 Y121.75 E4.6685
G1 X119.34 Y120.61 E4.7361
;
; 'Loop', 132.9 [RPM], 66.6 [mm/s]
G1 F12386
G1 X118.12 Y108.25 E4.7361
G1 F3997.2
G1 X118.18 Y108.13 E4.7416
G1 X136.51 Y108.13 E5.5036
G1 X136.59 Y108.23 E5.5088
G1 X136.59 Y110.1 E5.5863
G1 X126.06 Y110.1 E6.0237
G1 X125.66 Y110.13 E6.0407
G1 X125.42 Y110.24 E6.0517
G1 X125.18 Y110.53 E6.0674
G1 X125.09 Y110.98 E6.0862
G1 X125.09 Y111.07 E6.0902
G1 X125.09 Y113.37 E6.1858
G1 X125.05 Y113.41 E6.1882
G1 X124.77 Y113.16 E6.2038
G1 X124.59 Y113.16 E6.2114
G1 X124.41 Y112.99 E6.2218
G1 X124.23 Y112.99 E6.2293
G1 X124.14 Y112.9 E6.2345
G1 X123.96 Y112.9 E6.2419
G1 X123.87 Y112.82 E6.2471
;
; 'Loop', 132.9 [RPM], 66.6 [mm/s]
G1 F12386
G1 X118.12 Y108.31 E6.2471
G1 F3997.2
G1 X118.12 Y121.75 E6.8057
G1 X119.33 Y120.59 E6.8751
;
; 'Wipe', 0.0 [RPM], 55.7 [mm/s]
G1 F12386
G1 X119.33 Y120.59 E6.8751
G1 F3344.2
G1 X118.12 Y121.75 E6.8751
G1 X118.12 Y113.38 E6.8751
;
; 'Perimeter', 180.0 [RPM], 90.2 [mm/s]
G1 F12386
G1 X115.64 Y121.87 E6.8751
G1 F5411.9
G1 X115.88 Y122.09 E6.8886
G1 X115.69 Y122.24 E6.8987
G1 X115.46 Y122.2 E6.9083
G1 X115.38 Y122.12 E6.9131
G1 X115.38 Y107.8 E7.5084
G1 X115.38 Y107.63 E7.5156
G1 X116.86 Y107.63 E7.5772
G1 X116.83 Y107.67 E7.5791
G1 X116.85 Y107.86 E7.5871
G1 X116.25 Y108.49 E7.6235
G1 X116.25 Y121.4 E8.16
G1 X116.06 Y121.57 E8.1704
G1 X116.07 Y121.75 E8.1779
G1 X115.88 Y121.92 E8.1883
G1 X115.88 Y122.09 E8.1954
G1 X115.55 Y122.07 E8.209
;
; 'Loop', 132.9 [RPM], 66.6 [mm/s]
G1 F12386
G1 X116.04 Y121.72 E8.209
G1 F3997.2
G1 X115.94 Y121.81 E8.2144
G1 X115.88 Y121.69 E8.2199
G1 X115.88 Y108.31 E8.7765
G1 X115.89 Y108.13 E8.7837
G1 X116.54 Y108.13 E8.8107
G1 X116.22 Y108.47 E8.8299
G1 X116.22 Y121.38 E9.3664
G1 X116.04 Y121.55 E9.3768
G1 X116.04 Y121.72 E9.3842
;
; 'Perimeter', 180.0 [RPM], 90.2 [mm/s]
G1 F12386
G1 X114.87 Y123.24 E9.3842
G1 F5411.9
G1 X114.85 Y123.72 E9.404
G1 X114.76 Y123.8 E9.4092
G1 X114.76 Y124.51 E9.4385
G1 X114.67 Y124.6 E9.4437
G1 X114.67 Y124.67 E9.4468
;
; 'Loop', 132.9 [RPM], 66.6 [mm/s]
G1 F12386
G1 X114.88 Y123.57 E9.4468
G1 F3997.2
G1 X114.96 Y123.5 E9.4514
G1 X115.41 Y123.4 E9.4703
G1 X135.22 Y123.4 E10.294
G1 X138.76 Y123.4 E10.441
G1 X138.9 Y123.42 E10.4472
G1 X139.18 Y123.49 E10.4592
G1 X139.54 Y123.49 E10.4741
G1 X139.55 Y123.65 E10.4809
G1 X139.65 Y123.74 E10.4861
G1 X139.65 Y124.08 E10.5005
G1 X139.74 Y124.17 E10.5057
G1 X139.75 Y124.34 E10.5129
G1 X139.84 Y124.43 E10.5181
G1 X139.84 Y124.61 E10.5254
;
; 'Loop', 132.9 [RPM], 66.6 [mm/s]
G1 F12386
G1 X114.88 Y123.58 E10.5254
G1 F3997.2
G1 X114.87 Y123.74 E10.5321
G1 X114.78 Y123.82 E10.5373
G1 X114.77 Y124.52 E10.5662
G1 X114.68 Y124.61 E10.5714
G1 X114.68 Y124.66 E10.5736
;
; 'Wipe', 0.0 [RPM], 55.7 [mm/s]
G1 F12386
G1 X114.68 Y124.66 E10.5736
G1 F3344.2
G1 X114.68 Y124.61 E10.5736
G1 X114.77 Y124.52 E10.5736
G1 X114.78 Y123.82 E10.5736
G1 X114.87 Y123.74 E10.5736
G1 X114.88 Y123.58 E10.5736
;
; 'Perimeter', 180.0 [RPM], 90.2 [mm/s]
G1 F12386
G1 X117.62 Y107.74 E10.5736
G1 F5411.9
G1 X117.68 Y107.63 E10.579
G1 X137.02 Y107.63 E11.3828
G1 X137.09 Y107.73 E11.3881
G1 X137.09 Y110.6 E11.5075
G1 X126.09 Y110.6 E11.9649
G1 X125.79 Y110.61 E11.9775
G1 X125.68 Y110.68 E11.9828
G1 X125.6 Y110.95 E11.9948
G1 X125.6 Y111.1 E12.0006
G1 X125.6 Y113.78 E12.1122
G1 X125.57 Y113.93 E12.1186
G1 X125.42 Y113.92 E12.1247
G1 X125.39 Y113.78 E12.1307
G1 X125.39 Y113.6 E12.1381
G1 X125.2 Y113.43 E12.1485
G1 X125.02 Y113.44 E12.1561
G1 X124.75 Y113.18 E12.1717
G1 X124.57 Y113.18 E12.1792
G1 X124.4 Y113 E12.1896
G1 X124.22 Y113 E12.197
G1 X124.13 Y112.92 E12.2022
G1 X123.95 Y112.92 E12.2096
G1 X123.86 Y112.83 E12.2148
;
; 'Wipe', 0.0 [RPM], 55.7 [mm/s]
G1 F12386
G1 X123.86 Y112.83 E12.2148
G1 F3344.2
G1 X123.95 Y112.92 E12.2148
G1 X124.13 Y112.92 E12.2148
G1 X124.22 Y113 E12.2148
G1 X124.4 Y113 E12.2148
G1 X124.57 Y113.18 E12.2148
G1 X124.75 Y113.18 E12.2148
G1 X125.02 Y113.44 E12.2148
G1 X125.2 Y113.43 E12.2148
G1 X125.39 Y113.6 E12.2148
G1 X125.39 Y113.78 E12.2148
G1 X125.42 Y113.92 E12.2148
G1 X125.57 Y113.93 E12.2148
G1 X125.6 Y113.78 E12.2148
G1 X125.6 Y111.1 E12.2148
G1 X125.61 Y110.79 E12.2148
G1 X125.68 Y110.68 E12.2148
G1 X125.91 Y110.6 E12.2148
G1 X126.09 Y110.6 E12.2148
G1 X130.16 Y110.6 E12.2148
;
; 'Crown', 180.0 [RPM], 90.2 [mm/s]
G1 F12386
G1 X125.58 Y116.06 E12.2148
G1 F5411.9
G1 X125.6 Y116.08 E12.2158
G1 X125.6 Y119.05 E12.3393
G1 X125.65 Y119.35 E12.352
;
; 'Wipe', 0.0 [RPM], 55.7 [mm/s]
G1 F12386
G1 X125.65 Y119.35 E12.352
G1 F3344.2
G1 X125.6 Y119.05 E12.352
G1 X125.6 Y116.08 E12.352
G1 X125.58 Y116.06 E12.352
;
; 'Crown', 180.0 [RPM], 90.2 [mm/s]
G1 F12386
G1 X138.13 Y119.25 E12.352
G1 F5411.9
G1 X138.15 Y119.08 E12.3589
G1 X138.14 Y119.05 E12.3601
G1 X138.15 Y116.57 E12.4632
G1 X138.22 Y116.5 E12.4674
;
; 'Wipe', 0.0 [RPM], 55.7 [mm/s]
G1 F12386
G1 X138.22 Y116.5 E12.4674
G1 F3344.2
G1 X138.15 Y116.57 E12.4674
G1 X138.15 Y119.08 E12.4674
G1 X138.14 Y119.25 E12.4674
G1 X138.13 Y119.25 E12.4674
;
; 'Solid', 111.2 [RPM], 55.7 [mm/s]
G1 F12386
G1 X127.49 Y120.34 E12.4674
G1 F3344.2
G1 X126.62 Y121.21 E12.5186
;
; 'Wipe', 0.0 [RPM], 55.7 [mm/s]
G1 F12386
G1 X126.62 Y121.21 E12.5186
G1 F3344.2
G1 X127.49 Y120.34 E12.5186
;
; 'Solid', 111.2 [RPM], 55.7 [mm/s]
G1 F12386
G1 X123.36 Y120.23 E12.5186
G1 F3344.2
G1 X123.29 Y120.3 E12.5229
G1 X122.58 Y120.3 E12.5523
G1 X123.28 Y119.59 E12.5938
G1 X123.28 Y118.89 E12.6232
G1 X121.87 Y120.3 E12.7063
G1 X121.16 Y120.3 E12.7357
G1 X123.28 Y118.18 E12.8603
G1 X123.28 Y117.47 E12.8897
G1 X120.46 Y120.3 E13.0559
G1 X119.75 Y120.3 E13.0853
G1 X123.28 Y116.77 E13.2931
G1 X123.28 Y116.06 E13.3225
G1 X118.64 Y120.71 E13.5957
G1 X118.64 Y120 E13.6251
G1 X123.28 Y115.35 E13.8983
G1 X123.28 Y114.64 E13.9278
G1 X118.64 Y119.29 E14.201
G1 X118.64 Y118.58 E14.2304
G1 X123.36 Y113.86 E14.5079
;
; 'Solid', 111.2 [RPM], 55.7 [mm/s]
G1 F12386
G1 X124.31 Y112.91 E14.5079
G1 F3344.2
G1 X124.58 Y112.64 E14.5238
G1 X124.58 Y111.94 E14.5531
G1 X118.64 Y117.88 E14.9024
G1 X118.64 Y117.17 E14.9318
G1 X124.55 Y111.26 E15.2796
G1 X124.77 Y110.33 E15.3192
G1 X118.64 Y116.46 E15.6799
G1 X118.64 Y115.76 E15.7093
G1 X125.75 Y108.65 E16.1273
G1 X125.04 Y108.65 E16.1567
G1 X118.64 Y115.05 E16.5331
G1 X118.64 Y114.34 E16.5625
G1 X124.33 Y108.65 E16.8974
G1 X123.63 Y108.65 E16.9268
G1 X118.64 Y113.63 E17.2201
G1 X118.64 Y112.93 E17.2494
G1 X122.92 Y108.65 E17.5011
G1 X122.21 Y108.65 E17.5305
G1 X118.64 Y112.22 E17.7407
G1 X118.64 Y111.51 E17.7701
G1 X121.5 Y108.65 E17.9386
G1 X120.8 Y108.65 E17.968
G1 X118.64 Y110.81 E18.095
G1 X118.64 Y110.1 E18.1244
G1 X120.09 Y108.65 E18.2098
G1 X119.38 Y108.65 E18.2392
G1 X118.64 Y109.39 E18.2827
G1 X118.69 Y108.63 E18.3141
G1 X118.7 Y108.62 E18.3146
;
; 'Solid', 111.2 [RPM], 55.7 [mm/s]
G1 F12386
G1 X125.23 Y109.87 E18.3146
G1 F3344.2
G1 X126.45 Y108.65 E18.3867
G1 X127.16 Y108.65 E18.4161
G1 X126.22 Y109.58 E18.4712
G1 X126.93 Y109.58 E18.5006
G1 X127.87 Y108.65 E18.5558
G1 X128.58 Y108.65 E18.5852
G1 X127.64 Y109.58 E18.6403
G1 X128.34 Y109.58 E18.6697
G1 X129.28 Y108.65 E18.7248
G1 X129.99 Y108.65 E18.7542
G1 X129.05 Y109.58 E18.8093
G1 X129.76 Y109.58 E18.8387
G1 X130.7 Y108.65 E18.8938
G1 X131.4 Y108.65 E18.9232
G1 X130.47 Y109.58 E18.9784
G1 X131.17 Y109.58 E19.0078
G1 X132.11 Y108.65 E19.0629
G1 X132.82 Y108.65 E19.0923
G1 X131.88 Y109.58 E19.1474
G1 X132.59 Y109.58 E19.1768
G1 X133.52 Y108.65 E19.2319
G1 X134.23 Y108.65 E19.2613
G1 X133.29 Y109.58 E19.3164
G1 X134 Y109.58 E19.3458
G1 X134.94 Y108.65 E19.401
G1 X135.65 Y108.65 E19.4304
G1 X134.71 Y109.58 E19.4855
G1 X135.42 Y109.58 E19.5149
G1 X136.15 Y108.85 E19.5582
;
; 'Wipe', 0.0 [RPM], 55.7 [mm/s]
G1 F12386
G1 X136.15 Y108.85 E19.5582
G1 F3344.2
G1 X135.42 Y109.58 E19.5582
G1 X134.71 Y109.58 E19.5582
G1 X135.65 Y108.65 E19.5582
G1 X134.94 Y108.65 E19.5582
G1 X134 Y109.58 E19.5582
G1 X133.29 Y109.58 E19.5582
G1 X134.23 Y108.65 E19.5582
G1 X133.52 Y108.65 E19.5582
G1 X132.59 Y109.58 E19.5582
G1 X131.88 Y109.58 E19.5582
G1 X132.82 Y108.65 E19.5582
;
; 'Solid', 111.2 [RPM], 55.7 [mm/s]
G1 F12386
G1 X137.09 Y120.64 E19.5582
G1 F3344.2
G1 X137.34 Y120.39 E19.5728
G1 X137.7 Y120.74 E19.5936
G1 X137.38 Y121.05 E19.6119
;
; 'Wipe', 0.0 [RPM], 55.7 [mm/s]
G1 F12386
G1 X137.38 Y121.05 E19.6119
G1 F3344.2
G1 X137.7 Y120.74 E19.6119
G1 X137.34 Y120.39 E19.6119
G1 X137.09 Y120.64 E19.6119
;
; 'Stacked Sparse Infill', 180.0 [RPM], 90.2 [mm/s]
G1 F12386
G1 X142.38 Y124.54 E19.6119
G1 F5411.9
G1 X127.88 Y139.04 E20.4644
G1 X126.46 Y137.63 E20.5476
G1 X127.74 Y136.35 E20.6224
G1 X127.84 Y136.18 E20.631
G1 X127.88 Y135.93 E20.6414
G1 X127.88 Y133.67 E20.7354
G1 X127.91 Y133.42 E20.7458
G1 X128.02 Y133.24 E20.7544
G1 X129.15 Y132.11 E20.8209
G1 X129.33 Y132.01 E20.8295
G1 X129.58 Y131.97 E20.8399
G1 X131.84 Y131.97 E20.934
G1 X132.09 Y131.94 E20.9444
G1 X132.26 Y131.83 E20.9529
G1 X133.39 Y130.7 E21.0194
G1 X133.5 Y130.52 E21.028
G1 X133.54 Y130.27 E21.0384
G1 X133.54 Y128.01 E21.1325
G1 X133.57 Y127.76 E21.1429
G1 X133.68 Y127.59 E21.1514
G1 X134.81 Y126.46 E21.218
G1 X134.99 Y126.35 E21.2265
G1 X135.23 Y126.31 E21.2369
G1 X137.5 Y126.31 E21.331
G1 X137.74 Y126.28 E21.3414
G1 X137.92 Y126.17 E21.35
G1 X139.05 Y125.04 E21.4165
G1 X139.16 Y124.86 E21.4251
G1 X139.19 Y124.62 E21.4355
G1 X139.19 Y124.19 E21.4534
G1 X133.54 Y124.19 E21.6886
G1 X133.54 Y124.62 E21.7065
G1 X133.5 Y124.86 E21.7169
G1 X133.39 Y125.04 E21.7255
G1 X132.26 Y126.17 E21.792
G1 X132.09 Y126.28 E21.8006
G1 X131.84 Y126.31 E21.8109
G1 X129.58 Y126.31 E21.905
G1 X129.33 Y126.35 E21.9154
G1 X129.15 Y126.46 E21.924
G1 X128.02 Y127.59 E21.9905
G1 X127.91 Y127.76 E21.9991
G1 X127.88 Y128.01 E22.0095
G1 X127.88 Y130.27 E22.1035
G1 X127.84 Y130.52 E22.1139
G1 X127.74 Y130.7 E22.1225
G1 X126.61 Y131.83 E22.189
G1 X126.43 Y131.94 E22.1976
G1 X126.18 Y131.97 E22.208
G1 X123.92 Y131.97 E22.3021
G1 X123.67 Y132.01 E22.3125
G1 X123.49 Y132.11 E22.321
G1 X122.22 Y133.38 E22.3959
G1 X120.81 Y131.97 E22.479
G1 X122.08 Y130.7 E22.5539
G1 X122.19 Y130.52 E22.5624
G1 X122.22 Y130.27 E22.5728
G1 X122.22 Y128.01 E22.6669
G1 X122.26 Y127.76 E22.6773
G1 X122.36 Y127.59 E22.6859
G1 X123.49 Y126.46 E22.7524
G1 X123.67 Y126.35 E22.761
G1 X123.92 Y126.31 E22.7713
G1 X126.18 Y126.31 E22.8654
G1 X126.43 Y126.28 E22.8758
G1 X126.61 Y126.17 E22.8844
G1 X127.74 Y125.04 E22.9509
G1 X127.84 Y124.86 E22.9595
G1 X127.88 Y124.62 E22.9699
G1 X127.88 Y124.19 E22.9878
G1 X122.22 Y124.19 E23.223
G1 X122.22 Y124.62 E23.2409
G1 X122.19 Y124.86 E23.2513
G1 X122.08 Y125.04 E23.2599
G1 X120.95 Y126.17 E23.3264
G1 X120.77 Y126.28 E23.335
G1 X120.52 Y126.31 E23.3454
G1 X118.26 Y126.31 E23.4394
G1 X118.01 Y126.35 E23.4498
G1 X117.84 Y126.46 E23.4584
G1 X116.56 Y127.73 E23.5332
G1 X115.15 Y126.31 E23.6164
G1 X116.42 Y125.04 E23.6912
G1 X116.53 Y124.86 E23.6998
G1 X116.56 Y124.62 E23.7102
G1 X116.56 Y124.19 E23.7281
;
; 'Wipe', 0.0 [RPM], 55.7 [mm/s]
G1 F12386
G1 X116.56 Y124.19 E23.7281
G1 F3344.2
G1 X116.56 Y124.62 E23.7281
G1 X116.53 Y124.86 E23.7281
G1 X116.42 Y125.04 E23.7281
G1 X115.15 Y126.31 E23.7281
G1 X116.56 Y127.73 E23.7281
G1 X117.84 Y126.46 E23.7281
G1 X118.01 Y126.35 E23.7281
G1 X118.26 Y126.31 E23.7281
G1 X120.52 Y126.31 E23.7281
G1 X120.77 Y126.28 E23.7281
G1 X120.95 Y126.17 E23.7281
G1 X121.3 Y125.82 E23.7281
;
; 'Perimeter', 180.0 [RPM], 90.2 [mm/s]
G1 F12386
G1 X138.5 Y113.68 E23.7281
G1 F5411.9
G1 X138.69 Y113.97 E23.7425
G1 X138.53 Y113.98 E23.7492
G1 X137.91 Y113.98 E23.7749
G1 X137.95 Y113.93 E23.7776
G1 X137.94 Y113.74 E23.7855
G1 X138.19 Y113.47 E23.8011
G1 X138.19 Y108.22 E24.0193
G1 X137.85 Y107.86 E24.0401
G1 X137.86 Y107.67 E24.0482
G1 X137.83 Y107.63 E24.0501
G1 X138.61 Y107.63 E24.0823
G1 X138.69 Y107.72 E24.0875
G1 X138.69 Y113.97 E24.347
G1 X138.38 Y113.82 E24.3614
;
; 'Wipe', 0.0 [RPM], 55.7 [mm/s]
G1 F12386
G1 X138.38 Y113.82 E24.3614
G1 F3344.2
G1 X138.69 Y113.97 E24.3614
G1 X138.69 Y107.72 E24.3614
G1 X138.61 Y107.63 E24.3614
G1 X137.83 Y107.63 E24.3614
G1 X137.86 Y107.67 E24.3614
G1 X137.85 Y107.86 E24.3614
G1 X138.19 Y108.22 E24.3614
G1 X138.19 Y110.11 E24.3614
;
; 'Perimeter', 180.0 [RPM], 90.2 [mm/s]
G1 F12386
G1 X135.44 Y112.84 E24.3614
G1 F5411.9
G1 X136.6 Y111.7 E24.429
G1 X137.06 Y111.3 E24.4544
G1 X137.09 Y111.44 E24.4605
G1 X137.09 Y114.09 E24.5707
G1 X137.03 Y114.25 E24.5779
G1 X136.91 Y114.31 E24.5835
G1 X136.74 Y114.32 E24.5904
G1 X136.66 Y114.41 E24.5956
G1 X136.6 Y114.41 E24.5978
G1 X135.43 Y114.42 E24.6466
G1 X135.34 Y114.51 E24.6518
;
; 'Wipe', 0.0 [RPM], 55.7 [mm/s]
G1 F12386
G1 X135.34 Y114.51 E24.6518
G1 F3344.2
G1 X135.43 Y114.42 E24.6518
G1 X136.6 Y114.41 E24.6518
G1 X136.66 Y114.41 E24.6518
G1 X136.74 Y114.32 E24.6518
G1 X136.91 Y114.31 E24.6518
G1 X137.03 Y114.25 E24.6518
G1 X137.09 Y114.09 E24.6518
G1 X137.09 Y111.44 E24.6518
G1 X137.06 Y111.3 E24.6518
G1 X136.6 Y111.7 E24.6518
G1 X135.44 Y112.84 E24.6518
;
; 'Loop', 132.9 [RPM], 66.6 [mm/s]
G1 F12386
G1 X135.45 Y112.85 E24.6518
G1 F3997.2
G1 X136.59 Y111.77 E24.7171
G1 X136.59 Y113.99 E24.8093
G1 X136.52 Y114.31 E24.8231
G1 X136.46 Y114.39 E24.8271
G1 X135.42 Y114.41 E24.8703
G1 X135.33 Y114.5 E24.8755
;
; 'Wipe', 0.0 [RPM], 55.7 [mm/s]
G1 F12386
G1 X135.33 Y114.5 E24.8755
G1 F3344.2
G1 X135.42 Y114.41 E24.8755
G1 X136.46 Y114.39 E24.8755
G1 X136.52 Y114.31 E24.8755
G1 X136.59 Y113.99 E24.8755
G1 X136.59 Y111.77 E24.8755
G1 X135.45 Y112.85 E24.8755
;
; 'Stacked Sparse Infill', 180.0 [RPM], 90.2 [mm/s]
G1 F12386
G1 X134.95 Y115 E24.8755
G1 F5411.9
G1 X134.81 Y115.14 E24.8838
G1 X133.54 Y116.42 E24.9587
G1 X133.54 Y113.58 E25.0764
G1 X132.26 Y114.86 E25.1513
G1 X132.09 Y114.96 E25.1598
G1 X131.84 Y115 E25.1702
G1 X129.58 Y115 E25.2643
G1 X129.33 Y115.04 E25.2747
G1 X129.15 Y115.14 E25.2833
G1 X127.88 Y116.42 E25.3581
;
; 'Wipe', 0.0 [RPM], 55.7 [mm/s]
G1 F12386
G1 X127.88 Y116.42 E25.3581
G1 F3344.2
G1 X129.15 Y115.14 E25.3581
G1 X129.33 Y115.04 E25.3581
G1 X129.58 Y115 E25.3581
G1 X131.84 Y115 E25.3581
G1 X132.09 Y114.96 E25.3581
G1 X132.26 Y114.86 E25.3581
G1 X133.54 Y113.58 E25.3581
G1 X133.54 Y116.42 E25.3581
G1 X133.89 Y116.06 E25.3581
; fan off
M107
G1 F210
G1 X133.89 Y116.06 Z0.8 E25.3581
; END_LAYER_OBJECT z=0.60
; Reset extruder pos
G92 E0
; BEGIN_LAYER_OBJECT z=0.80
; *** Cooling...speed multiplier is 0.955625 ***
; fan on
M106
;
; 'Perimeter', 180.0 [RPM], 90.2 [mm/s]
G1 F15000
G1 X114.51 Y123.2 E0
G1 F5411.9
G1 X114.6 Y123.11 E0.0052
G1 X114.65 Y122.98 E0.011
G1 X114.85 Y122.9 E0.0201
G1 X114.92 Y122.9 E0.0229
G1 X139.31 Y122.9 E1.0372
G1 X139.38 Y122.94 E1.0404
G1 X139.53 Y122.94 E1.0469
G1 X139.59 Y122.91 E1.0494
G1 X139.7 Y122.98 E1.0548
G1 X139.94 Y122.99 E1.0648
G1 X140 Y123.04 E1.0677
G1 X140.02 Y123.54 E1.0888
G1 X140.11 Y123.63 E1.094
G1 X140.11 Y123.98 E1.1085
G1 X140.2 Y124.07 E1.1137
G1 X140.2 Y124.6 E1.1357
G1 X140.29 Y124.68 E1.1409
;
; 'Wipe', 0.0 [RPM], 64.5 [mm/s]
G1 F14334.4
G1 X140.29 Y124.68 E1.1409
G1 F3870.3
G1 X140.2 Y124.6 E1.1409
G1 X140.2 Y124.07 E1.1409
G1 X140.11 Y123.98 E1.1409
G1 X140.11 Y123.63 E1.1409
G1 X140.02 Y123.54 E1.1409
G1 X140 Y123.04 E1.1409
G1 X139.94 Y122.99 E1.1409
G1 X139.7 Y122.98 E1.1409
G1 X139.59 Y122.91 E1.1409
G1 X139.53 Y122.94 E1.1409
G1 X139.38 Y122.94 E1.1409
G1 X139.31 Y122.9 E1.1409
G1 X131.71 Y122.9 E1.1409
;
; 'Perimeter', 180.0 [RPM], 90.2 [mm/s]
G1 F14334.4
G1 X139.18 Y121.89 E1.1409
G1 F5411.9
G1 X139.29 Y122.17 E1.1534
G1 X139.24 Y122.2 E1.156
G1 X138.98 Y122.21 E1.1668
G1 X138.83 Y122.24 E1.173
G1 X138.64 Y122.09 E1.1831
G1 X138.64 Y121.92 E1.1902
G1 X138.45 Y121.75 E1.2006
G1 X138.45 Y121.57 E1.2079
G1 X138.36 Y121.49 E1.2131
G1 X138.36 Y121.31 E1.2205
G1 X137.92 Y120.87 E1.2465
G1 X127.03 Y120.87 E1.6992
G1 X126.05 Y121.83 E1.7563
G1 X125.62 Y122.2 E1.7798
G1 X125.62 Y119.82 E1.8791
G1 X125.89 Y119.55 E1.8947
G1 X125.99 Y119.48 E1.8999
G1 X126.13 Y119.4 E1.9066
G1 X137.27 Y119.4 E2.3696
G1 X137.4 Y119.39 E2.375
G1 X137.51 Y119.33 E2.3803
G1 X137.57 Y119.21 E2.3857
G1 X137.62 Y119.05 E2.393
G1 X137.62 Y116.08 E2.5163
G1 X137.73 Y116.02 E2.5217
G1 X139.24 Y116.02 E2.5842
G1 X139.33 Y116.1 E2.5894
G1 X139.33 Y122.11 E2.8393
G1 X139.29 Y122.17 E2.8421
G1 X139.01 Y122.06 E2.8546
;
; 'Wipe', 0.0 [RPM], 64.5 [mm/s]
G1 F14334.4
G1 X139.01 Y122.06 E2.8546
G1 F3870.3
G1 X139.29 Y122.17 E2.8546
G1 X139.33 Y122.11 E2.8546
G1 X139.33 Y116.1 E2.8546
G1 X139.24 Y116.02 E2.8546
G1 X137.73 Y116.02 E2.8546
G1 X137.62 Y116.08 E2.8546
G1 X137.62 Y117.99 E2.8546
;
; 'Loop', 153.9 [RPM], 77.1 [mm/s]
G1 F14334.4
G1 X138.83 Y121.7 E2.8546
G1 F4626
G1 X138.58 Y121.81 E2.8658
G1 X138.48 Y121.72 E2.8712
G1 X138.47 Y121.55 E2.8784
G1 X138.38 Y121.47 E2.8836
G1 X138.38 Y121.29 E2.8909
G1 X137.93 Y120.86 E2.9169
G1 X127.02 Y120.86 E3.3707
G1 X126.13 Y121.7 E3.4217
G1 X126.13 Y119.97 E3.4939
G1 X126.24 Y119.9 E3.4993
G1 X137.29 Y119.9 E3.9588
G1 X137.66 Y119.83 E3.9742
G1 X137.86 Y119.68 E3.9847
G1 X138.01 Y119.47 E3.9953
G1 X138.13 Y119.06 E4.0132
G1 X138.13 Y116.58 E4.1161
G1 X138.24 Y116.52 E4.1214
G1 X138.73 Y116.52 E4.1421
G1 X138.83 Y116.6 E4.1473
G1 X138.83 Y121.7 E4.3593
;
; 'Wipe', 0.0 [RPM], 64.5 [mm/s]
G1 F14334.4
G1 X138.83 Y121.7 E4.3593
G1 F3870.3
G1 X138.83 Y116.6 E4.3593
G1 X138.73 Y116.52 E4.3593
G1 X138.24 Y116.52 E4.3593
G1 X138.13 Y116.58 E4.3593
G1 X138.13 Y119.06 E4.3593
G1 X138.01 Y119.47 E4.3593
G1 X137.86 Y119.68 E4.3593
G1 X137.66 Y119.83 E4.3593
G1 X137.38 Y119.9 E4.3593
G1 X136.85 Y119.9 E4.3593
;
; 'Perimeter', 180.0 [RPM], 90.2 [mm/s]
G1 F14334.4
G1 X125.65 Y115.01 E4.3593
G1 F5411.9
G1 X125.86 Y115.28 E4.3738
G1 X125.82 Y115.29 E4.3755
G1 X125.62 Y115.04 E4.3886
G1 X125.63 Y114.95 E4.3924
G1 X125.82 Y114.71 E4.4053
G1 X125.86 Y114.72 E4.407
G1 X125.86 Y114.89 E4.4142
G1 X125.96 Y114.98 E4.4194
G1 X125.96 Y115.02 E4.4214
G1 X125.87 Y115.11 E4.4266
G1 X125.86 Y115.28 E4.4338
G1 X125.54 Y115.15 E4.4483
;
; 'Wipe', 0.0 [RPM], 64.5 [mm/s]
G1 F14334.4
G1 X125.54 Y115.15 E4.4483
G1 F3870.3
G1 X125.86 Y115.28 E4.4483
G1 X125.87 Y115.11 E4.4483
G1 X125.96 Y115.02 E4.4483
G1 X125.96 Y114.98 E4.4483
G1 X125.86 Y114.89 E4.4483
G1 X125.86 Y114.72 E4.4483
G1 X125.82 Y114.71 E4.4483
G1 X125.63 Y114.95 E4.4483
G1 X125.62 Y115.04 E4.4483
G1 X125.82 Y115.29 E4.4483
G1 X125.86 Y115.28 E4.4483
G1 X125.65 Y115.01 E4.4483
;
; 'Perimeter', 180.0 [RPM], 90.2 [mm/s]
G1 F14334.4
G1 X117.62 Y107.76 E4.4483
G1 F5411.9
G1 X117.62 Y122.08 E5.0436
G1 X117.64 Y122.24 E5.0501
G1 X118.18 Y121.75 E5.0805
G1 X119.34 Y120.61 E5.1481
;
; 'Loop', 153.9 [RPM], 77.1 [mm/s]
G1 F14334.4
G1 X118.12 Y108.25 E5.1481
G1 F4626
G1 X118.18 Y108.13 E5.1536
G1 X136.51 Y108.13 E5.9156
G1 X136.59 Y108.23 E5.9208
G1 X136.59 Y110.1 E5.9983
G1 X126.06 Y110.1 E6.4357
G1 X125.66 Y110.13 E6.4527
G1 X125.42 Y110.24 E6.4637
G1 X125.18 Y110.53 E6.4794
G1 X125.09 Y110.98 E6.4982
G1 X125.09 Y111.07 E6.5022
G1 X125.09 Y113.37 E6.5978
G1 X125.05 Y113.41 E6.6002
G1 X124.77 Y113.16 E6.6158
G1 X124.59 Y113.16 E6.6234
G1 X124.41 Y112.99 E6.6338
G1 X124.23 Y112.99 E6.6413
G1 X124.14 Y112.9 E6.6465
G1 X123.96 Y112.9 E6.6539
G1 X123.87 Y112.82 E6.6591
;
; 'Loop', 153.9 [RPM], 77.1 [mm/s]
G1 F14334.4
G1 X118.12 Y108.31 E6.6591
G1 F4626
G1 X118.12 Y121.75 E7.2177
G1 X119.33 Y120.59 E7.2871
;
; 'Wipe', 0.0 [RPM], 64.5 [mm/s]
G1 F14334.4
G1 X119.33 Y120.59 E7.2871
G1 F3870.3
G1 X118.12 Y121.75 E7.2871
G1 X118.12 Y113.38 E7.2871
;
; 'Perimeter', 180.0 [RPM], 90.2 [mm/s]
G1 F14334.4
G1 X115 Y121.95 E7.2871
G1 F5411.9
G1 X115.25 Y122.17 E7.3008
G1 X115.19 Y122.21 E7.304
G1 X115.02 Y122.2 E7.3109
G1 X115 Y122.05 E7.3173
G1 X115 Y107.78 E7.9106
G1 X115.03 Y107.63 E7.9168
G1 X116.86 Y107.63 E7.9931
G1 X116.83 Y107.67 E7.995
G1 X116.85 Y107.86 E8.0031
G1 X116.07 Y108.67 E8.0498
G1 X116.07 Y121.22 E8.5717
G1 X115.26 Y122 E8.6185
G1 X115.25 Y122.17 E8.6253
G1 X114.92 Y122.14 E8.639
;
; 'Wipe', 0.0 [RPM], 64.5 [mm/s]
G1 F14334.4
G1 X114.92 Y122.14 E8.639
G1 F3870.3
G1 X115.25 Y122.17 E8.639
G1 X115.26 Y122 E8.639
G1 X116.07 Y121.22 E8.639
G1 X116.07 Y112.84 E8.639
;
; 'Perimeter', 180.0 [RPM], 90.2 [mm/s]
G1 F14334.4
G1 X114.51 Y123.24 E8.639
G1 F5411.9
G1 X114.5 Y123.37 E8.6445
G1 X114.5 Y124.07 E8.6735
G1 X114.41 Y124.16 E8.6787
G1 X114.4 Y124.68 E8.7007
;
; 'Loop', 153.9 [RPM], 77.1 [mm/s]
G1 F14334.4
G1 X114.53 Y123.57 E8.7007
G1 F4626
G1 X114.61 Y123.5 E8.7053
G1 X115.06 Y123.4 E8.7242
G1 X135.22 Y123.4 E9.5626
G1 X139.29 Y123.4 E9.7316
G1 X139.44 Y123.42 E9.7379
G1 X139.72 Y123.49 E9.75
G1 X139.91 Y123.5 E9.758
G1 X140.08 Y123.65 E9.7677
G1 X140.09 Y124 E9.782
G1 X140.18 Y124.08 E9.7872
G1 X140.19 Y124.61 E9.809
G1 X140.28 Y124.69 E9.8142
;
; 'Loop', 153.9 [RPM], 77.1 [mm/s]
G1 F14334.4
G1 X114.53 Y123.58 E9.8142
G1 F4626
G1 X114.51 Y124.08 E9.8352
G1 X114.42 Y124.17 E9.8404
G1 X114.42 Y124.69 E9.8622
;
; 'Wipe', 0.0 [RPM], 64.5 [mm/s]
G1 F14334.4
G1 X114.42 Y124.69 E9.8622
G1 F3870.3
G1 X114.42 Y124.17 E9.8622
G1 X114.51 Y124.08 E9.8622
G1 X114.53 Y123.58 E9.8622
;
; 'Perimeter', 180.0 [RPM], 90.2 [mm/s]
G1 F14334.4
G1 X117.62 Y107.74 E9.8622
G1 F5411.9
G1 X117.68 Y107.63 E9.8676
G1 X137.02 Y107.63 E10.6714
G1 X137.09 Y107.73 E10.6767
G1 X137.09 Y110.6 E10.7961
G1 X126.09 Y110.6 E11.2535
G1 X125.79 Y110.61 E11.2661
G1 X125.68 Y110.68 E11.2714
G1 X125.6 Y110.95 E11.2834
G1 X125.6 Y111.1 E11.2892
G1 X125.6 Y113.78 E11.4008
G1 X125.57 Y113.93 E11.4072
G1 X125.42 Y113.92 E11.4133
G1 X125.39 Y113.78 E11.4194
G1 X125.39 Y113.6 E11.4267
G1 X125.2 Y113.43 E11.4371
G1 X125.02 Y113.44 E11.4447
G1 X124.75 Y113.18 E11.4603
G1 X124.57 Y113.18 E11.4678
G1 X124.4 Y113 E11.4782
G1 X124.22 Y113 E11.4856
G1 X124.13 Y112.92 E11.4908
G1 X123.95 Y112.92 E11.4982
G1 X123.86 Y112.83 E11.5034
;
; 'Wipe', 0.0 [RPM], 64.5 [mm/s]
G1 F14334.4
G1 X123.86 Y112.83 E11.5034
G1 F3870.3
G1 X123.95 Y112.92 E11.5034
G1 X124.13 Y112.92 E11.5034
G1 X124.22 Y113 E11.5034
G1 X124.4 Y113 E11.5034
G1 X124.57 Y113.18 E11.5034
G1 X124.75 Y113.18 E11.5034
G1 X125.02 Y113.44 E11.5034
G1 X125.2 Y113.43 E11.5034
G1 X125.39 Y113.6 E11.5034
G1 X125.39 Y113.78 E11.5034
G1 X125.42 Y113.92 E11.5034
G1 X125.57 Y113.93 E11.5034
G1 X125.6 Y113.78 E11.5034
G1 X125.6 Y111.1 E11.5034
G1 X125.61 Y110.79 E11.5034
G1 X125.68 Y110.68 E11.5034
G1 X125.91 Y110.6 E11.5034
G1 X126.09 Y110.6 E11.5034
G1 X130.16 Y110.6 E11.5034
;
; 'Loop', 153.9 [RPM], 77.1 [mm/s]
G1 F14334.4
G1 X116.05 Y121.21 E11.5034
G1 F4626
G1 X115.5 Y121.72 E11.5347
G1 X115.5 Y108.28 E12.0935
G1 X115.53 Y108.13 E12.0997
G1 X116.54 Y108.13 E12.1415
G1 X116.05 Y108.65 E12.171
G1 X116.05 Y121.21 E12.6929
;
; 'Wipe', 0.0 [RPM], 64.5 [mm/s]
G1 F14334.4
G1 X116.05 Y121.21 E12.6929
G1 F3870.3
G1 X116.05 Y111.13 E12.6929
;
; 'Crown', 180.0 [RPM], 90.2 [mm/s]
G1 F14334.4
G1 X125.58 Y116.06 E12.6929
G1 F5411.9
G1 X125.6 Y116.08 E12.6939
G1 X125.6 Y119.05 E12.8174
G1 X125.65 Y119.35 E12.8301
;
; 'Solid', 128.7 [RPM], 64.5 [mm/s]
G1 F14334.4
G1 X127.21 Y120.69 E12.8301
G1 F3870.3
G1 X126.91 Y120.39 E12.8476
G1 X126.62 Y120.81 E12.8687
G1 X126.8 Y120.99 E12.8792
G1 X127.56 Y120.34 E12.921
G1 X127.86 Y120.64 E12.9385
G1 X128.32 Y120.39 E12.9603
G1 X128.62 Y120.69 E12.9778
G1 X128.98 Y120.34 E12.9986
G1 X129.28 Y120.64 E13.0161
G1 X129.74 Y120.39 E13.0379
G1 X130.04 Y120.69 E13.0554
G1 X130.39 Y120.34 E13.0762
G1 X130.69 Y120.64 E13.0938
G1 X131.15 Y120.39 E13.1155
G1 X131.45 Y120.69 E13.1331
G1 X131.81 Y120.34 E13.1539
G1 X132.1 Y120.64 E13.1714
G1 X132.57 Y120.39 E13.1931
G1 X132.86 Y120.69 E13.2107
G1 X133.22 Y120.34 E13.2315
G1 X133.52 Y120.64 E13.249
G1 X133.98 Y120.39 E13.2708
G1 X134.28 Y120.69 E13.2883
G1 X134.63 Y120.34 E13.3091
G1 X134.93 Y120.64 E13.3267
G1 X135.39 Y120.39 E13.3484
G1 X135.69 Y120.69 E13.366
G1 X136.05 Y120.34 E13.3867
G1 X136.35 Y120.64 E13.4043
G1 X136.81 Y120.39 E13.426
G1 X137.11 Y120.69 E13.4436
;
; 'Solid', 128.7 [RPM], 64.5 [mm/s]
G1 F14334.4
G1 X138.33 Y121.21 E13.4436
G1 F3870.3
G1 X137.51 Y120.39 E13.4919
G1 X138.03 Y120.21 E13.5149
G1 X138.38 Y120.55 E13.535
;
; 'Wipe', 0.0 [RPM], 64.5 [mm/s]
G1 F14334.4
G1 X138.38 Y120.55 E13.535
G1 F3870.3
G1 X138.03 Y120.21 E13.535
G1 X137.51 Y120.39 E13.535
G1 X138.33 Y121.21 E13.535
;
; 'Solid', 128.7 [RPM], 64.5 [mm/s]
G1 F14334.4
G1 X135.59 Y108.57 E13.535
G1 F3870.3
G1 X136.09 Y109.07 E13.5644
G1 X135.91 Y109.6 E13.5876
G1 X134.96 Y108.65 E13.6436
G1 X134.25 Y108.65 E13.673
G1 X135.19 Y109.58 E13.7282
G1 X134.48 Y109.58 E13.7576
G1 X133.55 Y108.65 E13.8127
G1 X132.84 Y108.65 E13.8421
G1 X133.78 Y109.58 E13.8972
G1 X133.07 Y109.58 E13.9266
G1 X132.13 Y108.65 E13.9817
G1 X131.42 Y108.65 E14.0111
G1 X132.36 Y109.58 E14.0662
G1 X131.66 Y109.58 E14.0956
G1 X130.72 Y108.65 E14.1508
G1 X130.01 Y108.65 E14.1802
G1 X130.95 Y109.58 E14.2353
G1 X130.24 Y109.58 E14.2647
G1 X129.3 Y108.65 E14.3198
G1 X128.6 Y108.65 E14.3492
G1 X129.53 Y109.58 E14.4043
G1 X128.83 Y109.58 E14.4337
G1 X127.89 Y108.65 E14.4888
G1 X127.18 Y108.65 E14.5182
G1 X128.12 Y109.58 E14.5734
G1 X127.41 Y109.58 E14.6028
G1 X126.48 Y108.65 E14.6579
G1 X125.77 Y108.65 E14.6873
G1 X126.71 Y109.58 E14.7424
G1 X126 Y109.58 E14.7718
G1 X125.06 Y108.65 E14.8269
G1 X124.35 Y108.65 E14.8563
G1 X125.39 Y109.68 E14.9173
G1 X124.96 Y109.96 E14.9386
G1 X123.65 Y108.65 E15.0158
G1 X122.94 Y108.65 E15.0452
G1 X124.67 Y110.38 E15.1471
G1 X124.59 Y111 E15.1732
G1 X122.23 Y108.65 E15.3117
G1 X121.53 Y108.65 E15.3411
G1 X124.58 Y111.7 E15.5205
G1 X124.58 Y112.41 E15.5499
G1 X120.82 Y108.65 E15.771
G1 X120.11 Y108.65 E15.8004
G1 X124.31 Y112.85 E16.0474
G1 X123.64 Y112.89 E16.0753
G1 X119.4 Y108.65 E16.3246
G1 X118.7 Y108.65 E16.354
G1 X123.28 Y113.23 E16.6236
G1 X123.28 Y113.94 E16.653
G1 X118.64 Y109.29 E16.9263
G1 X118.64 Y110 E16.9557
G1 X123.28 Y114.65 E17.2289
G1 X123.28 Y115.36 E17.2583
G1 X118.64 Y110.71 E17.5315
G1 X118.64 Y111.42 E17.5609
G1 X123.28 Y116.06 E17.8341
G1 X123.28 Y116.77 E17.8635
G1 X118.64 Y112.12 E18.1367
G1 X118.64 Y112.83 E18.1661
G1 X123.28 Y117.48 E18.4394
G1 X123.28 Y118.18 E18.4688
G1 X118.64 Y113.54 E18.742
G1 X118.64 Y114.24 E18.7714
G1 X123.28 Y118.89 E19.0446
G1 X123.28 Y119.6 E19.074
G1 X118.64 Y114.95 E19.3472
G1 X118.64 Y115.66 E19.3766
G1 X123.28 Y120.3 E19.6498
G1 X122.57 Y120.3 E19.6794
G1 X118.64 Y116.37 E19.9107
G1 X118.64 Y117.07 E19.9401
G1 X121.87 Y120.3 E20.1299
G1 X121.16 Y120.3 E20.1593
G1 X118.64 Y117.78 E20.3075
G1 X118.64 Y118.49 E20.3369
G1 X120.45 Y120.3 E20.4435
G1 X119.74 Y120.3 E20.4729
G1 X118.64 Y119.19 E20.538
G1 X118.64 Y119.9 E20.5674
G1 X119.03 Y120.3 E20.5906
G1 X118.65 Y120.62 E20.6115
G1 X118.62 Y120.59 E20.6134
;
; 'Wipe', 0.0 [RPM], 64.5 [mm/s]
G1 F14334.4
G1 X118.62 Y120.59 E20.6134
G1 F3870.3
G1 X118.65 Y120.62 E20.6134
G1 X119.03 Y120.3 E20.6134
G1 X118.64 Y119.9 E20.6134
G1 X118.64 Y119.19 E20.6134
G1 X119.74 Y120.3 E20.6134
G1 X120.45 Y120.3 E20.6134
G1 X118.64 Y118.49 E20.6134
G1 X118.64 Y117.78 E20.6134
G1 X121.16 Y120.3 E20.6134
;
; 'Stacked Sparse Infill', 180.0 [RPM], 90.2 [mm/s]
G1 F14334.4
G1 X139.19 Y124.19 E20.6134
G1 F5411.9
G1 X139.19 Y124.62 E20.6313
G1 X139.23 Y124.86 E20.6417
G1 X139.33 Y125.04 E20.6503
G1 X140.61 Y126.31 E20.7251
G1 X139.19 Y127.73 E20.8083
G1 X137.92 Y126.46 E20.8831
G1 X137.74 Y126.35 E20.8917
G1 X137.5 Y126.31 E20.9021
G1 X135.23 Y126.31 E20.9962
G1 X134.99 Y126.28 E21.0065
G1 X134.81 Y126.17 E21.0151
G1 X133.68 Y125.04 E21.0816
G1 X133.57 Y124.86 E21.0902
G1 X133.54 Y124.62 E21.1006
G1 X133.54 Y124.19 E21.1185
G1 X127.88 Y124.19 E21.3537
G1 X127.88 Y124.62 E21.3716
G1 X127.91 Y124.86 E21.382
G1 X128.02 Y125.04 E21.3906
G1 X129.15 Y126.17 E21.4571
G1 X129.33 Y126.28 E21.4657
G1 X129.58 Y126.31 E21.4761
G1 X131.84 Y126.31 E21.5702
G1 X132.09 Y126.35 E21.5806
G1 X132.26 Y126.46 E21.5891
G1 X133.39 Y127.59 E21.6557
G1 X133.5 Y127.76 E21.6642
G1 X133.54 Y128.01 E21.6746
G1 X133.54 Y130.27 E21.7687
G1 X133.57 Y130.52 E21.7791
G1 X133.68 Y130.7 E21.7877
G1 X134.95 Y131.97 E21.8625
G1 X133.54 Y133.38 E21.9456
G1 X132.26 Y132.11 E22.0205
G1 X132.09 Y132.01 E22.0291
G1 X131.84 Y131.97 E22.0394
G1 X129.58 Y131.97 E22.1335
G1 X129.33 Y131.94 E22.1439
G1 X129.15 Y131.83 E22.1525
G1 X128.02 Y130.7 E22.219
G1 X127.91 Y130.52 E22.2276
G1 X127.88 Y130.27 E22.238
G1 X127.88 Y128.01 E22.332
G1 X127.84 Y127.76 E22.3424
G1 X127.74 Y127.59 E22.351
G1 X126.61 Y126.46 E22.4175
G1 X126.43 Y126.35 E22.4261
G1 X126.18 Y126.31 E22.4365
G1 X123.92 Y126.31 E22.5306
G1 X123.67 Y126.28 E22.541
G1 X123.49 Y126.17 E22.5495
G1 X122.36 Y125.04 E22.6161
G1 X122.26 Y124.86 E22.6246
G1 X122.22 Y124.62 E22.635
G1 X122.22 Y124.19 E22.6529
G1 X116.56 Y124.19 E22.8881
G1 X116.56 Y124.62 E22.9061
G1 X116.6 Y124.86 E22.9165
G1 X116.71 Y125.04 E22.925
G1 X117.84 Y126.17 E22.9915
G1 X118.01 Y126.28 E23.0001
G1 X118.26 Y126.31 E23.0105
G1 X120.52 Y126.31 E23.1046
G1 X120.77 Y126.35 E23.115
G1 X120.95 Y126.46 E23.1236
G1 X122.08 Y127.59 E23.1901
G1 X122.19 Y127.76 E23.1986
G1 X122.22 Y128.01 E23.209
G1 X122.22 Y130.27 E23.3031
G1 X122.26 Y130.52 E23.3135
G1 X122.36 Y130.7 E23.3221
G1 X123.49 Y131.83 E23.3886
G1 X123.67 Y131.94 E23.3972
G1 X123.92 Y131.97 E23.4076
G1 X126.18 Y131.97 E23.5016
G1 X126.43 Y132.01 E23.512
G1 X126.61 Y132.11 E23.5206
G1 X127.74 Y133.24 E23.5871
G1 X127.84 Y133.42 E23.5957
G1 X127.88 Y133.67 E23.6061
G1 X127.88 Y135.93 E23.7002
G1 X127.91 Y136.18 E23.7105
G1 X128.02 Y136.35 E23.7191
G1 X129.29 Y137.63 E23.794
G1 X127.88 Y139.04 E23.8771
G1 X126.46 Y137.63 E23.9603
G1 X122.08 Y133.24 E24.218
G1 X120.81 Y131.97 E24.2929
G1 X119.39 Y130.56 E24.376
G1 X116.42 Y127.59 E24.5506
G1 X115.29 Y126.46 E24.6171
G1 X115.15 Y126.31 E24.6255
;
; 'Wipe', 0.0 [RPM], 64.5 [mm/s]
G1 F14334.4
G1 X115.15 Y126.31 E24.6255
G1 F3870.3
G1 X115.29 Y126.46 E24.6255
G1 X116.56 Y127.73 E24.6255
G1 X120.95 Y132.11 E24.6255
G1 X122.22 Y133.39 E24.6255
;
; 'Sparse Infill', 180.0 [RPM], 90.2 [mm/s]
G1 F14334.4
G1 X146.62 Y113.94 E24.6255
G1 F5411.9
G1 X146.61 Y113.94 E24.6259
G1 X146.62 Y112.53 E24.6844
G1 X146.61 Y112.52 E24.6848
G1 X146.62 Y111.11 E24.7433
G1 X146.61 Y111.11 E24.7437
G1 X146.62 Y109.7 E24.8022
G1 X146.61 Y109.69 E24.8027
;
; 'Sparse Infill', 180.0 [RPM], 90.2 [mm/s]
G1 F14334.4
G1 X146.97 Y110.05 E24.8027
G1 F5411.9
G1 X147.33 Y110.41 E24.8239
G1 X147.13 Y110.76 E24.8407
G1 X147.17 Y111.11 E24.8554
G1 X146.97 Y111.46 E24.8722
G1 X147.33 Y111.82 E24.8934
G1 X147.13 Y112.17 E24.9103
G1 X147.17 Y112.52 E24.925
G1 X146.97 Y112.88 E24.9418
G1 X146.97 Y112.88 E24.9422
;
; 'Wipe', 0.0 [RPM], 64.5 [mm/s]
G1 F14334.4
G1 X146.97 Y112.88 E24.9422
G1 F3870.3
G1 X146.97 Y112.88 E24.9422
G1 X147.17 Y112.52 E24.9422
G1 X147.13 Y112.17 E24.9422
G1 X147.33 Y111.82 E24.9422
G1 X146.97 Y111.46 E24.9422
G1 X147.17 Y111.11 E24.9422
G1 X147.13 Y110.76 E24.9422
G1 X147.33 Y110.41 E24.9422
G1 X146.97 Y110.05 E24.9422
;
; 'Sparse Infill', 180.0 [RPM], 90.2 [mm/s]
G1 F14334.4
G1 X147.67 Y109.34 E24.9422
G1 F5411.9
G1 X147.68 Y109.35 E24.9426
G1 X147.67 Y110.75 E25.0011
G1 X147.68 Y110.76 E25.0016
G1 X147.67 Y112.17 E25.0601
G1 X147.68 Y112.18 E25.0605
;
; 'Stacked Sparse Infill', 180.0 [RPM], 90.2 [mm/s]
G1 F14334.4
G1 X146.96 Y115 E25.0605
G1 F5411.9
G1 X148.81 Y115 E25.1372
G1 X149.06 Y115.04 E25.1476
G1 X149.23 Y115.14 E25.1562
G1 X150.51 Y116.41 E25.231
G1 X151.92 Y115 E25.3141
G1 X150.65 Y113.73 E25.389
G1 X150.54 Y113.55 E25.3976
G1 X150.51 Y113.3 E25.4079
G1 X150.51 Y112.45 E25.4432
G1 X150.47 Y112.21 E25.4536
G1 X150.36 Y112.03 E25.4622
G1 X148.03 Y109.69 E25.5996
;
; 'Wipe', 0.0 [RPM], 64.5 [mm/s]
G1 F14334.4
G1 X148.03 Y109.69 E25.5996
G1 F3870.3
G1 X150.36 Y112.03 E25.5996
G1 X150.47 Y112.21 E25.5996
G1 X150.51 Y112.45 E25.5996
G1 X150.51 Y113.3 E25.5996
G1 X150.54 Y113.55 E25.5996
G1 X150.65 Y113.73 E25.5996
G1 X151.92 Y115 E25.5996
G1 X150.51 Y116.41 E25.5996
G1 X149.66 Y115.57 E25.5996
;
; 'Stacked Sparse Infill', 180.0 [RPM], 90.2 [mm/s]
G1 F14334.4
G1 X144.14 Y115.7 E25.5996
G1 F5411.9
G1 X144.71 Y116.27 E25.6331
G1 X144.81 Y116.45 E25.6416
G1 X144.85 Y116.7 E25.652
G1 X144.85 Y117.12 E25.6697
;
; 'Wipe', 0.0 [RPM], 64.5 [mm/s]
G1 F14334.4
G1 X144.85 Y117.12 E25.6697
G1 F3870.3
G1 X144.85 Y116.7 E25.6697
G1 X144.81 Y116.45 E25.6697
G1 X144.71 Y116.27 E25.6697
G1 X144.14 Y115.7 E25.6697
;
; 'Stacked Sparse Infill', 180.0 [RPM], 90.2 [mm/s]
G1 F14334.4
G1 X145.56 Y119.95 E25.6697
G1 F5411.9
G1 X146.26 Y120.66 E25.7113
;
; 'Wipe', 0.0 [RPM], 64.5 [mm/s]
G1 F14334.4
G1 X146.26 Y120.66 E25.7113
G1 F3870.3
G1 X145.56 Y119.95 E25.7113
;
; 'Perimeter', 180.0 [RPM], 90.2 [mm/s]
G1 F14334.4
G1 X139.1 Y113.67 E25.7113
G1 F5411.9
G1 X139.33 Y113.9 E25.7247
G1 X139.24 Y113.98 E25.7299
G1 X137.91 Y113.98 E25.785
G1 X137.95 Y113.93 E25.7876
G1 X137.94 Y113.74 E25.7956
G1 X138.45 Y113.2 E25.8268
G1 X138.45 Y108.49 E26.0224
G1 X137.85 Y107.86 E26.0588
G1 X137.86 Y107.67 E26.0669
G1 X137.83 Y107.63 E26.0688
G1 X139.31 Y107.63 E26.1304
G1 X139.33 Y107.79 E26.1372
G1 X139.33 Y113.9 E26.391
G1 X139.01 Y113.88 E26.4043
;
; 'Loop', 153.9 [RPM], 77.1 [mm/s]
G1 F14334.4
G1 X138.83 Y113.4 E26.4043
G1 F4626
G1 X138.73 Y113.48 E26.4095
G1 X138.24 Y113.48 E26.4302
G1 X138.47 Y113.22 E26.4449
G1 X138.47 Y108.47 E26.6423
G1 X138.16 Y108.13 E26.6615
G1 X138.81 Y108.13 E26.6885
G1 X138.83 Y108.3 E26.6953
G1 X138.83 Y113.4 E26.9073
;
; 'Wipe', 0.0 [RPM], 64.5 [mm/s]
G1 F14334.4
G1 X138.83 Y113.4 E26.9073
G1 F3870.3
G1 X138.83 Y108.3 E26.9073
G1 X138.81 Y108.13 E26.9073
G1 X138.16 Y108.13 E26.9073
G1 X138.47 Y108.47 E26.9073
G1 X138.47 Y112.16 E26.9073
;
; 'Perimeter', 180.0 [RPM], 90.2 [mm/s]
G1 F14334.4
G1 X135.44 Y112.84 E26.9073
G1 F5411.9
G1 X136.6 Y111.7 E26.9749
G1 X137.06 Y111.3 E27.0003
G1 X137.09 Y111.44 E27.0064
G1 X137.09 Y114.09 E27.1166
G1 X137.03 Y114.25 E27.1238
G1 X136.91 Y114.31 E27.1294
G1 X136.74 Y114.32 E27.1364
G1 X136.66 Y114.41 E27.1416
G1 X136.6 Y114.41 E27.1437
G1 X135.43 Y114.42 E27.1926
G1 X135.34 Y114.51 E27.1978
;
; 'Wipe', 0.0 [RPM], 64.5 [mm/s]
G1 F14334.4
G1 X135.34 Y114.51 E27.1978
G1 F3870.3
G1 X135.43 Y114.42 E27.1978
G1 X136.6 Y114.41 E27.1978
G1 X136.66 Y114.41 E27.1978
G1 X136.74 Y114.32 E27.1978
G1 X136.91 Y114.31 E27.1978
G1 X137.03 Y114.25 E27.1978
G1 X137.09 Y114.09 E27.1978
G1 X137.09 Y111.44 E27.1978
G1 X137.06 Y111.3 E27.1978
G1 X136.6 Y111.7 E27.1978
G1 X135.44 Y112.84 E27.1978
;
; 'Loop', 153.9 [RPM], 77.1 [mm/s]
G1 F14334.4
G1 X135.45 Y112.85 E27.1978
G1 F4626
G1 X136.59 Y111.77 E27.263
G1 X136.59 Y113.99 E27.3552
G1 X136.52 Y114.31 E27.369
G1 X136.46 Y114.39 E27.3731
G1 X135.42 Y114.41 E27.4162
G1 X135.33 Y114.5 E27.4214
;
; 'Wipe', 0.0 [RPM], 64.5 [mm/s]
G1 F14334.4
G1 X135.33 Y114.5 E27.4214
G1 F3870.3
G1 X135.42 Y114.41 E27.4214
G1 X136.46 Y114.39 E27.4214
G1 X136.52 Y114.31 E27.4214
G1 X136.59 Y113.99 E27.4214
G1 X136.59 Y111.77 E27.4214
G1 X135.45 Y112.85 E27.4214
;
; 'Stacked Sparse Infill', 180.0 [RPM], 90.2 [mm/s]
G1 F14334.4
G1 X134.95 Y115 E27.4214
G1 F5411.9
G1 X134.81 Y114.86 E27.4298
G1 X133.54 Y113.58 E27.5046
G1 X133.54 Y116.42 E27.6223
G1 X132.26 Y115.14 E27.6972
G1 X132.09 Y115.04 E27.7058
G1 X131.84 Y115 E27.7162
G1 X129.58 Y115 E27.8102
G1 X129.33 Y114.96 E27.8206
G1 X129.15 Y114.86 E27.8292
G1 X127.88 Y113.58 E27.9041
;
; 'Wipe', 0.0 [RPM], 64.5 [mm/s]
G1 F14334.4
G1 X127.88 Y113.58 E27.9041
G1 F3870.3
G1 X129.15 Y114.86 E27.9041
G1 X129.33 Y114.96 E27.9041
G1 X129.58 Y115 E27.9041
G1 X131.84 Y115 E27.9041
G1 X132.09 Y115.04 E27.9041
G1 X132.26 Y115.14 E27.9041
G1 X133.54 Y116.42 E27.9041
G1 X133.54 Y113.58 E27.9041
G1 X133.89 Y113.94 E27.9041
; fan off
M107
G1 F210
G1 X133.89 Y113.94 Z1 E27.9041
; END_LAYER_OBJECT z=0.80
; Reset extruder pos
G92 E0
; BEGIN_LAYER_OBJECT z=1.00
; *** Cooling...speed multiplier is 0.967086 ***
; fan on
M106
;
; 'Perimeter', 180.0 [RPM], 90.2 [mm/s]
G1 F15000
G1 X114.17 Y123.04 E0
G1 F5411.9
G1 X114.22 Y123 E0.0026
G1 X114.3 Y122.99 E0.0059
G1 X114.41 Y122.92 E0.0113
G1 X114.45 Y122.95 E0.0132
G1 X114.61 Y122.94 E0.0197
G1 X114.67 Y122.9 E0.023
G1 X140.2 Y122.9 E1.0841
G1 X140.29 Y122.92 E1.0881
G1 X140.4 Y122.98 E1.0934
G1 X140.65 Y123 E1.1036
G1 X140.7 Y123.04 E1.1064
G1 X140.72 Y123.37 E1.1203
G1 X140.81 Y123.46 E1.1255
G1 X140.82 Y123.8 E1.14
G1 X140.91 Y123.89 E1.1452
G1 X140.91 Y124.24 E1.1598
G1 X141 Y124.33 E1.165
G1 X141 Y124.68 E1.1797
;
; 'Wipe', 0.0 [RPM], 65.3 [mm/s]
G1 F14506.3
G1 X141 Y124.68 E1.1797
G1 F3916.7
G1 X141 Y124.33 E1.1797
G1 X140.91 Y124.24 E1.1797
G1 X140.91 Y123.89 E1.1797
G1 X140.82 Y123.8 E1.1797
G1 X140.81 Y123.46 E1.1797
G1 X140.72 Y123.37 E1.1797
G1 X140.7 Y123.04 E1.1797
G1 X140.65 Y123 E1.1797
G1 X140.4 Y122.98 E1.1797
G1 X140.29 Y122.92 E1.1797
G1 X140.2 Y122.9 E1.1797
G1 X132.42 Y122.9 E1.1797
;
; 'Perimeter', 180.0 [RPM], 90.2 [mm/s]
G1 F14506.3
G1 X139.73 Y121.75 E1.1797
G1 F5411.9
G1 X139.84 Y122.01 E1.1917
G1 X139.58 Y122.21 E1.2054
G1 X139.51 Y122.21 E1.2082
G1 X139.45 Y122.17 E1.2115
G1 X139.43 Y121.83 E1.2254
G1 X139.34 Y121.75 E1.2306
G1 X139.34 Y121.57 E1.2379
G1 X139.07 Y121.31 E1.2535
G1 X138.89 Y121.31 E1.261
G1 X138.36 Y120.78 E1.2922
G1 X137.9 Y120.78 E1.3112
G1 X137.82 Y120.87 E1.3164
G1 X127.03 Y120.87 E1.7648
G1 X126.05 Y121.83 E1.8219
G1 X125.62 Y122.2 E1.8454
G1 X125.62 Y119.82 E1.9447
G1 X125.89 Y119.55 E1.9603
G1 X125.99 Y119.48 E1.9655
G1 X126.13 Y119.4 E1.9722
G1 X137.27 Y119.4 E2.4352
G1 X137.4 Y119.39 E2.4405
G1 X137.51 Y119.33 E2.4459
G1 X137.57 Y119.21 E2.4513
G1 X137.62 Y119.05 E2.4586
G1 X137.62 Y116.08 E2.5819
G1 X137.73 Y116.02 E2.5873
G1 X139.94 Y116.02 E2.6792
G1 X139.97 Y116.17 E2.6855
G1 X139.97 Y121.82 E2.9207
G1 X139.84 Y122.01 E2.9302
G1 X139.56 Y121.94 E2.9423
;
; 'Loop', 155.7 [RPM], 78.0 [mm/s]
G1 F14506.3
G1 X139.47 Y121.64 E2.9423
G1 F4681.5
G1 X139.37 Y121.72 E2.9475
G1 X139.36 Y121.55 E2.9547
G1 X139.09 Y121.29 E2.9703
G1 X138.91 Y121.29 E2.9779
G1 X138.37 Y120.77 E3.009
G1 X137.89 Y120.77 E3.029
G1 X137.8 Y120.86 E3.0342
G1 X127.02 Y120.86 E3.4827
G1 X126.13 Y121.7 E3.5337
G1 X126.13 Y119.97 E3.6059
G1 X126.24 Y119.9 E3.6113
G1 X137.29 Y119.9 E4.0708
G1 X137.66 Y119.83 E4.0862
G1 X137.86 Y119.68 E4.0967
G1 X138.01 Y119.47 E4.1073
G1 X138.13 Y119.06 E4.1251
G1 X138.13 Y116.58 E4.228
G1 X138.24 Y116.52 E4.2334
G1 X139.44 Y116.52 E4.2835
G1 X139.47 Y116.67 E4.2899
G1 X139.47 Y121.64 E4.4964
;
; 'Wipe', 0.0 [RPM], 65.3 [mm/s]
G1 F14506.3
G1 X139.47 Y121.64 E4.4964
G1 F3916.7
G1 X139.47 Y116.67 E4.4964
G1 X139.44 Y116.52 E4.4964
G1 X138.24 Y116.52 E4.4964
G1 X138.13 Y116.58 E4.4964
G1 X138.13 Y119.06 E4.4964
G1 X138.01 Y119.47 E4.4964
G1 X137.86 Y119.68 E4.4964
G1 X137.66 Y119.83 E4.4964
G1 X137.53 Y119.88 E4.4964
;
; 'Perimeter', 180.0 [RPM], 90.2 [mm/s]
G1 F14506.3
G1 X125.65 Y115.01 E4.4964
G1 F5411.9
G1 X125.86 Y115.28 E4.5108
G1 X125.82 Y115.29 E4.5125
G1 X125.62 Y115.04 E4.5256
G1 X125.63 Y114.95 E4.5295
G1 X125.82 Y114.71 E4.5423
G1 X125.86 Y114.72 E4.544
G1 X125.86 Y114.89 E4.5513
G1 X125.96 Y114.98 E4.5565
G1 X125.96 Y115.02 E4.5584
G1 X125.87 Y115.11 E4.5636
G1 X125.86 Y115.28 E4.5708
G1 X125.54 Y115.15 E4.5853
;
; 'Wipe', 0.0 [RPM], 65.3 [mm/s]
G1 F14506.3
G1 X125.54 Y115.15 E4.5853
G1 F3916.7
G1 X125.86 Y115.28 E4.5853
G1 X125.87 Y115.11 E4.5853
G1 X125.96 Y115.02 E4.5853
G1 X125.96 Y114.98 E4.5853
G1 X125.86 Y114.89 E4.5853
G1 X125.86 Y114.72 E4.5853
G1 X125.82 Y114.71 E4.5853
G1 X125.63 Y114.95 E4.5853
G1 X125.62 Y115.04 E4.5853
G1 X125.82 Y115.29 E4.5853
G1 X125.86 Y115.28 E4.5853
G1 X125.65 Y115.01 E4.5853
;
; 'Perimeter', 180.0 [RPM], 90.2 [mm/s]
G1 F14506.3
G1 X117.62 Y107.76 E4.5853
G1 F5411.9
G1 X117.62 Y122.08 E5.1806
G1 X117.64 Y122.24 E5.1871
G1 X118.18 Y121.75 E5.2176
G1 X119.34 Y120.61 E5.2851
;
; 'Loop', 155.7 [RPM], 78.0 [mm/s]
G1 F14506.3
G1 X118.12 Y108.25 E5.2851
G1 F4681.5
G1 X118.18 Y108.13 E5.2906
G1 X136.51 Y108.13 E6.0527
G1 X136.59 Y108.23 E6.0579
G1 X136.59 Y110.1 E6.1353
G1 X126.06 Y110.1 E6.5728
G1 X125.66 Y110.13 E6.5898
G1 X125.42 Y110.24 E6.6008
G1 X125.18 Y110.53 E6.6164
G1 X125.09 Y110.98 E6.6353
G1 X125.09 Y111.07 E6.6393
G1 X125.09 Y113.37 E6.7348
G1 X125.05 Y113.41 E6.7373
G1 X124.77 Y113.16 E6.7529
G1 X124.59 Y113.16 E6.7605
G1 X124.41 Y112.99 E6.7708
G1 X124.23 Y112.99 E6.7783
G1 X124.14 Y112.9 E6.7835
G1 X123.96 Y112.9 E6.791
G1 X123.87 Y112.82 E6.7962
;
; 'Loop', 155.7 [RPM], 78.0 [mm/s]
G1 F14506.3
G1 X118.12 Y108.31 E6.7962
G1 F4681.5
G1 X118.12 Y121.75 E7.3547
G1 X119.33 Y120.59 E7.4241
;
; 'Wipe', 0.0 [RPM], 65.3 [mm/s]
G1 F14506.3
G1 X119.33 Y120.59 E7.4241
G1 F3916.7
G1 X118.12 Y121.75 E7.4241
G1 X118.12 Y113.38 E7.4241
;
; 'Perimeter', 180.0 [RPM], 90.2 [mm/s]
G1 F14506.3
G1 X115.66 Y121 E7.4241
G1 F5411.9
G1 X115.89 Y121.22 E7.4374
G1 X115.45 Y121.66 E7.4634
G1 X115.27 Y121.66 E7.471
G1 X114.9 Y122 E7.4918
G1 X114.89 Y122.17 E7.4987
G1 X114.83 Y122.21 E7.502
G1 X114.74 Y122.19 E7.5057
G1 X114.69 Y122.14 E7.5088
G1 X114.69 Y107.65 E8.1115
G1 X114.85 Y107.63 E8.1182
G1 X116.86 Y107.63 E8.2018
G1 X116.83 Y107.67 E8.2038
G1 X116.85 Y107.86 E8.2118
G1 X115.89 Y108.85 E8.269
G1 X115.89 Y121.22 E8.7835
G1 X115.57 Y121.22 E8.7968
;
; 'Loop', 155.7 [RPM], 78.0 [mm/s]
G1 F14506.3
G1 X115.88 Y121.21 E8.7968
G1 F4681.5
G1 X115.43 Y121.64 E8.8228
G1 X115.24 Y121.63 E8.8305
G1 X115.2 Y121.67 E8.833
G1 X115.2 Y108.15 E9.3952
G1 X115.36 Y108.13 E9.4018
G1 X116.54 Y108.13 E9.451
G1 X115.88 Y108.83 E9.4909
G1 X115.88 Y121.21 E10.0054
;
; 'Wipe', 0.0 [RPM], 65.3 [mm/s]
G1 F14506.3
G1 X115.88 Y121.21 E10.0054
G1 F3916.7
G1 X115.88 Y111.13 E10.0054
;
; 'Perimeter', 180.0 [RPM], 90.2 [mm/s]
G1 F14506.3
G1 X114.17 Y123.05 E10.0054
G1 F5411.9
G1 X114.16 Y123.2 E10.0117
G1 X114.06 Y123.28 E10.0169
G1 X114.06 Y123.63 E10.0313
G1 X113.97 Y123.72 E10.0365
G1 X113.97 Y124.07 E10.0511
G1 X113.88 Y124.16 E10.0563
G1 X113.88 Y124.33 E10.0636
G1 X113.79 Y124.42 E10.0688
G1 X113.79 Y124.6 E10.0761
;
; 'Loop', 155.7 [RPM], 78.0 [mm/s]
G1 F14506.3
G1 X113.99 Y123.74 E10.0761
G1 F4681.5
G1 X114.08 Y123.65 E10.0813
G1 X114.1 Y123.49 E10.088
G1 X114.28 Y123.5 E10.0957
G1 X114.56 Y123.43 E10.1077
G1 X114.7 Y123.4 E10.1137
G1 X139.99 Y123.4 E11.1652
G1 X140.14 Y123.42 E11.1714
G1 X140.42 Y123.49 E11.1834
G1 X140.78 Y123.49 E11.1982
G1 X140.8 Y123.82 E11.2122
G1 X140.89 Y123.91 E11.2174
G1 X140.89 Y124.26 E11.2318
G1 X140.98 Y124.34 E11.237
G1 X140.99 Y124.69 E11.2516
;
; 'Wipe', 0.0 [RPM], 65.3 [mm/s]
G1 F14506.3
G1 X140.99 Y124.69 E11.2516
G1 F3916.7
G1 X140.98 Y124.34 E11.2516
G1 X140.89 Y124.26 E11.2516
G1 X140.89 Y123.91 E11.2516
G1 X140.8 Y123.82 E11.2516
G1 X140.78 Y123.49 E11.2516
G1 X140.42 Y123.49 E11.2516
G1 X139.99 Y123.4 E11.2516
G1 X139.29 Y123.4 E11.2516
G1 X132.04 Y123.4 E11.2516
;
; 'Perimeter', 180.0 [RPM], 90.2 [mm/s]
G1 F14506.3
G1 X117.62 Y107.74 E11.2516
G1 F5411.9
G1 X117.68 Y107.63 E11.257
G1 X137.02 Y107.63 E12.0608
G1 X137.09 Y107.73 E12.0661
G1 X137.09 Y110.6 E12.1855
G1 X126.09 Y110.6 E12.6429
G1 X125.79 Y110.61 E12.6554
G1 X125.68 Y110.68 E12.6608
G1 X125.6 Y110.95 E12.6728
G1 X125.6 Y111.1 E12.6786
G1 X125.6 Y113.78 E12.7902
G1 X125.57 Y113.93 E12.7965
G1 X125.42 Y113.92 E12.8027
G1 X125.39 Y113.78 E12.8087
G1 X125.39 Y113.6 E12.8161
G1 X125.2 Y113.43 E12.8265
G1 X125.02 Y113.44 E12.8341
G1 X124.75 Y113.18 E12.8497
G1 X124.57 Y113.18 E12.8571
G1 X124.4 Y113 E12.8675
G1 X124.22 Y113 E12.875
G1 X124.13 Y112.92 E12.8801
G1 X123.95 Y112.92 E12.8875
G1 X123.86 Y112.83 E12.8927
;
; 'Wipe', 0.0 [RPM], 65.3 [mm/s]
G1 F14506.3
G1 X123.86 Y112.83 E12.8927
G1 F3916.7
G1 X123.95 Y112.92 E12.8927
G1 X124.13 Y112.92 E12.8927
G1 X124.22 Y113 E12.8927
G1 X124.4 Y113 E12.8927
G1 X124.57 Y113.18 E12.8927
G1 X124.75 Y113.18 E12.8927
G1 X125.02 Y113.44 E12.8927
G1 X125.2 Y113.43 E12.8927
G1 X125.39 Y113.6 E12.8927
G1 X125.39 Y113.78 E12.8927
G1 X125.42 Y113.92 E12.8927
G1 X125.57 Y113.93 E12.8927
G1 X125.6 Y113.78 E12.8927
G1 X125.6 Y111.1 E12.8927
G1 X125.61 Y110.79 E12.8927
G1 X125.68 Y110.68 E12.8927
G1 X125.91 Y110.6 E12.8927
G1 X126.09 Y110.6 E12.8927
G1 X130.16 Y110.6 E12.8927
;
; 'Crown', 180.0 [RPM], 90.2 [mm/s]
G1 F14506.3
G1 X125.58 Y116.06 E12.8927
G1 F5411.9
G1 X125.6 Y116.08 E12.8938
G1 X125.6 Y119.05 E13.0173
G1 X125.65 Y119.35 E13.0299
;
; 'Solid', 130.3 [RPM], 65.3 [mm/s]
G1 F14506.3
G1 X127.49 Y120.34 E13.0299
G1 F3916.7
G1 X126.62 Y121.21 E13.0811
;
; 'Solid', 130.3 [RPM], 65.3 [mm/s]
G1 F14506.3
G1 X138.81 Y121.04 E13.0811
G1 F3916.7
G1 X138.95 Y120.9 E13.0891
G1 X138.95 Y120.19 E13.1185
G1 X138.5 Y120.64 E13.1448
G1 X137.81 Y120.63 E13.1736
G1 X138.97 Y119.46 E13.242
G1 X138.62 Y119.11 E13.2628
G1 X139.03 Y118.7 E13.2867
G1 X138.59 Y118.43 E13.3081
G1 X138.97 Y118.05 E13.3306
G1 X138.64 Y117.67 E13.3514
G1 X139.03 Y117.29 E13.3739
;
; 'Wipe', 0.0 [RPM], 65.3 [mm/s]
G1 F14506.3
G1 X139.03 Y117.29 E13.3739
G1 F3916.7
G1 X138.64 Y117.67 E13.3739
G1 X138.97 Y118.05 E13.3739
G1 X138.59 Y118.43 E13.3739
G1 X139.03 Y118.7 E13.3739
G1 X138.62 Y119.11 E13.3739
G1 X138.97 Y119.46 E13.3739
G1 X137.81 Y120.63 E13.3739
G1 X138.5 Y120.64 E13.3739
G1 X138.95 Y120.19 E13.3739
G1 X138.95 Y120.9 E13.3739
G1 X138.81 Y121.04 E13.3739
;
; 'Solid', 130.3 [RPM], 65.3 [mm/s]
G1 F14506.3
G1 X136.15 Y108.85 E13.3739
G1 F3916.7
G1 X135.42 Y109.58 E13.4172
G1 X134.71 Y109.58 E13.4466
G1 X135.65 Y108.65 E13.5017
G1 X134.94 Y108.65 E13.5311
G1 X134 Y109.58 E13.5862
G1 X133.29 Y109.58 E13.6156
G1 X134.23 Y108.65 E13.6707
G1 X133.52 Y108.65 E13.7001
G1 X132.59 Y109.58 E13.7553
G1 X131.88 Y109.58 E13.7847
G1 X132.82 Y108.65 E13.8398
G1 X132.11 Y108.65 E13.8692
G1 X131.17 Y109.58 E13.9243
G1 X130.47 Y109.58 E13.9537
G1 X131.4 Y108.65 E14.0088
G1 X130.7 Y108.65 E14.0382
G1 X129.76 Y109.58 E14.0933
G1 X129.05 Y109.58 E14.1227
G1 X129.99 Y108.65 E14.1779
G1 X129.28 Y108.65 E14.2073
G1 X128.34 Y109.58 E14.2624
G1 X127.64 Y109.58 E14.2918
G1 X128.58 Y108.65 E14.3469
G1 X127.87 Y108.65 E14.3763
G1 X126.93 Y109.58 E14.4314
G1 X126.22 Y109.58 E14.4608
G1 X127.16 Y108.65 E14.5159
G1 X126.45 Y108.65 E14.5453
G1 X125.23 Y109.87 E14.6174
;
; 'Solid', 130.3 [RPM], 65.3 [mm/s]
G1 F14506.3
G1 X124.31 Y112.91 E14.6174
G1 F3916.7
G1 X124.58 Y112.64 E14.6333
G1 X124.58 Y111.94 E14.6627
G1 X118.64 Y117.88 E15.012
G1 X118.64 Y117.17 E15.0414
G1 X124.55 Y111.26 E15.3891
G1 X124.77 Y110.33 E15.4287
G1 X118.64 Y116.46 E15.7894
G1 X118.64 Y115.76 E15.8188
G1 X125.75 Y108.65 E16.2368
G1 X125.04 Y108.65 E16.2662
G1 X118.64 Y115.05 E16.6427
G1 X118.64 Y114.34 E16.6721
G1 X124.33 Y108.65 E17.0069
G1 X123.63 Y108.65 E17.0363
G1 X118.64 Y113.63 E17.3296
G1 X118.64 Y112.93 E17.359
G1 X122.92 Y108.65 E17.6107
G1 X122.21 Y108.65 E17.6401
G1 X118.64 Y112.22 E17.8502
G1 X118.64 Y111.51 E17.8796
G1 X121.5 Y108.65 E18.0481
G1 X120.8 Y108.65 E18.0775
G1 X118.64 Y110.81 E18.2045
G1 X118.64 Y110.1 E18.2339
G1 X120.09 Y108.65 E18.3193
G1 X119.38 Y108.65 E18.3487
G1 X118.64 Y109.39 E18.3922
G1 X118.69 Y108.63 E18.4236
G1 X118.7 Y108.62 E18.4241
;
; 'Solid', 130.3 [RPM], 65.3 [mm/s]
G1 F14506.3
G1 X123.36 Y120.23 E18.4241
G1 F3916.7
G1 X123.29 Y120.3 E18.4285
G1 X122.58 Y120.3 E18.4579
G1 X123.28 Y119.59 E18.4994
G1 X123.28 Y118.89 E18.5287
G1 X121.87 Y120.3 E18.6118
G1 X121.16 Y120.3 E18.6412
G1 X123.28 Y118.18 E18.7659
G1 X123.28 Y117.47 E18.7953
G1 X120.46 Y120.3 E18.9615
G1 X119.75 Y120.3 E18.9909
G1 X123.28 Y116.77 E19.1987
G1 X123.28 Y116.06 E19.2281
G1 X118.64 Y120.71 E19.5013
G1 X118.64 Y120 E19.5307
G1 X123.28 Y115.35 E19.8039
G1 X123.28 Y114.64 E19.8333
G1 X118.64 Y119.29 E20.1065
G1 X118.64 Y118.58 E20.1359
G1 X123.36 Y113.86 E20.4135
;
; 'Wipe', 0.0 [RPM], 65.3 [mm/s]
G1 F14506.3
G1 X123.36 Y113.86 E20.4135
G1 F3916.7
G1 X118.64 Y118.58 E20.4135
G1 X118.64 Y119.29 E20.4135
G1 X123.28 Y114.64 E20.4135
;
; 'Stacked Sparse Infill', 180.0 [RPM], 90.2 [mm/s]
G1 F14506.3
G1 X122.22 Y124.19 E20.4135
G1 F5411.9
G1 X122.22 Y124.62 E20.4314
G1 X122.19 Y124.86 E20.4418
G1 X122.08 Y125.04 E20.4504
G1 X120.95 Y126.17 E20.5169
G1 X120.77 Y126.28 E20.5255
G1 X120.52 Y126.31 E20.5358
G1 X118.26 Y126.31 E20.6299
G1 X118.01 Y126.35 E20.6403
G1 X117.84 Y126.46 E20.6489
G1 X116.56 Y127.73 E20.7237
G1 X115.15 Y126.31 E20.8069
G1 X116.42 Y125.04 E20.8817
G1 X116.53 Y124.86 E20.8903
G1 X116.56 Y124.62 E20.9007
G1 X116.56 Y124.19 E20.9186
;
; 'Wipe', 0.0 [RPM], 65.3 [mm/s]
G1 F14506.3
G1 X116.56 Y124.19 E20.9186
G1 F3916.7
G1 X116.56 Y124.62 E20.9186
G1 X116.53 Y124.86 E20.9186
G1 X116.42 Y125.04 E20.9186
G1 X115.15 Y126.31 E20.9186
G1 X116.56 Y127.73 E20.9186
G1 X117.84 Y126.46 E20.9186
G1 X118.01 Y126.35 E20.9186
G1 X118.26 Y126.31 E20.9186
G1 X120.52 Y126.31 E20.9186
G1 X120.77 Y126.28 E20.9186
G1 X120.95 Y126.17 E20.9186
G1 X121.3 Y125.82 E20.9186
;
; 'Stacked Sparse Infill', 180.0 [RPM], 90.2 [mm/s]
G1 F14506.3
G1 X120.81 Y131.97 E20.9186
G1 F5411.9
G1 X122.08 Y130.7 E20.9934
G1 X122.19 Y130.52 E21.002
G1 X122.22 Y130.27 E21.0124
G1 X122.22 Y128.01 E21.1065
G1 X122.26 Y127.76 E21.1169
G1 X122.36 Y127.59 E21.1254
G1 X123.49 Y126.46 E21.192
G1 X123.67 Y126.35 E21.2005
G1 X123.92 Y126.31 E21.2109
G1 X126.18 Y126.31 E21.305
G1 X126.43 Y126.28 E21.3154
G1 X126.61 Y126.17 E21.324
G1 X127.74 Y125.04 E21.3905
G1 X127.84 Y124.86 E21.3991
G1 X127.88 Y124.62 E21.4095
G1 X127.88 Y124.19 E21.4274
G1 X133.54 Y124.19 E21.6626
G1 X133.54 Y124.62 E21.6805
G1 X133.5 Y124.86 E21.6909
G1 X133.39 Y125.04 E21.6995
G1 X132.26 Y126.17 E21.766
G1 X132.09 Y126.28 E21.7746
G1 X131.84 Y126.31 E21.7849
G1 X129.58 Y126.31 E21.879
G1 X129.33 Y126.35 E21.8894
G1 X129.15 Y126.46 E21.898
G1 X128.02 Y127.59 E21.9645
G1 X127.91 Y127.76 E21.9731
G1 X127.88 Y128.01 E21.9835
G1 X127.88 Y130.27 E22.0775
G1 X127.84 Y130.52 E22.0879
G1 X127.74 Y130.7 E22.0965
G1 X126.61 Y131.83 E22.163
G1 X126.43 Y131.94 E22.1716
G1 X126.18 Y131.97 E22.182
G1 X123.92 Y131.97 E22.2761
G1 X123.67 Y132.01 E22.2865
G1 X123.49 Y132.11 E22.295
G1 X122.22 Y133.38 E22.3699
G1 X126.46 Y137.63 E22.6193
G1 X127.74 Y136.35 E22.6942
G1 X127.84 Y136.18 E22.7027
G1 X127.88 Y135.93 E22.7131
G1 X127.88 Y133.67 E22.8072
G1 X127.91 Y133.42 E22.8176
G1 X128.02 Y133.24 E22.8262
G1 X129.15 Y132.11 E22.8927
G1 X129.33 Y132.01 E22.9012
G1 X129.58 Y131.97 E22.9116
G1 X131.84 Y131.97 E23.0057
G1 X132.09 Y131.94 E23.0161
G1 X132.26 Y131.83 E23.0247
G1 X133.39 Y130.7 E23.0912
G1 X133.5 Y130.52 E23.0998
G1 X133.54 Y130.27 E23.1102
G1 X133.54 Y128.01 E23.2042
G1 X133.57 Y127.76 E23.2146
G1 X133.68 Y127.59 E23.2232
G1 X134.81 Y126.46 E23.2897
G1 X134.99 Y126.35 E23.2983
G1 X135.23 Y126.31 E23.3087
G1 X137.5 Y126.31 E23.4028
G1 X137.74 Y126.28 E23.4132
G1 X137.92 Y126.17 E23.4217
G1 X139.05 Y125.04 E23.4882
G1 X139.16 Y124.86 E23.4968
G1 X139.19 Y124.62 E23.5072
G1 X139.19 Y124.19 E23.5251
;
; 'Wipe', 0.0 [RPM], 65.3 [mm/s]
G1 F14506.3
G1 X139.19 Y124.19 E23.5251
G1 F3916.7
G1 X139.19 Y124.62 E23.5251
G1 X139.16 Y124.86 E23.5251
G1 X139.05 Y125.04 E23.5251
G1 X137.92 Y126.17 E23.5251
G1 X137.74 Y126.28 E23.5251
G1 X137.5 Y126.31 E23.5251
G1 X135.23 Y126.31 E23.5251
G1 X134.99 Y126.35 E23.5251
G1 X134.81 Y126.46 E23.5251
G1 X133.68 Y127.59 E23.5251
G1 X133.57 Y127.76 E23.5251
G1 X133.54 Y128.01 E23.5251
G1 X133.54 Y130.27 E23.5251
G1 X133.5 Y130.52 E23.5251
;
; 'Stacked Sparse Infill', 180.0 [RPM], 90.2 [mm/s]
G1 F14506.3
G1 X142.37 Y124.55 E23.5251
G1 F5411.9
G1 X127.88 Y139.04 E24.3775
;
; 'Wipe', 0.0 [RPM], 65.3 [mm/s]
G1 F14506.3
G1 X127.88 Y139.04 E24.3775
G1 F3916.7
G1 X134.95 Y131.97 E24.3775
;
; 'Sparse Infill', 180.0 [RPM], 90.2 [mm/s]
G1 F14506.3
G1 X146.97 Y112.88 E24.3775
G1 F5411.9
G1 X147.33 Y112.52 E24.3987
G1 X147.13 Y112.17 E24.4155
G1 X147.17 Y111.82 E24.4302
G1 X146.97 Y111.47 E24.447
G1 X147.33 Y111.11 E24.4682
G1 X147.13 Y110.76 E24.4851
G1 X147.17 Y110.4 E24.4998
G1 X146.97 Y110.05 E24.5166
G1 X147.33 Y109.69 E24.5378
G1 X147.13 Y109.34 E24.5547
G1 X147.17 Y108.99 E24.5694
G1 X146.97 Y108.64 E24.5862
G1 X147.32 Y108.28 E24.6072
;
; 'Sparse Infill', 180.0 [RPM], 90.2 [mm/s]
G1 F14506.3
G1 X147.68 Y109.34 E24.6072
G1 F5411.9
G1 X147.67 Y109.35 E24.6076
G1 X147.68 Y110.75 E24.6661
G1 X147.67 Y110.76 E24.6665
G1 X147.68 Y112.17 E24.725
G1 X147.67 Y112.18 E24.7254
;
; 'Wipe', 0.0 [RPM], 65.3 [mm/s]
G1 F14506.3
G1 X147.67 Y112.18 E24.7254
G1 F3916.7
G1 X147.68 Y112.17 E24.7254
G1 X147.67 Y110.76 E24.7254
G1 X147.68 Y110.75 E24.7254
G1 X147.67 Y109.35 E24.7254
G1 X147.68 Y109.34 E24.7254
;
; 'Stacked Sparse Infill', 180.0 [RPM], 90.2 [mm/s]
G1 F14506.3
G1 X145.55 Y121.37 E24.7254
G1 F5411.9
G1 X152.98 Y113.94 E25.1622
G1 X150.51 Y111.46 E25.3077
G1 X150.51 Y113.3 E25.3841
G1 X150.47 Y113.55 E25.3945
G1 X150.36 Y113.73 E25.4031
G1 X149.23 Y114.86 E25.4696
G1 X149.06 Y114.96 E25.4782
G1 X148.81 Y115 E25.4886
G1 X146.96 Y115 E25.5653
G1 X146.12 Y115.84 E25.6149
G1 X145.56 Y116.22 E25.6431
G1 X145.21 Y116.06 E25.6593
G1 X144.99 Y116.27 E25.672
G1 X144.88 Y116.45 E25.6805
G1 X144.85 Y116.7 E25.6909
G1 X144.85 Y117.12 E25.7086
;
; 'Wipe', 0.0 [RPM], 65.3 [mm/s]
G1 F14506.3
G1 X144.85 Y117.12 E25.7086
G1 F3916.7
G1 X144.85 Y116.7 E25.7086
G1 X144.88 Y116.45 E25.7086
G1 X144.99 Y116.27 E25.7086
G1 X145.21 Y116.06 E25.7086
G1 X145.56 Y116.22 E25.7086
G1 X146.12 Y115.84 E25.7086
G1 X146.96 Y115 E25.7086
G1 X148.81 Y115 E25.7086
G1 X149.06 Y114.96 E25.7086
G1 X149.23 Y114.86 E25.7086
G1 X150.36 Y113.73 E25.7086
G1 X150.47 Y113.55 E25.7086
G1 X150.51 Y113.3 E25.7086
G1 X150.51 Y111.46 E25.7086
G1 X150.82 Y111.77 E25.7086
;
; 'Perimeter', 180.0 [RPM], 90.2 [mm/s]
G1 F14506.3
G1 X139.81 Y113.67 E25.7086
G1 F5411.9
G1 X139.94 Y113.98 E25.7229
G1 X137.91 Y113.98 E25.8074
G1 X137.95 Y113.93 E25.8101
G1 X137.94 Y113.74 E25.818
G1 X138.8 Y112.84 E25.87
G1 X138.8 Y108.85 E26.0361
G1 X137.85 Y107.86 E26.0933
G1 X137.86 Y107.67 E26.1013
G1 X137.83 Y107.63 E26.1033
G1 X139.84 Y107.63 E26.1869
G1 X139.97 Y107.68 E26.1925
G1 X139.97 Y113.83 E26.4483
G1 X139.94 Y113.98 E26.4546
G1 X139.66 Y113.79 E26.4689
;
; 'Loop', 155.7 [RPM], 78.0 [mm/s]
G1 F14506.3
G1 X139.44 Y113.48 E26.4689
G1 F4681.5
G1 X138.24 Y113.48 E26.519
G1 X138.82 Y112.86 E26.5545
G1 X138.82 Y108.83 E26.7219
G1 X138.16 Y108.13 E26.7618
G1 X139.34 Y108.13 E26.811
G1 X139.47 Y108.19 E26.8166
G1 X139.47 Y113.33 E27.0304
G1 X139.44 Y113.48 E27.0368
;
; 'Wipe', 0.0 [RPM], 65.3 [mm/s]
G1 F14506.3
G1 X139.44 Y113.48 E27.0368
G1 F3916.7
G1 X139.47 Y113.33 E27.0368
G1 X139.47 Y108.19 E27.0368
G1 X139.34 Y108.13 E27.0368
G1 X138.16 Y108.13 E27.0368
G1 X138.82 Y108.83 E27.0368
G1 X138.82 Y111.27 E27.0368
;
; 'Perimeter', 180.0 [RPM], 90.2 [mm/s]
G1 F14506.3
G1 X135.44 Y112.84 E27.0368
G1 F5411.9
G1 X136.6 Y111.7 E27.1043
G1 X137.06 Y111.3 E27.1297
G1 X137.09 Y111.44 E27.1359
G1 X137.09 Y114.09 E27.2461
G1 X137.03 Y114.25 E27.2533
G1 X136.91 Y114.31 E27.2589
G1 X136.74 Y114.32 E27.2658
G1 X136.66 Y114.41 E27.271
G1 X136.6 Y114.41 E27.2732
G1 X135.43 Y114.42 E27.322
G1 X135.34 Y114.51 E27.3272
;
; 'Wipe', 0.0 [RPM], 65.3 [mm/s]
G1 F14506.3
G1 X135.34 Y114.51 E27.3272
G1 F3916.7
G1 X135.43 Y114.42 E27.3272
G1 X136.6 Y114.41 E27.3272
G1 X136.66 Y114.41 E27.3272
G1 X136.74 Y114.32 E27.3272
G1 X136.91 Y114.31 E27.3272
G1 X137.03 Y114.25 E27.3272
G1 X137.09 Y114.09 E27.3272
G1 X137.09 Y111.44 E27.3272
G1 X137.06 Y111.3 E27.3272
G1 X136.6 Y111.7 E27.3272
G1 X135.44 Y112.84 E27.3272
;
; 'Loop', 155.7 [RPM], 78.0 [mm/s]
G1 F14506.3
G1 X135.45 Y112.85 E27.3272
G1 F4681.5
G1 X136.59 Y111.77 E27.3925
G1 X136.59 Y113.99 E27.4847
G1 X136.52 Y114.31 E27.4985
G1 X136.46 Y114.39 E27.5025
G1 X135.42 Y114.41 E27.5457
G1 X135.33 Y114.5 E27.5509
;
; 'Wipe', 0.0 [RPM], 65.3 [mm/s]
G1 F14506.3
G1 X135.33 Y114.5 E27.5509
G1 F3916.7
G1 X135.42 Y114.41 E27.5509
G1 X136.46 Y114.39 E27.5509
G1 X136.52 Y114.31 E27.5509
G1 X136.59 Y113.99 E27.5509
G1 X136.59 Y111.77 E27.5509
G1 X135.45 Y112.85 E27.5509
;
