; generated by Slic3r 0.9.3 on 2012-11-17 at 21:46:45

; layer_height = 0.25
; perimeters = 2
; solid_layers = 2
; fill_density = 1
; perimeter_speed = 85
; infill_speed = 60
; travel_speed = 250
; scale = 1
; nozzle_diameter = 0.35
; filament_diameter = 1.7
; extrusion_multiplier = 1.0
; single wall width = 0.39mm

M104 S185 ; set temperature
;Standard Profile for Series 1. Single Extruder
M104 S185
M301 P24.72 I0.88 D231.1
G28
G1 X120 Y115 Z15 F10000
G92 E0
G1 Y5 Z15 F5000
M109 S185
G1 F100 E50
G92 E0
G1 X50 Z0.3 F10000
; do a little dance on a toothbrush to remove extrusions..  
G90 ; use absolute coordinates
G21 ; set units to millimeters
G92 E0
M82 ; use absolute distances for extrusion
M106 S255
G1 F6000.000 E-3.00000
G92 E0
G1 Z0.250 F15000.000
G1 X109.208 Y102.865
G1 F6000.000 E3.00000
G1 X109.608 Y102.525 F1851.113 E3.02225
G1 X109.818 Y102.365 E3.03344
G1 X110.258 Y102.075 E3.05578
G1 X110.718 Y101.825 E3.07797
G1 X111.198 Y101.615 E3.10018
G1 X111.698 Y101.435 E3.12271
G1 X112.208 Y101.305 E3.14501
G1 X112.728 Y101.215 E3.16738
G1 X116.688 Y101.025 E3.33543
G1 X123.588 Y101.175 E3.62797
G1 X124.458 Y101.295 E3.66520
G1 X125.028 Y101.445 E3.69018
G1 X125.308 Y101.535 E3.70265
G1 X125.858 Y101.765 E3.72792
G1 X140.998 Y110.565 E4.47020
G1 X141.218 Y110.715 E4.48148
G1 X141.638 Y111.035 E4.50387
G1 X142.038 Y111.395 E4.52668
G1 X142.568 Y111.985 E4.56029
G1 X143.158 Y112.875 E4.60556
G1 X143.388 Y113.355 E4.62812
G1 X143.588 Y113.855 E4.65094
G1 X143.738 Y114.365 E4.67348
G1 X143.848 Y114.885 E4.69601
G1 X143.918 Y115.415 E4.71867
G1 X143.918 Y119.455 E4.88991
G1 X143.848 Y119.985 E4.91257
G1 X143.738 Y120.505 E4.93510
G1 X143.588 Y121.015 E4.95763
G1 X143.498 Y121.265 E4.96890
G1 X143.158 Y121.985 E5.00265
G1 X142.888 Y122.445 E5.02526
G1 X142.728 Y122.655 E5.03645
G1 X142.578 Y122.875 E5.04773
G1 X142.228 Y123.275 E5.07026
G1 X141.648 Y123.825 E5.10414
G1 X141.438 Y123.995 E5.11560
G1 X141.008 Y124.295 E5.13782
G1 X140.548 Y124.565 E5.16043
G1 X139.828 Y124.895 E5.19400
G1 X139.318 Y125.065 E5.21679
G1 X124.378 Y128.705 E5.86858
G1 X123.768 Y128.795 E5.89472
G1 X123.158 Y128.825 E5.92061
G1 X113.018 Y128.805 E6.35042
G1 X112.498 Y128.735 E6.37266
G1 X111.978 Y128.625 E6.39519
G1 X111.478 Y128.475 E6.41731
G1 X110.978 Y128.285 E6.43999
G1 X110.508 Y128.055 E6.46217
G1 X110.058 Y127.785 E6.48441
G1 X109.838 Y127.635 E6.49570
G1 X109.418 Y127.315 E6.51808
G1 X109.028 Y126.955 E6.54058
G1 X108.668 Y126.565 E6.56307
G1 X108.348 Y126.145 E6.58545
G1 X108.058 Y125.705 E6.60779
G1 X107.808 Y125.245 E6.62998
G1 X107.598 Y124.755 E6.65258
G1 X107.428 Y124.255 E6.67497
G1 X107.298 Y123.745 E6.69727
G1 X107.208 Y123.225 E6.71964
G1 X107.178 Y122.965 E6.73074
G1 X107.178 Y107.025 E7.40640
G1 X107.248 Y106.505 E7.42864
G1 X107.348 Y105.995 E7.45066
G1 X107.498 Y105.485 E7.47320
G1 X107.688 Y104.995 E7.49547
G1 X108.048 Y104.295 E7.52884
G1 X108.338 Y103.855 E7.55118
G1 X108.658 Y103.435 E7.57356
G1 X108.927 Y103.141 E7.59043
G1 F6000.000 E4.59043
G92 E0
G1 X114.039 Y116.771 F15000.000
G1 F6000.000 E3.00000
G1 X119.720 Y116.771 F1306.668 E3.29274
G1 X119.720 Y121.954 E3.55979
G1 X114.039 Y121.954 E3.85252
G1 X114.039 Y117.166 E4.09925
G1 X113.555 Y116.287 F15000.000
G1 X120.204 Y116.287 F1306.668 E4.44186
G1 X120.204 Y122.438 E4.75877
G1 X113.555 Y122.438 E5.10138
G1 X113.555 Y116.682 E5.39797
G1 F6000.000 E2.39797
G92 E0
G1 X114.039 Y113.224 F15000.000
G1 F6000.000 E3.00000
G1 X114.039 Y108.046 F1306.668 E3.26680
G1 X119.720 Y108.046 E3.55954
G1 X119.720 Y113.224 E3.82634
G1 X114.433 Y113.224 E4.09876
G1 X113.555 Y113.708 F15000.000
G1 X113.555 Y107.562 F1306.668 E4.41543
G1 X120.204 Y107.562 E4.75804
G1 X120.204 Y113.708 E5.07471
G1 X113.950 Y113.708 E5.39699
G1 F6000.000 E2.39699
G92 E0
G1 X122.492 Y113.708 F15000.000
G1 F6000.000 E3.00000
G1 X122.492 Y107.562 F1306.668 E3.31667
G1 X123.161 Y107.562 E3.35114
G1 X123.161 Y113.708 E3.66781
G1 X122.886 Y113.708 E3.68196
G1 F6000.000 E0.68196
G92 E0
G1 X123.161 Y116.287 F15000.000
G1 F6000.000 E3.00000
G1 X123.161 Y122.438 F1306.668 E3.31691
G1 X122.492 Y122.438 E3.35139
G1 X122.492 Y116.287 E3.66830
G1 X122.766 Y116.287 E3.68245
G1 F6000.000 E0.68245
G92 E0
G1 X127.387 Y119.355 F15000.000
G1 F6000.000 E3.00000
G1 X128.273 Y119.483 F1851.113 E3.04614
G1 X128.390 Y119.398 E3.05360
G1 X128.273 Y119.483 F15000.000
G1 X128.309 Y119.553 F1851.113 E3.05764
G1 X128.362 Y119.597 E3.06121
G1 X127.387 Y119.355 F15000.000
G1 X126.916 Y119.288 F1851.113 E3.08569
G1 X126.446 Y119.220 E3.11018
G1 X126.211 Y119.186 E3.12242
G1 X126.211 Y119.186 F15000.000
G1 F6000.000 E0.12242
G92 E0
G1 X137.558 Y118.932 F15000.000
G1 F6000.000 E3.00000
G1 X137.558 Y118.773 F1851.113 E3.00821
G1 X137.558 Y118.531 E3.02067
G1 X137.558 Y117.322 E3.08297
G1 X137.558 Y115.953 E3.15348
G1 F6000.000 E0.15348
G92 E0
G1 X118.410 Y107.813 F15000.000
G1 F6000.000 E3.00000
G1 X118.326 Y107.700 F1851.113 E3.00722
G1 X118.441 Y107.618 F15000.000
G1 X118.326 Y107.700 F1851.113 E3.01445
G1 X117.697 Y107.600 E3.04726
G1 X117.241 Y107.528 E3.07107
G1 X116.785 Y107.455 E3.09488
G1 X116.557 Y107.419 E3.10678
G1 X116.557 Y107.419 E3.10678
G1 F6000.000 E0.10678
G92 E0
G1 X116.897 Y116.976 F15000.000
G1 F6000.000 E3.00000
G1 X119.516 Y119.595 F1306.668 E3.19142
G1 X119.516 Y118.908 F15000.000
G1 X117.584 Y116.976 F1306.668 E3.33264
G1 X118.271 Y116.976 F15000.000
G1 X119.516 Y118.221 F1306.668 E3.42364
G1 X119.516 Y117.534 F15000.000
G1 X118.958 Y116.976 F1306.668 E3.46442
G1 F6000.000 E0.46442
G92 E0
G1 X116.210 Y116.976 F15000.000
G1 F6000.000 E3.00000
G1 X119.516 Y120.281 F1306.668 E3.24164
G1 X119.516 Y120.968 F15000.000
G1 X115.524 Y116.976 F1306.668 E3.53348
G1 X114.837 Y116.976 F15000.000
G1 X119.516 Y121.655 F1306.668 E3.87555
G1 X118.923 Y121.749 F15000.000
G1 X114.244 Y117.070 F1306.668 E4.21761
G1 X114.244 Y117.757 F15000.000
G1 X118.236 Y121.749 F1306.668 E4.50946
G1 X117.549 Y121.749 F15000.000
G1 X114.244 Y118.444 F1306.668 E4.75110
G1 X114.244 Y119.131 F15000.000
G1 X116.862 Y121.749 F1306.668 E4.94252
G1 X116.176 Y121.749 F15000.000
G1 X114.244 Y119.818 F1306.668 E5.08374
G1 X114.244 Y120.504 F15000.000
G1 X115.489 Y121.749 F1306.668 E5.17474
G1 X114.802 Y121.749 F15000.000
G1 X114.244 Y121.191 F1306.668 E5.21553
G1 F6000.000 E2.21553
G92 E0
G1 X114.802 Y113.019 F15000.000
G1 F6000.000 E3.00000
G1 X114.244 Y112.461 F1306.668 E3.04077
G1 X114.244 Y111.775 F15000.000
G1 X115.488 Y113.019 F1306.668 E3.13170
G1 X116.175 Y113.019 F15000.000
G1 X114.244 Y111.088 F1306.668 E3.27279
G1 X114.244 Y110.402 F15000.000
G1 X116.861 Y113.019 F1306.668 E3.46405
G1 X117.548 Y113.019 F15000.000
G1 X114.244 Y109.715 F1306.668 E3.70546
G1 X114.244 Y109.029 F15000.000
G1 X118.234 Y113.019 F1306.668 E3.99704
G1 X118.921 Y113.019 F15000.000
G1 X114.244 Y108.342 F1306.668 E4.33878
G1 X114.839 Y108.251 F15000.000
G1 X119.516 Y112.927 F1306.668 E4.68052
G1 X119.516 Y112.241 F15000.000
G1 X115.525 Y108.251 F1306.668 E4.97209
G1 X116.212 Y108.251 F15000.000
G1 X119.516 Y111.555 F1306.668 E5.21351
G1 X119.516 Y110.868 F15000.000
G1 X116.898 Y108.251 F1306.668 E5.40476
G1 X117.585 Y108.251 F15000.000
G1 X119.516 Y110.182 F1306.668 E5.54585
G1 X119.516 Y109.495 F15000.000
G1 X118.271 Y108.251 F1306.668 E5.63679
G1 X118.958 Y108.251 F15000.000
G1 X119.516 Y108.809 F1306.668 E5.67756
G1 F6000.000 E2.67756
G92 E0
G1 Z0.500 F15000.000
G1 X119.815 Y116.677
G1 F6000.000 E3.00000
G1 X119.815 Y122.048 F1148.900 E3.22768
G1 X113.945 Y122.048 E3.47650
G1 X113.945 Y116.677 E3.70418
G1 X119.420 Y116.677 E3.93628
G1 X120.204 Y116.287 F15000.000
G1 X120.204 Y122.438 F1148.900 E4.19699
G1 X113.555 Y122.438 E4.47884
G1 X113.555 Y116.287 E4.73955
G1 X119.810 Y116.287 E5.00468
G1 F6000.000 E2.00468
G92 E0
G1 X119.815 Y113.318 F15000.000
G1 F6000.000 E3.00000
G1 X113.945 Y113.318 F1148.900 E3.24882
G1 X113.945 Y107.952 E3.47630
G1 X119.815 Y107.952 E3.72511
G1 X119.815 Y112.924 E3.93588
G1 X120.204 Y113.708 F15000.000
G1 X113.555 Y113.708 F1148.900 E4.21772
G1 X113.555 Y107.562 E4.47823
G1 X120.204 Y107.562 E4.76008
G1 X120.204 Y113.313 E5.00387
G1 F6000.000 E2.00387
G92 E0
G1 X122.492 Y113.708 F15000.000
G1 F6000.000 E3.00000
G1 X122.492 Y107.562 F1148.900 E3.26051
G1 X123.161 Y107.562 E3.28887
G1 X123.161 Y113.708 E3.54938
G1 X122.886 Y113.708 E3.56102
G1 F6000.000 E0.56102
G92 E0
G1 X123.161 Y116.287 F15000.000
G1 F6000.000 E3.00000
G1 X123.161 Y122.438 F1148.900 E3.26071
G1 X122.492 Y122.438 E3.28907
G1 X122.492 Y116.287 E3.54978
G1 X122.766 Y116.287 E3.56142
G1 F6000.000 E0.56142
G92 E0
G1 X127.057 Y119.297 F15000.000
G1 F6000.000 E3.00000
G1 X127.931 Y119.416 F1627.608 E3.03740
G1 X128.024 Y119.347 E3.04227
G1 X127.931 Y119.416 F15000.000
G1 X128.002 Y119.506 F1627.608 E3.04715
G1 X127.057 Y119.297 F15000.000
G1 X126.688 Y119.248 F1627.608 E3.06293
G1 X126.319 Y119.198 E3.07871
G1 X126.135 Y119.173 E3.08660
G1 X126.135 Y119.173 F15000.000
G1 F6000.000 E0.08660
G92 E0
G1 X117.174 Y107.723 F15000.000
G1 F6000.000 E3.00000
G1 X117.103 Y107.633 F1627.608 E3.00485
G1 X117.197 Y107.568 F15000.000
G1 X117.103 Y107.633 F1627.608 E3.00970
G1 X116.573 Y107.552 E3.03241
G1 X116.196 Y107.494 E3.04858
G1 X115.819 Y107.437 E3.06474
G1 X115.631 Y107.408 E3.07282
G1 X115.631 Y107.408 F15000.000
G1 F6000.000 E0.07282
G92 E0
G1 X115.752 Y116.788 F15000.000
G1 F6000.000 E3.00000
G1 X114.055 Y118.485 F1148.900 E3.10479
G1 X114.056 Y117.916 F15000.000
G1 X115.183 Y116.788 F1148.900 E3.17441
G1 X114.613 Y116.788 F15000.000
G1 X114.056 Y117.346 F1148.900 E3.20887
G1 X114.055 Y119.054 F15000.000
G1 X116.322 Y116.788 F1148.900 E3.34883
G1 X116.892 Y116.788 F15000.000
G1 X114.056 Y119.624 F1148.900 E3.52397
G1 X114.056 Y120.194 F15000.000
G1 X117.462 Y116.788 F1148.900 E3.73428
G1 X118.031 Y116.787 F15000.000
G1 X114.055 Y120.763 F1148.900 E3.97976
G1 X114.055 Y121.333 F15000.000
G1 X118.600 Y116.788 F1148.900 E4.26041
G1 X119.170 Y116.788 F15000.000
G1 X114.055 Y121.902 F1148.900 E4.57623
G1 X114.590 Y121.938 F15000.000
G1 X119.704 Y116.823 F1148.900 E4.89206
G1 X119.704 Y117.393 F15000.000
G1 X115.159 Y121.938 F1148.900 E5.17271
G1 X115.729 Y121.938 F15000.000
G1 X119.704 Y117.962 F1148.900 E5.41819
G1 X119.704 Y118.532 F15000.000
G1 X116.298 Y121.938 F1148.900 E5.62850
G1 X116.868 Y121.938 F15000.000
G1 X119.704 Y119.102 F1148.900 E5.80364
G1 X119.704 Y119.671 F15000.000
G1 X117.437 Y121.938 F1148.900 E5.94361
G1 X118.007 Y121.938 F15000.000
G1 X119.704 Y120.241 F1148.900 E6.04840
G1 X119.704 Y120.810 F15000.000
G1 X118.577 Y121.938 F1148.900 E6.11803
G1 X119.146 Y121.938 F15000.000
G1 X119.704 Y121.380 F1148.900 E6.15248
G1 F6000.000 E3.15248
G92 E0
G1 X119.147 Y113.208 F15000.000
G1 F6000.000 E3.00000
G1 X119.704 Y112.650 F1148.900 E3.03444
G1 X119.704 Y112.080 F15000.000
G1 X118.577 Y113.208 F1148.900 E3.10401
G1 X118.007 Y113.207 F15000.000
G1 X119.704 Y111.511 F1148.900 E3.20872
G1 X119.704 Y110.942 F15000.000
G1 X117.438 Y113.208 F1148.900 E3.34857
G1 X116.869 Y113.207 F15000.000
G1 X119.704 Y110.372 F1148.900 E3.52356
G1 X119.704 Y109.803 F15000.000
G1 X116.300 Y113.208 F1148.900 E3.73370
G1 X115.730 Y113.208 F15000.000
G1 X119.704 Y109.234 F1148.900 E3.97897
G1 X119.704 Y108.665 F15000.000
G1 X115.161 Y113.208 F1148.900 E4.25937
G1 X114.592 Y113.208 F15000.000
G1 X119.704 Y108.095 F1148.900 E4.57492
G1 X119.168 Y108.062 F15000.000
G1 X114.055 Y113.174 F1148.900 E4.89047
G1 X114.055 Y112.605 F15000.000
G1 X118.599 Y108.062 F1148.900 E5.17088
G1 X118.029 Y108.062 F15000.000
G1 X114.055 Y112.036 F1148.900 E5.41615
G1 X114.056 Y111.467 F15000.000
G1 X117.460 Y108.062 F1148.900 E5.62627
G1 X116.890 Y108.062 F15000.000
G1 X114.055 Y110.897 F1148.900 E5.80127
G1 X114.056 Y110.328 F15000.000
G1 X116.322 Y108.062 F1148.900 E5.94112
G1 X115.752 Y108.062 F15000.000
G1 X114.055 Y109.759 F1148.900 E6.04583
G1 X114.055 Y109.189 F15000.000
G1 X115.182 Y108.062 F1148.900 E6.11540
G1 X114.613 Y108.062 F15000.000
G1 X114.055 Y108.620 F1148.900 E6.14984
G1 F6000.000 E3.14984
G92 E0
G1 Z0.750 F15000.000
G1 X113.945 Y116.677
G1 F6000.000 E3.00000
G1 X119.815 Y116.677 F1149.561 E3.24882
G1 X119.815 Y122.048 E3.47650
G1 X113.945 Y122.048 E3.72532
G1 X113.945 Y117.071 E3.93628
G1 X113.555 Y116.287 F15000.000
G1 X120.204 Y116.287 F1149.561 E4.21813
G1 X120.204 Y122.438 E4.47884
G1 X113.555 Y122.438 E4.76068
G1 X113.555 Y116.682 E5.00468
G1 F6000.000 E2.00468
G92 E0
G1 X113.945 Y113.318 F15000.000
G1 F6000.000 E3.00000
G1 X113.945 Y107.952 F1149.561 E3.22748
G1 X119.815 Y107.952 E3.47630
G1 X119.815 Y113.318 E3.70378
G1 X114.339 Y113.318 E3.93588
G1 X113.555 Y113.708 F15000.000
G1 X113.555 Y107.562 F1149.561 E4.19639
G1 X120.204 Y107.562 E4.47823
G1 X120.204 Y113.708 E4.73874
G1 X113.950 Y113.708 E5.00387
G1 F6000.000 E2.00387
G92 E0
G1 X122.492 Y113.708 F15000.000
G1 F6000.000 E3.00000
G1 X122.492 Y107.562 F1149.561 E3.26051
G1 X123.161 Y107.562 E3.28887
G1 X123.161 Y113.708 E3.54938
G1 X122.886 Y113.708 E3.56102
G1 F6000.000 E0.56102
G92 E0
G1 X123.161 Y116.287 F15000.000
G1 F6000.000 E3.00000
G1 X123.161 Y122.438 F1149.561 E3.26071
G1 X122.492 Y122.438 E3.28907
G1 X122.492 Y116.287 E3.54978
G1 X122.766 Y116.287 E3.56142
G1 F6000.000 E0.56142
G92 E0
G1 X127.052 Y119.288 F15000.000
G1 F6000.000 E3.00000
G1 X128.101 Y119.421 F1628.544 E3.04485
G1 X128.193 Y119.351 E3.04975
G1 X128.101 Y119.421 F15000.000
G1 X128.138 Y119.486 F1628.544 E3.05290
G1 X128.172 Y119.512 E3.05473
G1 X127.052 Y119.288 F15000.000
G1 X126.684 Y119.241 F1628.544 E3.07042
G1 X126.317 Y119.194 E3.08612
G1 X126.133 Y119.170 E3.09396
G1 X126.133 Y119.170 F15000.000
G1 F6000.000 E0.09396
G92 E0
G1 X116.753 Y107.725 F15000.000
G1 F6000.000 E3.00000
G1 X116.680 Y107.635 F1628.544 E3.00494
G1 X116.776 Y107.570 F15000.000
G1 X116.680 Y107.635 F1628.544 E3.00987
G1 X116.131 Y107.553 E3.03336
G1 X115.745 Y107.495 E3.04992
G1 X115.359 Y107.437 E3.06648
G1 X115.166 Y107.408 E3.07476
G1 X115.166 Y107.408 F15000.000
G1 F6000.000 E0.07476
G92 E0
G1 X115.159 Y116.788 F15000.000
G1 F6000.000 E3.00000
G1 X119.704 Y121.333 F1149.561 E3.28065
G1 X119.704 Y121.902 F15000.000
G1 X114.589 Y116.788 F1149.561 E3.59647
G1 X114.055 Y116.823 F15000.000
G1 X119.170 Y121.938 F1149.561 E3.91230
G1 X118.600 Y121.938 F15000.000
G1 X114.055 Y117.393 F1149.561 E4.19295
G1 X114.055 Y117.962 F15000.000
G1 X118.031 Y121.938 F1149.561 E4.43843
G1 X117.461 Y121.938 F15000.000
G1 X114.055 Y118.532 F1149.561 E4.64873
G1 X114.055 Y119.102 F15000.000
G1 X116.892 Y121.938 F1149.561 E4.82387
G1 X116.322 Y121.938 F15000.000
G1 X114.055 Y119.671 F1149.561 E4.96384
G1 X114.055 Y120.241 F15000.000
G1 X115.752 Y121.938 F1149.561 E5.06863
G1 X115.183 Y121.938 F15000.000
G1 X114.055 Y120.810 F1149.561 E5.13825
G1 X114.055 Y121.380 F15000.000
G1 X114.613 Y121.938 F1149.561 E5.17270
G1 F6000.000 E2.17270
G92 E0
G1 X119.704 Y120.763 F15000.000
G1 F6000.000 E3.00000
G1 X115.729 Y116.788 F1149.561 E3.24548
G1 X116.298 Y116.788 F15000.000
G1 X119.704 Y120.194 F1149.561 E3.45578
G1 X119.704 Y119.624 F15000.000
G1 X116.868 Y116.788 F1149.561 E3.63092
G1 X117.438 Y116.788 F15000.000
G1 X119.704 Y119.054 F1149.561 E3.77088
G1 X119.704 Y118.485 F15000.000
G1 X118.007 Y116.788 F1149.561 E3.87567
G1 X118.577 Y116.788 F15000.000
G1 X119.704 Y117.915 F1149.561 E3.94530
G1 X119.704 Y117.346 F15000.000
G1 X119.146 Y116.788 F1149.561 E3.97974
G1 F6000.000 E0.97974
G92 E0
G1 X119.168 Y113.208 F15000.000
G1 F6000.000 E3.00000
G1 X114.055 Y108.095 F1149.561 E3.31555
G1 X114.592 Y108.062 F15000.000
G1 X119.704 Y113.175 F1149.561 E3.63109
G1 X119.704 Y112.605 F15000.000
G1 X115.161 Y108.062 F1149.561 E3.91149
G1 X115.730 Y108.062 F15000.000
G1 X119.704 Y112.036 F1149.561 E4.15676
G1 X119.704 Y111.467 F15000.000
G1 X116.300 Y108.062 F1149.561 E4.36689
G1 X116.869 Y108.062 F15000.000
G1 X119.704 Y110.897 F1149.561 E4.54188
G1 X119.704 Y110.328 F15000.000
G1 X117.438 Y108.062 F1149.561 E4.68173
G1 X118.008 Y108.062 F15000.000
G1 X119.704 Y109.759 F1149.561 E4.78644
G1 X119.704 Y109.189 F15000.000
G1 X118.577 Y108.062 F1149.561 E4.85601
G1 X119.146 Y108.062 F15000.000
