; generated by Slic3r 0.9.3 on 2012-11-17 at 22:19:29

; layer_height = 0.25
; perimeters = 2
; solid_layers = 2
; fill_density = 1
; perimeter_speed = 85
; infill_speed = 60
; travel_speed = 250
; scale = 1
; nozzle_diameter = 0.35
; filament_diameter = 1.7
; extrusion_multiplier = 1.0
; single wall width = 0.39mm

M104 S185 ; set temperature
;Standard Profile for Series 1. Single Extruder
M104 S185
M301 P24.72 I0.88 D231.1
G28
G1 X120 Y115 Z15 F10000
G92 E0
G1 Y5 Z15 F5000
M109 S185
G1 F100 E50
G92 E0
G1 X50 Z0.3 F10000
; do a little dance on a toothbrush to remove extrusions..  
G90 ; use absolute coordinates
G21 ; set units to millimeters
G92 E0
M82 ; use absolute distances for extrusion
M106 S255
G1 F6000.000 E-3.00000
G92 E0
G1 Z0.250 F15000.000
G1 X110.958 Y106.260
G1 F6000.000 E3.00000
G1 X115.958 Y104.040 F954.946 E3.23189
G1 X116.478 Y103.860 E3.25521
G1 X117.018 Y103.730 E3.27876
G1 X117.558 Y103.640 E3.30196
G1 X118.108 Y103.600 E3.32534
G1 X118.668 Y103.610 E3.34908
G1 X118.938 Y103.630 E3.36055
G1 X119.488 Y103.710 E3.38411
G1 X120.648 Y103.980 E3.43460
G1 X121.148 Y104.140 E3.45685
G1 X126.088 Y106.420 E3.68747
G1 X126.558 Y106.690 E3.71044
G1 X126.998 Y106.990 E3.73302
G1 X127.418 Y107.340 E3.75619
G1 X127.798 Y107.710 E3.77867
G1 X128.158 Y108.120 E3.80180
G1 X128.318 Y108.330 E3.81299
G1 X128.618 Y108.780 E3.83592
G1 X128.878 Y109.250 E3.85868
G1 X129.098 Y109.740 E3.88145
G1 X129.348 Y110.500 E3.91536
G1 X129.458 Y111.030 E3.93831
G1 X129.528 Y111.560 E3.96097
G1 X129.528 Y118.420 E4.25175
G1 X129.458 Y118.940 E4.27399
G1 X129.348 Y119.460 E4.29652
G1 X129.198 Y119.960 E4.31864
G1 X129.008 Y120.460 E4.34132
G1 X128.778 Y120.930 E4.36349
G1 X128.508 Y121.380 E4.38574
G1 X128.358 Y121.600 E4.39703
G1 X128.038 Y122.020 E4.41941
G1 X127.678 Y122.410 E4.44190
G1 X127.288 Y122.770 E4.46440
G1 X126.868 Y123.090 E4.48678
G1 X126.428 Y123.380 E4.50912
G1 X125.968 Y123.630 E4.53131
G1 X125.478 Y123.840 E4.55391
G1 X124.978 Y124.010 E4.57629
G1 X124.468 Y124.140 E4.59860
G1 X123.948 Y124.230 E4.62097
G1 X123.688 Y124.260 E4.63207
G1 X123.158 Y124.280 E4.65455
G1 X113.018 Y124.260 E5.08436
G1 X112.498 Y124.190 E5.10660
G1 X111.978 Y124.080 E5.12913
G1 X111.478 Y123.930 E5.15125
G1 X110.978 Y123.740 E5.17393
G1 X110.508 Y123.510 E5.19611
G1 X110.058 Y123.240 E5.21835
G1 X109.838 Y123.090 E5.22964
G1 X109.418 Y122.770 E5.25202
G1 X109.028 Y122.410 E5.27452
G1 X108.668 Y122.020 E5.29701
G1 X108.348 Y121.600 E5.31939
G1 X108.058 Y121.160 E5.34173
G1 X107.808 Y120.700 E5.36392
G1 X107.598 Y120.210 E5.38652
G1 X107.428 Y119.710 E5.40891
G1 X107.298 Y119.200 E5.43121
G1 X107.208 Y118.680 E5.45358
G1 X107.178 Y118.420 E5.46468
G1 X107.178 Y111.570 E5.75503
G1 X107.248 Y111.050 E5.77727
G1 X107.348 Y110.540 E5.79930
G1 X107.498 Y110.030 E5.82184
G1 X107.688 Y109.540 E5.84411
G1 X107.918 Y109.070 E5.86629
G1 X108.188 Y108.620 E5.88854
G1 X108.338 Y108.400 E5.89982
G1 X108.658 Y107.980 E5.92220
G1 X109.208 Y107.410 E5.95578
G1 X109.608 Y107.070 E5.97803
G1 X110.028 Y106.760 E6.00016
G1 X110.478 Y106.490 E6.02240
G1 X110.601 Y106.428 E6.02825
G1 F6000.000 E3.02825
G92 E0
G1 X122.198 Y112.107 F15000.000
G1 F6000.000 E3.00000
G1 X123.161 Y112.107 F674.079 E3.04961
G1 X123.161 Y117.893 E3.34773
G1 X122.198 Y117.893 E3.39734
G1 X122.198 Y112.501 E3.67515
G1 F6000.000 E0.67515
G92 E0
G1 X120.014 Y112.591 F15000.000
G1 F6000.000 E3.00000
G1 X120.014 Y117.409 F674.079 E3.24826
G1 X114.039 Y117.409 E3.55613
G1 X114.039 Y112.591 E3.80439
G1 X119.620 Y112.591 E4.09195
G1 X120.498 Y112.107 F15000.000
G1 X120.498 Y117.893 F674.079 E4.39007
G1 X113.555 Y117.893 E4.74781
G1 X113.555 Y112.107 E5.04594
G1 X120.104 Y112.107 E5.38336
G1 F6000.000 E2.38336
G92 E0
G1 X118.931 Y110.166 F15000.000
G1 F6000.000 E3.00000
G1 X118.940 Y110.150 F954.946 E3.00096
G1 X118.931 Y110.185 F15000.000
G1 X118.515 Y110.054 F954.946 E3.02344
G1 X118.515 Y110.054 E3.02344
G1 X118.302 Y109.996 E3.03479
G1 X118.302 Y109.996 F15000.000
G1 F6000.000 E0.03479
G92 E0
G1 X118.513 Y112.796 F15000.000
G1 F6000.000 E3.00000
G1 X119.809 Y114.092 F674.079 E3.10120
G1 X119.809 Y114.830 F15000.000
G1 X117.775 Y112.796 F674.079 E3.26004
G1 X117.037 Y112.796 F15000.000
G1 X119.809 Y115.568 F674.079 E3.47651
G1 X119.809 Y116.306 F15000.000
G1 X116.299 Y112.796 F674.079 E3.75062
G1 X115.561 Y112.796 F15000.000
G1 X119.809 Y117.045 F674.079 E4.08236
G1 X119.231 Y117.204 F15000.000
G1 X114.822 Y112.796 F674.079 E4.42657
G1 X114.244 Y112.955 F15000.000
G1 X118.493 Y117.204 F674.079 E4.75832
G1 X117.755 Y117.204 F15000.000
G1 X114.244 Y113.694 F674.079 E5.03242
G1 X114.244 Y114.432 F15000.000
G1 X117.016 Y117.204 F674.079 E5.24890
G1 X116.278 Y117.204 F15000.000
G1 X114.244 Y115.170 F674.079 E5.40773
G1 X114.244 Y115.908 F15000.000
G1 X115.540 Y117.204 F674.079 E5.50893
G1 X114.802 Y117.204 F15000.000
G1 X114.244 Y116.646 F674.079 E5.55250
G1 F6000.000 E2.55250
G92 E0
G1 X119.251 Y112.796 F15000.000
G1 F6000.000 E3.00000
G1 X119.809 Y113.354 F674.079 E3.04356
G1 F6000.000 E0.04356
G92 E0
G1 Z0.500 F15000.000
G1 X122.198 Y112.107
G1 F6000.000 E3.00000
G1 X123.161 Y112.107 F600.000 E3.04081
G1 X123.161 Y117.893 E3.28606
G1 X122.198 Y117.893 E3.32687
G1 X122.198 Y112.501 E3.55541
G1 F6000.000 E0.55541
G92 E0
G1 X120.109 Y112.497 F15000.000
G1 F6000.000 E3.00000
G1 X120.109 Y117.503 F600.000 E3.21222
G1 X113.945 Y117.503 E3.47349
G1 X113.945 Y112.497 E3.68572
G1 X119.714 Y112.497 E3.93027
G1 X120.498 Y112.107 F15000.000
G1 X120.498 Y117.893 F600.000 E4.17552
G1 X113.555 Y117.893 E4.46982
G1 X113.555 Y112.107 E4.71507
G1 X120.104 Y112.107 E4.99265
G1 F6000.000 E1.99265
G92 E0
G1 X119.814 Y110.091 F15000.000
G1 F6000.000 E3.00000
G1 X119.814 Y110.091 F822.896 E3.00000
G1 X119.814 Y110.091 F15000.000
G1 X119.646 Y110.039 F822.896 E3.00742
G1 X119.646 Y110.039 E3.00742
G1 X119.481 Y109.987 E3.01477
G1 X119.481 Y109.987 E3.01477
G1 F6000.000 E0.01477
G92 E0
G1 X119.702 Y112.607 F15000.000
G1 F6000.000 E3.00000
G1 X114.916 Y117.392 F600.000 E3.29356
G1 X114.351 Y117.393 F15000.000
G1 X119.137 Y112.608 F600.000 E3.58713
G1 X118.571 Y112.607 F15000.000
G1 X114.056 Y117.123 F600.000 E3.86415
G1 X114.055 Y116.558 F15000.000
G1 X118.006 Y112.607 F600.000 E4.10649
G1 X117.440 Y112.607 F15000.000
G1 X114.055 Y115.992 F600.000 E4.31414
G1 X114.055 Y115.427 F15000.000
G1 X116.875 Y112.607 F600.000 E4.48711
G1 X116.310 Y112.608 F15000.000
G1 X114.056 Y114.862 F600.000 E4.62539
G1 X114.056 Y114.296 F15000.000
G1 X115.744 Y112.607 F600.000 E4.72899
G1 X115.179 Y112.607 F15000.000
G1 X114.055 Y113.731 F600.000 E4.79790
G1 X114.055 Y113.165 F15000.000
G1 X114.613 Y112.607 F600.000 E4.83212
G1 F6000.000 E1.83212
G92 E0
G1 X115.482 Y117.393 F15000.000
G1 F6000.000 E3.00000
G1 X119.998 Y112.877 F600.000 E3.27702
G1 X119.998 Y113.442 F15000.000
G1 X116.047 Y117.393 F600.000 E3.51936
G1 X116.613 Y117.393 F15000.000
G1 X119.998 Y114.008 F600.000 E3.72702
G1 X119.998 Y114.573 F15000.000
G1 X117.179 Y117.393 F600.000 E3.89999
G1 X117.744 Y117.393 F15000.000
G1 X119.998 Y115.139 F600.000 E4.03827
G1 X119.998 Y115.704 F15000.000
G1 X118.309 Y117.393 F600.000 E4.14186
G1 X118.874 Y117.393 F15000.000
G1 X119.998 Y116.269 F600.000 E4.21077
G1 X119.998 Y116.835 F15000.000
G1 X119.440 Y117.393 F600.000 E4.24500
G1 F6000.000 E1.24500
G92 E0
G1 X122.662 Y116.637 F15000.000
G1 F6000.000 E3.00000
G1 X122.655 Y116.252 F600.000 E3.01633
G1 X122.651 Y116.059 E3.02449
G1 X122.591 Y112.785 E3.16328
G1 F6000.000 E0.16328
G92 E0
G1 X122.669 Y117.022 F15000.000
G1 F6000.000 E3.00000
G1 X122.676 Y117.407 F600.000 E3.01633
G1 F6000.000 E0.01633
G92 E0
G1 Z0.750 F15000.000
G1 X122.198 Y117.893
G1 F6000.000 E3.00000
G1 X122.198 Y112.107 F600.000 E3.24525
G1 X123.161 Y112.107 E3.28606
G1 X123.161 Y117.893 E3.53132
G1 X122.592 Y117.893 E3.55541
G1 F6000.000 E0.55541
G92 E0
G1 X120.109 Y117.503 F15000.000
G1 F6000.000 E3.00000
G1 X113.945 Y117.503 F600.000 E3.26127
G1 X113.945 Y112.497 E3.47349
G1 X120.109 Y112.497 E3.73476
G1 X120.109 Y117.109 E3.93027
G1 X120.498 Y117.893 F15000.000
G1 X113.555 Y117.893 F600.000 E4.22457
G1 X113.555 Y112.107 E4.46982
G1 X120.498 Y112.107 E4.76412
G1 X120.498 Y117.499 E4.99265
G1 X119.998 Y117.123 F15000.000
G1 X115.482 Y112.607 F600.000 E5.26968
G1 X114.917 Y112.607 F15000.000
G1 X119.702 Y117.393 F600.000 E5.56324
G1 X119.137 Y117.393 F15000.000
G1 X114.351 Y112.607 F600.000 E5.85680
G1 X114.055 Y112.877 F15000.000
G1 X118.571 Y117.393 F600.000 E6.13382
G1 X118.006 Y117.393 F15000.000
G1 X114.055 Y113.442 F600.000 E6.37616
G1 X114.055 Y114.008 F15000.000
G1 X117.440 Y117.393 F600.000 E6.58381
G1 X116.875 Y117.393 F15000.000
G1 X114.055 Y114.573 F600.000 E6.75678
G1 X114.055 Y115.139 F15000.000
G1 X116.310 Y117.393 F600.000 E6.89506
G1 X115.744 Y117.393 F15000.000
G1 X114.055 Y115.704 F600.000 E6.99866
G1 X114.055 Y116.269 F15000.000
G1 X115.179 Y117.393 F600.000 E7.06757
G1 X114.613 Y117.393 F15000.000
G1 X114.055 Y116.835 F600.000 E7.10179
G1 F6000.000 E4.10179
G92 E0
G1 X116.047 Y112.607 F15000.000
G1 F6000.000 E3.00000
G1 X119.998 Y116.558 F600.000 E3.24233
G1 X119.998 Y115.992 F15000.000
G1 X116.613 Y112.607 F600.000 E3.44999
G1 X117.178 Y112.607 F15000.000
G1 X119.998 Y115.427 F600.000 E3.62295
G1 X119.998 Y114.861 F15000.000
G1 X117.744 Y112.607 F600.000 E3.76123
G1 X118.309 Y112.607 F15000.000
G1 X119.998 Y114.296 F600.000 E3.86482
G1 X119.998 Y113.731 F15000.000
G1 X118.875 Y112.607 F600.000 E3.93373
G1 X119.440 Y112.607 F15000.000
G1 X119.998 Y113.165 F600.000 E3.96796
G1 F6000.000 E0.96796
G92 E0
G1 X122.669 Y117.022 F15000.000
G1 F6000.000 E3.00000
G1 X122.676 Y117.407 F600.000 E3.01633
G1 X122.662 Y116.637 F15000.000
G1 X122.655 Y116.252 F600.000 E3.03266
G1 X122.651 Y116.059 E3.04082
G1 X122.591 Y112.785 E3.17960
G1 F6000.000 E0.17960
G92 E0
G1 Z1.000 F15000.000
G1 X122.198 Y112.107
G1 F6000.000 E3.00000
G1 X123.161 Y112.107 F600.000 E3.04081
G1 X123.161 Y117.893 E3.28606
G1 X122.198 Y117.893 E3.32687
G1 X122.198 Y112.501 E3.55541
G1 F6000.000 E0.55541
G92 E0
G1 X120.109 Y112.497 F15000.000
G1 F6000.000 E3.00000
G1 X120.109 Y117.503 F600.000 E3.21222
G1 X113.945 Y117.503 E3.47349
G1 X113.945 Y112.497 E3.68572
G1 X119.714 Y112.497 E3.93027
G1 X120.498 Y112.107 F15000.000
G1 X120.498 Y117.893 F600.000 E4.17552
G1 X113.555 Y117.893 E4.46982
G1 X113.555 Y112.107 E4.71507
G1 X120.104 Y112.107 E4.99265
G1 X119.702 Y112.607 F15000.000
G1 X114.916 Y117.392 F600.000 E5.28622
G1 X114.351 Y117.393 F15000.000
G1 X119.137 Y112.608 F600.000 E5.57978
G1 X118.571 Y112.607 F15000.000
G1 X114.056 Y117.123 F600.000 E5.85680
G1 X114.055 Y116.558 F15000.000
G1 X118.006 Y112.607 F600.000 E6.09914
G1 X117.440 Y112.607 F15000.000
G1 X114.055 Y115.992 F600.000 E6.30679
G1 X114.055 Y115.427 F15000.000
G1 X116.875 Y112.607 F600.000 E6.47975
G1 X116.310 Y112.608 F15000.000
G1 X114.056 Y114.862 F600.000 E6.61803
G1 X114.056 Y114.296 F15000.000
G1 X115.744 Y112.607 F600.000 E6.72162
G1 X115.179 Y112.607 F15000.000
G1 X114.055 Y113.731 F600.000 E6.79053
G1 X114.055 Y113.165 F15000.000
G1 X114.613 Y112.607 F600.000 E6.82476
G1 F6000.000 E3.82476
G92 E0
G1 X115.482 Y117.393 F15000.000
G1 F6000.000 E3.00000
G1 X119.998 Y112.877 F600.000 E3.27702
G1 X119.998 Y113.442 F15000.000
G1 X116.047 Y117.393 F600.000 E3.51936
G1 X116.613 Y117.393 F15000.000
G1 X119.998 Y114.008 F600.000 E3.72701
G1 X119.998 Y114.573 F15000.000
G1 X117.179 Y117.393 F600.000 E3.89998
G1 X117.743 Y117.392 F15000.000
G1 X119.998 Y115.138 F600.000 E4.03826
G1 X119.998 Y115.704 F15000.000
G1 X118.309 Y117.393 F600.000 E4.14186
G1 X118.874 Y117.393 F15000.000
G1 X119.998 Y116.269 F600.000 E4.21076
G1 X119.998 Y116.835 F15000.000
G1 X119.440 Y117.393 F600.000 E4.24499
G1 F6000.000 E1.24499
G92 E0
G1 X122.662 Y116.637 F15000.000
G1 F6000.000 E3.00000
G1 X122.655 Y116.252 F600.000 E3.01633
G1 X122.651 Y116.059 E3.02449
G1 X122.591 Y112.785 E3.16328
G1 F6000.000 E0.16328
G92 E0
G1 X122.669 Y117.022 F15000.000
G1 F6000.000 E3.00000
G1 X122.676 Y117.407 F600.000 E3.01633
G1 F6000.000 E0.01633
G92 E0
G1 Z1.250 F15000.000
G1 X122.198 Y117.893
G1 F6000.000 E3.00000
G1 X122.198 Y112.107 F600.000 E3.24525
G1 X123.161 Y112.107 E3.28606
G1 X123.161 Y117.893 E3.53132
G1 X122.592 Y117.893 E3.55541
G1 F6000.000 E0.55541
G92 E0
G1 X120.109 Y117.503 F15000.000
G1 F6000.000 E3.00000
G1 X113.945 Y117.503 F600.000 E3.26127
G1 X113.945 Y112.497 E3.47349
G1 X120.109 Y112.497 E3.73476
G1 X120.109 Y117.109 E3.93027
G1 X120.498 Y117.893 F15000.000
G1 X113.555 Y117.893 F600.000 E4.22457
G1 X113.555 Y112.107 E4.46982
G1 X120.498 Y112.107 E4.76412
G1 X120.498 Y117.499 E4.99265
G1 X119.998 Y117.123 F15000.000
G1 X115.482 Y112.607 F600.000 E5.26968
G1 X114.917 Y112.607 F15000.000
G1 X119.702 Y117.393 F600.000 E5.56324
G1 X119.137 Y117.393 F15000.000
G1 X114.351 Y112.607 F600.000 E5.85680
G1 X114.055 Y112.877 F15000.000
G1 X118.571 Y117.393 F600.000 E6.13382
G1 X118.006 Y117.393 F15000.000
G1 X114.055 Y113.442 F600.000 E6.37616
G1 X114.055 Y114.008 F15000.000
G1 X117.440 Y117.393 F600.000 E6.58381
G1 X116.875 Y117.393 F15000.000
G1 X114.055 Y114.573 F600.000 E6.75678
G1 X114.055 Y115.139 F15000.000
G1 X116.310 Y117.393 F600.000 E6.89506
G1 X115.744 Y117.393 F15000.000
G1 X114.055 Y115.704 F600.000 E6.99866
G1 X114.055 Y116.269 F15000.000
G1 X115.179 Y117.393 F600.000 E7.06757
G1 X114.613 Y117.393 F15000.000
G1 X114.055 Y116.835 F600.000 E7.10179
G1 F6000.000 E4.10179
G92 E0
G1 X116.047 Y112.607 F15000.000
G1 F6000.000 E3.00000
G1 X119.998 Y116.558 F600.000 E3.24233
G1 X119.998 Y115.992 F15000.000
G1 X116.613 Y112.607 F600.000 E3.44999
G1 X117.178 Y112.607 F15000.000
G1 X119.998 Y115.427 F600.000 E3.62295
G1 X119.998 Y114.861 F15000.000
G1 X117.744 Y112.607 F600.000 E3.76123
G1 X118.309 Y112.607 F15000.000
G1 X119.998 Y114.296 F600.000 E3.86482
G1 X119.998 Y113.731 F15000.000
G1 X118.875 Y112.607 F600.000 E3.93373
G1 X119.440 Y112.607 F15000.000
G1 X119.998 Y113.165 F600.000 E3.96796
G1 F6000.000 E0.96796
G92 E0
G1 X122.669 Y117.022 F15000.000
G1 F6000.000 E3.00000
G1 X122.676 Y117.407 F600.000 E3.01633
G1 X122.662 Y116.637 F15000.000
G1 X122.655 Y116.252 F600.000 E3.03266
G1 X122.651 Y116.059 E3.04082
G1 X122.591 Y112.785 E3.17960
G1 F6000.000 E0.17960
G92 E0
G1 Z1.500 F15000.000
G1 X122.198 Y112.107
G1 F6000.000 E3.00000
G1 X123.161 Y112.107 F600.000 E3.04081
G1 X123.161 Y117.893 E3.28606
G1 X122.198 Y117.893 E3.32687
G1 X122.198 Y112.501 E3.55541
G1 F6000.000 E0.55541
G92 E0
G1 X120.109 Y112.497 F15000.000
G1 F6000.000 E3.00000
G1 X120.109 Y117.503 F600.000 E3.21222
G1 X113.945 Y117.503 E3.47349
G1 X113.945 Y112.497 E3.68572
G1 X119.714 Y112.497 E3.93027
G1 X120.498 Y112.107 F15000.000
G1 X120.498 Y117.893 F600.000 E4.17552
G1 X113.555 Y117.893 E4.46982
G1 X113.555 Y112.107 E4.71507
G1 X120.104 Y112.107 E4.99265
G1 X119.702 Y112.607 F15000.000
G1 X114.916 Y117.392 F600.000 E5.28622
G1 X114.351 Y117.393 F15000.000
G1 X119.137 Y112.608 F600.000 E5.57978
G1 X118.571 Y112.607 F15000.000
G1 X114.056 Y117.123 F600.000 E5.85680
G1 X114.055 Y116.558 F15000.000
G1 X118.006 Y112.607 F600.000 E6.09914
G1 X117.440 Y112.607 F15000.000
G1 X114.055 Y115.992 F600.000 E6.30679
G1 X114.055 Y115.427 F15000.000
G1 X116.875 Y112.607 F600.000 E6.47975
G1 X116.310 Y112.608 F15000.000
G1 X114.056 Y114.862 F600.000 E6.61803
G1 X114.056 Y114.296 F15000.000
G1 X115.744 Y112.607 F600.000 E6.72162
G1 X115.179 Y112.607 F15000.000
G1 X114.055 Y113.731 F600.000 E6.79053
G1 X114.055 Y113.165 F15000.000
G1 X114.613 Y112.607 F600.000 E6.82476
G1 F6000.000 E3.82476
G92 E0
G1 X115.482 Y117.393 F15000.000
G1 F6000.000 E3.00000
G1 X119.998 Y112.877 F600.000 E3.27702
G1 X119.998 Y113.442 F15000.000
G1 X116.047 Y117.393 F600.000 E3.51936
G1 X116.613 Y117.393 F15000.000
G1 X119.998 Y114.008 F600.000 E3.72701
G1 X119.998 Y114.573 F15000.000
G1 X117.179 Y117.393 F600.000 E3.89998
G1 X117.743 Y117.392 F15000.000
G1 X119.998 Y115.138 F600.000 E4.03826
G1 X119.998 Y115.704 F15000.000
G1 X118.309 Y117.393 F600.000 E4.14186
G1 X118.874 Y117.393 F15000.000
G1 X119.998 Y116.269 F600.000 E4.21076
