; KISSlicer - FREE
; Linux
; version 1.0.9.7
; Built: Jun 12 2012, 22:45:36
;
; Saved: Sat Nov 17 22:21:37 2012
; 'footbroken_sm.gco'
;
; *** Printer Settings ***
;
; printer_name = Series
; extension = gco
; cost_per_hour = 0
; g_code_prefix = 4D333031205032342E37322049302E383820443233312E310A473238200A473020583132302059313135205A3135204631303030300A4739322045300A4731205935205A31352046353030300A4D31303920533138350A47312046313030204535300A4739322045300A473120583530205A302E3320463130303030
; g_code_postfix = 47312059323330204631303030300A4739322045300A473120452D31300A4D3130370A4D3130342053300A4731205A323330204631303030300A4D3834204520582059
; g_code_ext_change = NULL
; post_process = NULL
; num_extruders = 1
; firmware_type = 2
; M104_M109 = 0
; add_comments = 1
; z_speed_mm_per_s = 3.5
; z_settle_mm = 0
; bed_size_x_mm = 260
; bed_size_y_mm = 230
; bed_size_z_mm = 230
; bed_offset_x_mm = 130
; bed_offset_y_mm = 115
; bed_offset_z_mm = 0
; bed_roughness_mm = 0
; travel_speed_mm_per_s = 250
; first_layer_speed_mm_per_s = 25
; lo_speed_perim_mm_per_s = 45
; lo_speed_solid_mm_per_s = 45
; lo_speed_sparse_mm_per_s = 90
; hi_speed_perim_mm_per_s = 180
; hi_speed_solid_mm_per_s = 90
; hi_speed_sparse_mm_per_s = 180
; ext_mm_per_rev_1 = 1.25
; ext_material_1 = 2
; ext_axis_1 = 0
; ext_mm_per_rev_2 = 1.25
; ext_material_2 = 0
; ext_axis_2 = 0
; ext_mm_per_rev_3 = 1.25
; ext_material_3 = 0
; ext_axis_3 = 0
; model_ext = 0
; support_ext = 0
; support_body_ext = 0
; raft_ext = 0
; solid_loop_overlap_fraction = 0.25
;
; *** Material Settings for Extruder 1 ***
;
; material_name = PLA
; fan_off_ISOs_all = 2
; temperature_C = 160
; keep_warm_C = 159
; first_layer_C = 185
; bed_C = 81
; sec_per_C_per_C = 0
; RPM_min = 3
; RPM_max = 180
; destring_suck = 1
; destring_prime = 1
; destring_min_mm = 0
; destring_speed_mm_per_s = 15
; min_layer_time_s = 12
; wipe_mm = 5
; cost_per_cm3 = 0
; flowrate_tweak = 1
; fiber_dia_mm = 1.75
; color = 0
;
; *** Style Settings ***
;
; style_name = Insanely
; layer_thickness_mm = 0.05
; extrusion_width_mm = 0.5
; num_loops = 2
; skin_thickness_mm = 1
; infill_extrusion_width = 0.5
; infill_density_denominator = 4
; stacked_layers = 1
; use_destring = 1
; loops_insideout = 0
; round_infill = 1
;
; *** Actual Slicing Settings As Used ***
;
; layer_thickness_mm = 0.05
; extrusion_width = 0.5
; num_ISOs = 2
; wall_thickness = 1
; infill_style = 5
; support_style = 0
; support_angle = 90
; destring_min_mm = 0
; stacked_infill_layers = 1
; ISO_wipe_mm = 5
; raft_style = 0
; extra_raft_depth = 0
; oversample_res_mm = 0.125
; crowning_threshold_mm = 1
; loops_insideout = 0
; sheathed_support = 0
; solid_loop_overlap_fraction = 0.25
; inflate_raft_mm = 0
; inflate_support_mm = 2
; model_support_gap_mm = 0.5
; round_infill = 1
; Speed vs Quality = 0.50
;
; *** Header ***
;
; fan off
M107
; [mm] mode
G21
; absolute mode
G90
; *** User-Supplied G-code Prefix ***
;
M301 P24.72 I0.88 D231.1
G28 
G0 X120 Y115 Z15 F10000
G92 E0
G1 Y5 Z15 F5000
M109 S185
G1 F100 E50
G92 E0
G1 X50 Z0.3 F10000
;
; *** Main G-code ***
;
; Reset extruder pos
G92 E0
; BEGIN_LAYER_OBJECT z=0.05
;
; *** Warming Extruder 1 to 185 C ***
M104 S185
G92 E0
;
;
; 'Perimeter', 12.5 [RPM], 25.0 [mm/s]
G1 F15000
G1 X117.33 Y108.05 Z0.05 E0
G1 F1500
G1 X117.33 Y122.54 E0.1507
G1 X117.33 Y122.66 E0.1518
G1 X117.26 Y122.77 E0.1532
G1 X117.15 Y122.83 E0.1545
G1 X117 Y122.86 E0.1561
G1 X116.52 Y122.91 E0.1612
G1 X116.4 Y122.97 E0.1625
G1 X116.19 Y122.98 E0.1648
G1 X116.11 Y123.03 E0.1657
G1 X116.09 Y123.37 E0.1692
G1 X116 Y123.45 E0.1705
G1 X116 Y123.98 E0.176
G1 X115.91 Y124.07 E0.1773
G1 X115.91 Y124.42 E0.1809
G1 X115.82 Y124.51 E0.1822
G1 X115.82 Y124.58 E0.183
;
; 'Wipe', 0.0 [RPM], 25.0 [mm/s]
G1 F15000
G1 X115.82 Y124.58 E0.183
G1 F900
G1 E-0.817
G1 F1500
G1 X115.82 Y124.51 E-0.817
G1 X115.91 Y124.42 E-0.817
G1 X115.91 Y124.07 E-0.817
G1 X116 Y123.98 E-0.817
G1 X116 Y123.45 E-0.817
G1 X116.09 Y123.37 E-0.817
G1 X116.11 Y123.03 E-0.817
G1 X116.19 Y122.98 E-0.817
G1 X116.4 Y122.97 E-0.817
G1 X116.52 Y122.91 E-0.817
G1 X117 Y122.86 E-0.817
G1 X117.15 Y122.83 E-0.817
G1 X117.26 Y122.77 E-0.817
G1 X117.33 Y122.54 E-0.817
G1 X117.33 Y120.6 E-0.817
;
; 'Loop', 12.5 [RPM], 25.0 [mm/s]
G1 F15000
G1 X117.84 Y108.14 E-0.817
G1 F900
G1 E0.183
G1 F1500
G1 X118 Y108.12 E0.1847
G1 X136.52 Y108.12 E0.3772
G1 X136.68 Y108.14 E0.3789
G1 X136.68 Y110.02 E0.3984
G1 X136.6 Y110.11 E0.3997
G1 X126.05 Y110.11 E0.5093
G1 X125.67 Y110.14 E0.5134
G1 X125.43 Y110.25 E0.5161
G1 X125.18 Y110.54 E0.52
G1 X125.11 Y110.99 E0.5248
G1 X125.1 Y113.82 E0.5542
G1 X125.05 Y113.94 E0.5556
G1 X124.84 Y114.08 E0.5582
G1 X124.69 Y114.29 E0.5608
G1 X124.62 Y114.57 E0.5639
G1 X124.62 Y114.75 E0.5657
G1 X124.68 Y114.98 E0.5682
G1 X124.62 Y115.27 E0.5713
G1 X124.64 Y115.59 E0.5746
G1 X124.75 Y115.83 E0.5773
G1 X124.93 Y116 E0.5799
G1 X125.04 Y116.07 E0.5813
G1 X125.1 Y116.18 E0.5826
G1 X125.1 Y118.94 E0.6113
G1 X125.14 Y119.33 E0.6153
G1 X125.26 Y119.57 E0.6181
G1 X125.43 Y119.74 E0.6207
G1 X125.67 Y119.86 E0.6234
G1 X126 Y119.89 E0.6269
G1 X136.61 Y119.89 E0.7371
G1 X136.68 Y119.98 E0.7384
G1 X136.69 Y122.63 E0.766
G1 X136.76 Y122.92 E0.769
G1 X136.9 Y123.12 E0.7716
G1 X137.22 Y123.34 E0.7756
G1 X137.46 Y123.45 E0.7783
G1 X137.61 Y123.48 E0.7799
G1 X137.94 Y123.47 E0.7834
G1 X137.96 Y123.48 E0.7836
G1 X137.97 Y123.82 E0.7871
G1 X138.06 Y123.91 E0.7884
G1 X138.07 Y124.26 E0.792
G1 X138.16 Y124.34 E0.7933
G1 X138.16 Y124.57 E0.7957
;
; 'Wipe', 0.0 [RPM], 25.0 [mm/s]
G1 F15000
G1 X138.16 Y124.57 E0.7957
G1 F900
G1 E-0.2043
G1 F1500
G1 X138.16 Y124.34 E-0.2043
G1 X138.07 Y124.26 E-0.2043
G1 X138.06 Y123.91 E-0.2043
G1 X137.97 Y123.82 E-0.2043
G1 X137.96 Y123.48 E-0.2043
G1 X137.94 Y123.47 E-0.2043
G1 X137.59 Y123.48 E-0.2043
G1 X137.33 Y123.4 E-0.2043
G1 X137 Y123.2 E-0.2043
G1 X136.82 Y123.03 E-0.2043
G1 X136.7 Y122.77 E-0.2043
G1 X136.68 Y122.57 E-0.2043
G1 X136.68 Y120.45 E-0.2043
;
; 'Loop', 12.5 [RPM], 25.0 [mm/s]
G1 F15000
G1 X117.84 Y108.25 E-0.2043
G1 F900
G1 E0.7957
G1 F1500
G1 X117.84 Y122.57 E0.9445
G1 X117.76 Y122.92 E0.9482
G1 X117.62 Y123.12 E0.9508
G1 X117.41 Y123.27 E0.9535
G1 X117.04 Y123.37 E0.9574
G1 X116.66 Y123.4 E0.9614
G1 X116.4 Y123.47 E0.9642
G1 X116.05 Y123.47 E0.9679
G1 X116.03 Y123.48 E0.968
G1 X116.02 Y124 E0.9734
G1 X115.93 Y124.08 E0.9747
G1 X115.92 Y124.43 E0.9783
G1 X115.83 Y124.52 E0.9796
G1 X115.83 Y124.57 E0.9801
;
; 'Wipe', 0.0 [RPM], 25.0 [mm/s]
G1 F15000
G1 X115.83 Y124.57 E0.9801
G1 F900
G1 E-0.0199
G1 F1500
G1 X115.83 Y124.52 E-0.0199
G1 X115.92 Y124.43 E-0.0199
G1 X115.93 Y124.08 E-0.0199
G1 X116.02 Y124 E-0.0199
G1 X116.03 Y123.48 E-0.0199
G1 X116.05 Y123.47 E-0.0199
G1 X116.4 Y123.47 E-0.0199
G1 X116.66 Y123.4 E-0.0199
G1 X117.28 Y123.32 E-0.0199
G1 X117.52 Y123.2 E-0.0199
G1 X117.7 Y123.03 E-0.0199
G1 X117.82 Y122.76 E-0.0199
G1 X117.84 Y122.57 E-0.0199
G1 X117.84 Y120.98 E-0.0199
;
; 'Perimeter', 12.5 [RPM], 25.0 [mm/s]
G1 F15000
G1 X135.44 Y112.84 E-0.0199
G1 F900
G1 E0.9801
G1 F1500
G1 X136.69 Y111.61 E0.9983
G1 X137.07 Y111.29 E1.0035
G1 X137.19 Y111.41 E1.0053
G1 X137.19 Y114 E1.0322
G1 X137.18 Y114.05 E1.0328
G1 X137.04 Y114.27 E1.0354
G1 X136.91 Y114.31 E1.0369
G1 X136.74 Y114.32 E1.0386
G1 X136.66 Y114.41 E1.0399
G1 X136.6 Y114.41 E1.0405
G1 X135.78 Y114.42 E1.049
G1 X135.7 Y114.51 E1.0503
G1 X135.34 Y114.51 E1.054
;
; 'Wipe', 0.0 [RPM], 25.0 [mm/s]
G1 F15000
G1 X135.34 Y114.51 E1.054
G1 F900
G1 E0.054
G1 F1500
G1 X135.7 Y114.51 E0.054
G1 X135.78 Y114.42 E0.054
G1 X136.6 Y114.41 E0.054
G1 X136.66 Y114.41 E0.054
G1 X136.74 Y114.32 E0.054
G1 X136.91 Y114.31 E0.054
G1 X137.04 Y114.27 E0.054
G1 X137.19 Y114 E0.054
G1 X137.19 Y113.82 E0.054
G1 X137.19 Y111.41 E0.054
G1 X137.07 Y111.29 E0.054
G1 X136.87 Y111.44 E0.054
;
; 'Loop', 12.5 [RPM], 25.0 [mm/s]
G1 F15000
G1 X135.45 Y112.85 E0.054
G1 F900
G1 E1.054
G1 F1500
G1 X136.68 Y111.67 E1.0717
G1 X136.68 Y113.8 E1.0937
G1 X136.67 Y113.89 E1.0948
G1 X136.56 Y114.14 E1.0975
G1 X136.54 Y114.3 E1.0993
G1 X136.46 Y114.39 E1.1005
G1 X135.77 Y114.4 E1.1076
G1 X135.68 Y114.49 E1.1089
G1 X135.33 Y114.5 E1.1126
;
; 'Wipe', 0.0 [RPM], 25.0 [mm/s]
G1 F15000
G1 X135.33 Y114.5 E1.1126
G1 F900
G1 E0.1126
G1 F1500
G1 X135.68 Y114.49 E0.1126
G1 X135.77 Y114.4 E0.1126
G1 X136.46 Y114.39 E0.1126
G1 X136.54 Y114.3 E0.1126
G1 X136.56 Y114.14 E0.1126
G1 X136.67 Y113.89 E0.1126
G1 X136.68 Y113.8 E0.1126
G1 X136.68 Y111.67 E0.1126
G1 X135.9 Y112.41 E0.1126
;
; 'Perimeter', 12.5 [RPM], 25.0 [mm/s]
G1 F15000
G1 X117.33 Y107.99 E0.1126
G1 F900
G1 E1.1126
G1 F1500
G1 X117.33 Y107.63 E1.1162
G1 X117.49 Y107.62 E1.1179
G1 X137.03 Y107.62 E1.321
G1 X137.19 Y107.63 E1.3227
G1 X137.19 Y110.52 E1.3527
G1 X137.1 Y110.61 E1.354
G1 X126.08 Y110.61 E1.4685
G1 X125.8 Y110.62 E1.4715
G1 X125.68 Y110.68 E1.4728
G1 X125.61 Y110.97 E1.4759
G1 X125.61 Y111.08 E1.4771
G1 X125.61 Y114.26 E1.5102
G1 X125.63 Y114.35 E1.511
G1 X125.48 Y114.37 E1.5126
G1 X125.3 Y114.37 E1.5145
G1 X125.19 Y114.44 E1.5158
G1 X125.13 Y114.55 E1.5172
G1 X125.13 Y114.75 E1.5193
G1 X125.19 Y114.86 E1.5206
G1 X125.33 Y114.93 E1.5222
G1 X125.49 Y114.91 E1.5238
G1 X125.59 Y114.84 E1.5252
G1 X125.66 Y114.73 E1.5265
G1 X125.68 Y114.57 E1.5282
G1 X125.83 Y114.58 E1.5297
G1 X125.86 Y114.72 E1.5312
G1 X125.87 Y114.89 E1.533
G1 X125.96 Y114.97 E1.5343
G1 X125.96 Y115.03 E1.5349
G1 X125.87 Y115.11 E1.5362
G1 X125.86 Y115.28 E1.538
G1 X125.83 Y115.42 E1.5395
G1 X125.68 Y115.43 E1.5409
G1 X125.66 Y115.27 E1.5426
G1 X125.6 Y115.16 E1.5439
G1 X125.49 Y115.09 E1.5452
G1 X125.3 Y115.07 E1.5472
G1 X125.19 Y115.14 E1.5485
G1 X125.12 Y115.25 E1.5499
G1 X125.12 Y115.46 E1.552
G1 X125.19 Y115.57 E1.5533
G1 X125.3 Y115.63 E1.5547
G1 X125.63 Y115.65 E1.5582
G1 X125.61 Y115.74 E1.559
G1 X125.61 Y118.92 E1.5921
G1 X125.63 Y119.2 E1.595
G1 X125.69 Y119.31 E1.5964
G1 X125.9 Y119.38 E1.5986
G1 X125.97 Y119.38 E1.5994
G1 X137.11 Y119.38 E1.7152
G1 X137.19 Y119.48 E1.7165
G1 X137.19 Y122.54 E1.7484
G1 X137.26 Y122.77 E1.7508
G1 X137.59 Y122.97 E1.7548
G1 X137.8 Y122.98 E1.7571
G1 X137.88 Y123.03 E1.758
G1 X137.9 Y123.37 E1.7615
G1 X137.99 Y123.45 E1.7628
G1 X137.99 Y123.8 E1.7664
G1 X138.08 Y123.89 E1.7677
G1 X138.08 Y124.24 E1.7714
G1 X138.17 Y124.33 E1.7727
G1 X138.17 Y124.58 E1.7753
;
; 'Solid', 12.5 [RPM], 25.0 [mm/s]
G1 F15000
G1 X136.18 Y123.67 E1.7753
G1 F1500
G1 X136.45 Y123.39 E1.7793
G1 X136.23 Y122.92 E1.7848
G1 X135.51 Y123.63 E1.7953
G1 X134.81 Y123.63 E1.8026
G1 X136.17 Y122.26 E1.8226
G1 X136.17 Y121.56 E1.83
G1 X134.1 Y123.63 E1.8604
G1 X133.39 Y123.63 E1.8678
G1 X136.19 Y120.83 E1.9089
G1 X135.94 Y120.38 E1.9143
G1 X132.69 Y123.63 E1.9621
G1 X131.98 Y123.63 E1.9694
G1 X135.21 Y120.4 E2.0169
G1 X134.5 Y120.4 E2.0243
G1 X131.27 Y123.63 E2.0718
G1 X130.56 Y123.63 E2.0791
G1 X133.8 Y120.4 E2.1266
G1 X133.09 Y120.4 E2.134
G1 X129.86 Y123.63 E2.1814
G1 X129.15 Y123.63 E2.1888
G1 X132.38 Y120.4 E2.2363
G1 X131.67 Y120.4 E2.2436
G1 X128.44 Y123.63 E2.2911
G1 X127.74 Y123.63 E2.2985
G1 X130.97 Y120.4 E2.346
G1 X130.26 Y120.4 E2.3533
G1 X127.03 Y123.63 E2.4008
G1 X126.32 Y123.63 E2.4082
G1 X129.55 Y120.4 E2.4557
G1 X128.85 Y120.4 E2.463
G1 X125.61 Y123.63 E2.5105
G1 X124.91 Y123.63 E2.5179
G1 X128.14 Y120.4 E2.5653
G1 X127.43 Y120.4 E2.5727
G1 X124.2 Y123.63 E2.6202
G1 X123.49 Y123.63 E2.6275
G1 X126.72 Y120.4 E2.675
G1 X126.02 Y120.4 E2.6824
G1 X122.79 Y123.63 E2.7299
G1 X122.08 Y123.63 E2.7372
G1 X125.41 Y120.3 E2.7861
G1 X124.97 Y120.03 E2.7915
G1 X121.37 Y123.63 E2.8444
G1 X120.67 Y123.63 E2.8517
G1 X124.69 Y119.61 E2.9109
G1 X124.6 Y118.98 E2.9174
G1 X119.96 Y123.63 E2.9856
G1 X119.25 Y123.63 E2.993
G1 X124.59 Y118.29 E3.0715
G1 X124.59 Y117.58 E3.0789
G1 X118.53 Y123.64 E3.1679
G1 X117.94 Y123.52 E3.1742
G1 X124.61 Y116.86 E3.2721
G1 X124.46 Y116.29 E3.2782
G1 X118.35 Y122.41 E3.3681
G1 X118.35 Y121.7 E3.3755
G1 X124.18 Y115.87 E3.4612
G1 X124.14 Y115.21 E3.4681
G1 X118.35 Y120.99 E3.5532
G1 X118.35 Y120.29 E3.5605
G1 X124.08 Y114.56 E3.6447
G1 X124.53 Y113.4 E3.6577
G1 X118.35 Y119.58 E3.7485
G1 X118.35 Y118.87 E3.7558
G1 X124.59 Y112.63 E3.8476
G1 X124.59 Y111.92 E3.855
G1 X118.35 Y118.16 E3.9467
G1 X118.35 Y117.46 E3.9541
G1 X124.56 Y111.24 E4.0454
G1 X124.8 Y110.3 E4.0556
G1 X118.35 Y116.75 E4.1504
G1 X118.35 Y116.04 E4.1578
G1 X125.76 Y108.64 E4.2667
G1 X125.05 Y108.64 E4.274
G1 X118.35 Y115.34 E4.3725
G1 X118.35 Y114.63 E4.3798
G1 X124.34 Y108.64 E4.4679
G1 X123.64 Y108.64 E4.4753
G1 X118.35 Y113.92 E4.553
G1 X118.35 Y113.21 E4.5603
G1 X122.93 Y108.64 E4.6276
G1 X122.22 Y108.64 E4.635
G1 X118.35 Y112.51 E4.6919
G1 X118.35 Y111.8 E4.6992
G1 X121.51 Y108.64 E4.7457
G1 X120.81 Y108.64 E4.7531
G1 X118.35 Y111.09 E4.7892
G1 X118.35 Y110.39 E4.7966
G1 X120.1 Y108.64 E4.8223
G1 X119.39 Y108.64 E4.8296
G1 X118.35 Y109.68 E4.845
G1 X118.35 Y108.97 E4.8523
G1 X118.71 Y108.61 E4.8576
;
; 'Solid', 12.5 [RPM], 25.0 [mm/s]
G1 F15000
G1 X125.19 Y109.91 E4.8576
G1 F1500
G1 X126.46 Y108.64 E4.8763
G1 X127.17 Y108.64 E4.8836
G1 X126.21 Y109.6 E4.8977
G1 X126.92 Y109.6 E4.9051
G1 X127.88 Y108.64 E4.9191
G1 X128.59 Y108.64 E4.9265
G1 X127.63 Y109.6 E4.9406
G1 X128.33 Y109.6 E4.9479
G1 X129.29 Y108.64 E4.962
G1 X130 Y108.64 E4.9694
G1 X129.04 Y109.6 E4.9835
G1 X129.75 Y109.6 E4.9908
G1 X130.71 Y108.64 E5.0049
G1 X131.41 Y108.64 E5.0123
G1 X130.46 Y109.6 E5.0264
G1 X131.16 Y109.6 E5.0337
G1 X132.12 Y108.64 E5.0478
G1 X132.83 Y108.64 E5.0552
G1 X131.87 Y109.6 E5.0693
G1 X132.58 Y109.6 E5.0766
G1 X133.54 Y108.64 E5.0907
G1 X134.24 Y108.64 E5.0981
G1 X133.28 Y109.6 E5.1121
G1 X133.99 Y109.6 E5.1195
G1 X134.95 Y108.64 E5.1336
G1 X135.66 Y108.64 E5.1409
G1 X134.7 Y109.6 E5.155
G1 X135.4 Y109.6 E5.1624
G1 X136.25 Y108.75 E5.1747
;
; 'Wipe', 0.0 [RPM], 25.0 [mm/s]
G1 F15000
G1 X136.25 Y108.75 E5.1747
G1 F900
G1 E4.1747
G1 F1500
G1 X135.4 Y109.6 E4.1747
G1 X134.7 Y109.6 E4.1747
G1 X135.66 Y108.64 E4.1747
G1 X134.95 Y108.64 E4.1747
G1 X133.99 Y109.6 E4.1747
;
; 'Sparse Infill', 12.5 [RPM], 25.0 [mm/s]
G1 F15000
G1 X133.54 Y112.87 E4.1747
G1 F900
G1 E5.1747
G1 F1500
G1 X133.54 Y113.3 E5.1792
G1 X133.5 Y113.55 E5.1818
G1 X133.39 Y113.73 E5.184
G1 X132.26 Y114.86 E5.2006
G1 X132.09 Y114.96 E5.2027
G1 X131.84 Y115 E5.2053
G1 X129.58 Y115 E5.2289
G1 X129.33 Y115.04 E5.2315
G1 X129.15 Y115.14 E5.2336
G1 X128.02 Y116.27 E5.2502
G1 X127.91 Y116.45 E5.2524
G1 X127.88 Y116.7 E5.255
G1 X127.88 Y117.13 E5.2595
;
; 'Wipe', 0.0 [RPM], 25.0 [mm/s]
G1 F15000
G1 X127.88 Y117.13 E5.2595
G1 F900
G1 E4.2595
G1 F1500
G1 X127.88 Y116.7 E4.2595
G1 X127.91 Y116.45 E4.2595
G1 X128.02 Y116.27 E4.2595
G1 X129.15 Y115.14 E4.2595
G1 X129.33 Y115.04 E4.2595
G1 X129.58 Y115 E4.2595
G1 X131.7 Y115 E4.2595
;
; 'Sparse Infill', 12.5 [RPM], 25.0 [mm/s]
G1 F15000
G1 X127.88 Y113.59 E4.2595
G1 F900
G1 E5.2595
G1 F1500
G1 X127.88 Y113.52 E5.2602
G1 X127.88 Y112.87 E5.2669
G1 X128.26 Y113.15 E5.2718
G1 X133.54 Y117.13 E5.3405
G1 X133.54 Y116.7 E5.345
G1 X133.57 Y116.45 E5.3476
G1 X133.68 Y116.27 E5.3497
G1 X134.95 Y115 E5.3684
;
; 'Wipe', 0.0 [RPM], 25.0 [mm/s]
G1 F15000
G1 X134.95 Y115 E5.3684
G1 F900
G1 E4.3684
G1 F1500
G1 X133.68 Y116.27 E4.3684
G1 X133.57 Y116.45 E4.3684
G1 X133.54 Y116.7 E4.3684
G1 X133.54 Y117.13 E4.3684
G1 X131.65 Y115.71 E4.3684
;
; 'Sparse Infill', 12.5 [RPM], 25.0 [mm/s]
G1 F15000
G1 X133.54 Y124.19 E4.3684
G1 F900
G1 E5.3684
G1 F1500
G1 X133.54 Y124.62 E5.3729
G1 X133.5 Y124.86 E5.3755
G1 X133.39 Y125.04 E5.3777
G1 X132.26 Y126.17 E5.3943
G1 X132.09 Y126.28 E5.3964
G1 X131.84 Y126.31 E5.399
G1 X129.58 Y126.31 E5.4225
G1 X129.33 Y126.35 E5.4251
G1 X129.15 Y126.46 E5.4273
G1 X128.02 Y127.59 E5.4439
G1 X127.91 Y127.76 E5.4461
G1 X127.88 Y128.01 E5.4487
G1 X127.88 Y130.27 E5.4722
G1 X127.84 Y130.52 E5.4748
G1 X127.74 Y130.7 E5.4769
G1 X126.61 Y131.83 E5.4936
G1 X126.43 Y131.94 E5.4957
G1 X126.18 Y131.97 E5.4983
G1 X123.92 Y131.97 E5.5218
G1 X123.67 Y132.01 E5.5244
G1 X123.49 Y132.11 E5.5266
G1 X122.58 Y133.03 E5.5401
G1 X121.16 Y131.62 E5.5609
G1 X122.08 Y130.7 E5.5744
G1 X122.19 Y130.52 E5.5765
G1 X122.22 Y130.27 E5.5791
G1 X122.22 Y128.01 E5.6026
G1 X122.26 Y127.76 E5.6052
G1 X122.36 Y127.59 E5.6074
G1 X123.49 Y126.46 E5.624
G1 X123.67 Y126.35 E5.6261
G1 X123.92 Y126.31 E5.6287
G1 X126.18 Y126.31 E5.6523
G1 X126.43 Y126.28 E5.6549
G1 X126.61 Y126.17 E5.657
G1 X127.74 Y125.04 E5.6736
G1 X127.84 Y124.86 E5.6758
G1 X127.88 Y124.62 E5.6784
G1 X127.88 Y124.19 E5.6828
G1 X122.22 Y124.19 E5.7416
G1 X122.22 Y124.62 E5.7461
G1 X122.19 Y124.86 E5.7487
G1 X122.08 Y125.04 E5.7509
G1 X120.95 Y126.17 E5.7675
G1 X120.77 Y126.28 E5.7696
G1 X120.52 Y126.31 E5.7722
G1 X118.26 Y126.31 E5.7958
G1 X118.01 Y126.35 E5.7984
G1 X117.84 Y126.46 E5.8005
G1 X116.92 Y127.37 E5.814
G1 X115.5 Y125.96 E5.8348
G1 X116.42 Y125.04 E5.8483
G1 X116.53 Y124.86 E5.8505
G1 X116.56 Y124.62 E5.8531
G1 X116.56 Y124.19 E5.8575
;
; 'Wipe', 0.0 [RPM], 25.0 [mm/s]
G1 F15000
G1 X116.56 Y124.19 E5.8575
G1 F900
G1 E4.8575
G1 F1500
G1 X116.56 Y124.62 E4.8575
G1 X116.53 Y124.86 E4.8575
G1 X116.42 Y125.04 E4.8575
G1 X115.5 Y125.96 E4.8575
G1 X116.92 Y127.37 E4.8575
G1 X117.63 Y126.67 E4.8575
;
; 'Sparse Infill', 12.5 [RPM], 25.0 [mm/s]
G1 F15000
G1 X126.82 Y137.27 E4.8575
G1 F900
G1 E5.8575
G1 F1500
G1 X127.74 Y136.35 E5.871
G1 X127.84 Y136.18 E5.8732
G1 X127.88 Y135.93 E5.8758
G1 X127.88 Y133.67 E5.8993
G1 X127.91 Y133.42 E5.9019
G1 X128.02 Y133.24 E5.904
G1 X129.15 Y132.11 E5.9207
G1 X129.33 Y132.01 E5.9228
G1 X129.58 Y131.97 E5.9254
G1 X131.84 Y131.97 E5.9489
G1 X132.09 Y131.94 E5.9515
G1 X132.26 Y131.83 E5.9537
G1 X133.39 Y130.7 E5.9703
G1 X133.5 Y130.52 E5.9725
G1 X133.54 Y130.27 E5.975
G1 X133.54 Y128.01 E5.9986
G1 X133.57 Y127.76 E6.0012
G1 X133.68 Y127.59 E6.0033
G1 X134.81 Y126.46 E6.0199
G1 X134.99 Y126.35 E6.0221
G1 X135.23 Y126.31 E6.0247
G1 X137.5 Y126.31 E6.0482
G1 X137.74 Y126.28 E6.0508
G1 X137.92 Y126.17 E6.0529
G1 X139.19 Y124.9 E6.0717
;
; 'Wipe', 0.0 [RPM], 25.0 [mm/s]
G1 F15000
G1 X139.19 Y124.9 E6.0717
G1 F900
G1 E5.0717
G1 F1500
G1 X137.92 Y126.17 E5.0717
G1 X137.74 Y126.28 E5.0717
G1 X137.5 Y126.31 E5.0717
G1 X135.23 Y126.31 E5.0717
G1 X134.99 Y126.35 E5.0717
G1 X134.81 Y126.46 E5.0717
G1 X134.74 Y126.53 E5.0717
G1 F210
G1 X134.74 Y126.53 Z0.1 E5.0717
; END_LAYER_OBJECT z=0.05
; Reset extruder pos
G92 E0
; BEGIN_LAYER_OBJECT z=0.10
;
; *** Warming Extruder 1 to 160 C ***
M104 S160
G92 E0
;
; *** Cooling...speed multiplier is 0.692090 ***
; fan on
M106
;
; 'Perimeter', 38.8 [RPM], 77.9 [mm/s]
G1 F15000
G1 X115.76 Y123.03 E0
G1 F900
G1 E1
G1 F4671.6
G1 X115.83 Y122.98 E1.0009
G1 X116.22 Y122.97 E1.005
G1 X116.34 Y122.9 E1.0064
G1 X116.6 Y122.81 E1.0092
G1 X116.82 Y122.88 E1.0116
G1 X116.84 Y122.88 E1.0119
G1 X137.53 Y122.88 E1.2268
G1 X137.65 Y122.9 E1.2282
G1 X137.76 Y122.97 E1.2295
G1 X137.98 Y122.98 E1.2318
G1 X138.05 Y123.03 E1.2327
G1 X138.07 Y123.37 E1.2362
G1 X138.16 Y123.45 E1.2375
G1 X138.17 Y123.8 E1.2411
G1 X138.26 Y123.89 E1.2424
G1 X138.26 Y124.24 E1.2461
G1 X138.35 Y124.33 E1.2474
G1 X138.35 Y124.58 E1.25
;
; 'Wipe', 0.0 [RPM], 46.7 [mm/s]
G1 F10381.3
G1 X138.35 Y124.58 E1.25
G1 F900
G1 E0.25
G1 F2803
G1 X138.35 Y124.33 E0.25
G1 X138.26 Y124.24 E0.25
G1 X138.26 Y123.89 E0.25
G1 X138.17 Y123.8 E0.25
G1 X138.16 Y123.45 E0.25
G1 X138.07 Y123.37 E0.25
G1 X138.05 Y123.03 E0.25
G1 X137.98 Y122.98 E0.25
G1 X137.76 Y122.97 E0.25
G1 X137.65 Y122.9 E0.25
G1 X137.53 Y122.88 E0.25
G1 X134.7 Y122.88 E0.25
;
; 'Perimeter', 38.8 [RPM], 77.9 [mm/s]
G1 F10381.3
G1 X137.19 Y122.02 E0.25
G1 F900
G1 E1.25
G1 F4671.6
G1 X137.33 Y122.33 E1.2536
G1 X117.35 Y122.33 E1.4612
G1 X117.17 Y122.32 E1.4631
G1 X116.97 Y122.19 E1.4655
G1 X116.78 Y121.94 E1.4689
G1 X116.78 Y107.71 E1.6167
G1 X116.88 Y107.61 E1.6181
G1 X117.06 Y107.61 E1.62
G1 X137.21 Y107.61 E1.8295
G1 X137.35 Y107.65 E1.831
G1 X137.35 Y110.51 E1.8607
G1 X137.28 Y110.61 E1.862
G1 X126.08 Y110.61 E1.9785
G1 X125.8 Y110.62 E1.9814
G1 X125.68 Y110.68 E1.9827
G1 X125.61 Y110.97 E1.9858
G1 X125.61 Y111.08 E1.987
G1 X125.61 Y113.97 E2.017
G1 X125.55 Y113.97 E2.0176
G1 X125.42 Y113.92 E2.019
G1 X125.21 Y113.92 E2.0212
G1 X125.1 Y113.99 E2.0226
G1 X125.03 Y114.14 E2.0244
G1 X125.03 Y114.45 E2.0276
G1 X125.02 Y115.86 E2.0422
G1 X125.09 Y116.02 E2.044
G1 X125.21 Y116.08 E2.0454
G1 X125.42 Y116.08 E2.0476
G1 X125.55 Y116.03 E2.049
G1 X125.61 Y116.03 E2.0497
G1 X125.61 Y118.92 E2.0797
G1 X125.63 Y119.2 E2.0826
G1 X125.69 Y119.31 E2.0839
G1 X125.9 Y119.38 E2.0862
G1 X125.97 Y119.38 E2.087
G1 X137.03 Y119.38 E2.2019
G1 X137.19 Y119.48 E2.2038
G1 X137.35 Y119.7 E2.2067
G1 X137.35 Y122.18 E2.2324
G1 X137.33 Y122.33 E2.234
G1 X137.04 Y122.14 E2.2376
;
; 'Loop', 27.9 [RPM], 55.8 [mm/s]
G1 F10381.3
G1 X136.82 Y121.82 E2.2376
G1 F3350.3
G1 X117.34 Y121.82 E2.4401
G1 X117.29 Y121.7 E2.4415
G1 X117.29 Y108.12 E2.5827
G1 X117.46 Y108.11 E2.5844
G1 X136.71 Y108.11 E2.7845
G1 X136.84 Y108.16 E2.786
G1 X136.84 Y110 E2.8052
G1 X136.77 Y110.11 E2.8065
G1 X126.05 Y110.11 E2.9179
G1 X125.67 Y110.14 E2.922
G1 X125.43 Y110.25 E2.9247
G1 X125.18 Y110.54 E2.9287
G1 X125.11 Y110.99 E2.9334
G1 X125.1 Y113.29 E2.9573
G1 X125.08 Y113.44 E2.9589
G1 X124.84 Y113.55 E2.9617
G1 X124.66 Y113.73 E2.9642
G1 X124.55 Y113.97 E2.967
G1 X124.52 Y114.12 E2.9686
G1 X124.53 Y115.54 E2.9834
G1 X124.52 Y115.88 E2.987
G1 X124.59 Y116.16 E2.99
G1 X124.74 Y116.37 E2.9926
G1 X124.95 Y116.52 E2.9952
G1 X125.08 Y116.56 E2.9967
G1 X125.1 Y116.71 E2.9982
G1 X125.11 Y119.01 E3.0221
G1 X125.14 Y119.33 E3.0254
G1 X125.26 Y119.57 E3.0282
G1 X125.43 Y119.74 E3.0308
G1 X125.67 Y119.86 E3.0335
G1 X126 Y119.89 E3.0369
G1 X136.78 Y119.89 E3.149
G1 X136.84 Y120 E3.1504
G1 X136.84 Y121.67 E3.1677
G1 X136.82 Y121.82 E3.1693
;
; 'Wipe', 0.0 [RPM], 46.7 [mm/s]
G1 F10381.3
G1 X136.82 Y121.82 E3.1693
G1 F900
G1 E2.1693
G1 F2803
G1 X136.84 Y121.67 E2.1693
G1 X136.84 Y120 E2.1693
G1 X136.78 Y119.89 E2.1693
G1 X133.65 Y119.89 E2.1693
;
; 'Perimeter', 38.8 [RPM], 77.9 [mm/s]
G1 F10381.3
G1 X136.69 Y111.67 E2.1693
G1 F900
G1 E3.1693
G1 F4671.6
G1 X136.69 Y111.79 E3.1706
G1 X135.62 Y112.84 E3.1862
;
; 'Wipe', 0.0 [RPM], 46.7 [mm/s]
G1 F10381.3
G1 X135.62 Y112.84 E3.1862
G1 F900
G1 E2.1862
G1 F2803
G1 X136.69 Y111.79 E2.1862
G1 X136.69 Y111.67 E2.1862
;
; 'Perimeter', 38.8 [RPM], 77.9 [mm/s]
G1 F10381.3
G1 X136.69 Y111.61 E2.1862
G1 F900
G1 E3.1862
G1 F4671.6
G1 X137.07 Y111.29 E3.1914
G1 X137.35 Y111.36 E3.1944
G1 X137.35 Y113.87 E3.2205
G1 X137.3 Y113.99 E3.2219
G1 X137.18 Y114.05 E3.2232
G1 X137.04 Y114.27 E3.2259
G1 X136.91 Y114.31 E3.2273
G1 X136.74 Y114.32 E3.2291
G1 X136.66 Y114.41 E3.2304
G1 X136.6 Y114.41 E3.2309
G1 X135.78 Y114.42 E3.2395
G1 X135.7 Y114.51 E3.2408
G1 X135.34 Y114.51 E3.2444
;
; 'Wipe', 0.0 [RPM], 46.7 [mm/s]
G1 F10381.3
G1 X135.34 Y114.51 E3.2444
G1 F900
G1 E2.2444
G1 F2803
G1 X135.7 Y114.51 E2.2444
G1 X135.78 Y114.42 E2.2444
G1 X136.6 Y114.41 E2.2444
G1 X136.66 Y114.41 E2.2444
G1 X136.74 Y114.32 E2.2444
G1 X136.91 Y114.31 E2.2444
G1 X137.04 Y114.27 E2.2444
G1 X137.18 Y114.05 E2.2444
G1 X137.3 Y113.99 E2.2444
G1 X137.35 Y113.87 E2.2444
G1 X137.35 Y111.36 E2.2444
G1 X137.07 Y111.29 E2.2444
;
; 'Perimeter', 38.8 [RPM], 77.9 [mm/s]
G1 F10381.3
G1 X125.74 Y115.08 E2.2444
G1 F900
G1 E3.2444
G1 F4671.6
G1 X125.82 Y115.42 E3.248
G1 X125.72 Y115.39 E3.2491
G1 X125.62 Y115.14 E3.2519
G1 X125.62 Y114.86 E3.2548
G1 X125.72 Y114.61 E3.2577
G1 X125.82 Y114.58 E3.2588
G1 X125.86 Y114.72 E3.2602
G1 X125.87 Y114.89 E3.2621
G1 X125.96 Y114.98 E3.2634
G1 X125.96 Y115.02 E3.2639
G1 X125.87 Y115.11 E3.2652
G1 X125.86 Y115.28 E3.267
G1 X125.82 Y115.42 E3.2684
G1 X125.58 Y115.16 E3.272
;
; 'Wipe', 0.0 [RPM], 46.7 [mm/s]
G1 F10381.3
G1 X125.58 Y115.16 E3.272
G1 F900
G1 E2.272
G1 F2803
G1 X125.82 Y115.42 E2.272
G1 X125.86 Y115.28 E2.272
G1 X125.87 Y115.11 E2.272
G1 X125.96 Y115.02 E2.272
G1 X125.96 Y114.98 E2.272
G1 X125.87 Y114.89 E2.272
G1 X125.86 Y114.72 E2.272
G1 X125.82 Y114.58 E2.272
G1 X125.72 Y114.61 E2.272
G1 X125.62 Y114.86 E2.272
G1 X125.62 Y115.14 E2.272
G1 X125.72 Y115.39 E2.272
G1 X125.82 Y115.42 E2.272
G1 X125.74 Y115.08 E2.272
;
; 'Perimeter', 38.8 [RPM], 77.9 [mm/s]
G1 F10381.3
G1 X115.76 Y123.05 E2.272
G1 F900
G1 E3.272
G1 F4671.6
G1 X115.75 Y123.2 E3.2736
G1 X115.65 Y123.28 E3.2749
G1 X115.65 Y123.45 E3.2767
G1 X115.56 Y123.54 E3.278
G1 X115.56 Y123.72 E3.2798
G1 X115.47 Y123.8 E3.2811
G1 X115.47 Y124.15 E3.2847
G1 X115.38 Y124.24 E3.286
G1 X115.38 Y124.42 E3.2879
G1 X115.29 Y124.51 E3.2892
G1 X115.29 Y124.58 E3.29
;
; 'Loop', 27.9 [RPM], 55.8 [mm/s]
G1 F10381.3
G1 X115.59 Y123.57 E3.29
G1 F3350.3
G1 X115.69 Y123.48 E3.2914
G1 X116.22 Y123.47 E3.2969
G1 X116.35 Y123.45 E3.2983
G1 X116.61 Y123.35 E3.3012
G1 X116.84 Y123.38 E3.3036
G1 X137.35 Y123.38 E3.5168
G1 X137.77 Y123.48 E3.5212
G1 X137.96 Y123.48 E3.5232
G1 X138.12 Y123.47 E3.5249
G1 X138.13 Y123.48 E3.525
G1 X138.15 Y123.82 E3.5286
G1 X138.24 Y123.91 E3.5299
G1 X138.24 Y124.26 E3.5335
G1 X138.33 Y124.34 E3.5348
G1 X138.33 Y124.57 E3.5371
;
; 'Loop', 27.9 [RPM], 55.8 [mm/s]
G1 F10381.3
G1 X115.59 Y123.58 E3.5371
G1 F3350.3
G1 X115.58 Y123.74 E3.5388
G1 X115.49 Y123.82 E3.5401
G1 X115.48 Y124.17 E3.5437
G1 X115.39 Y124.26 E3.545
G1 X115.39 Y124.43 E3.5468
G1 X115.3 Y124.52 E3.5481
G1 X115.3 Y124.57 E3.5487
;
; 'Wipe', 0.0 [RPM], 46.7 [mm/s]
G1 F10381.3
G1 X115.3 Y124.57 E3.5487
G1 F900
G1 E2.5487
G1 F2803
G1 X115.3 Y124.52 E2.5487
G1 X115.39 Y124.43 E2.5487
G1 X115.39 Y124.26 E2.5487
G1 X115.48 Y124.17 E2.5487
G1 X115.49 Y123.82 E2.5487
G1 X115.58 Y123.74 E2.5487
G1 X115.59 Y123.58 E2.5487
;
; 'Loop', 27.9 [RPM], 55.8 [mm/s]
G1 F10381.3
G1 X135.63 Y112.85 E2.5487
G1 F900
G1 E3.5487
G1 F3350.3
G1 X136.71 Y111.81 E3.5642
G1 X136.73 Y111.66 E3.5659
G1 X136.82 Y111.72 E3.567
G1 X136.84 Y111.87 E3.5685
G1 X136.84 Y113.54 E3.5859
G1 X136.83 Y113.7 E3.5876
G1 X136.61 Y114.01 E3.5915
G1 X136.54 Y114.3 E3.5946
G1 X136.46 Y114.39 E3.5959
G1 X135.77 Y114.4 E3.603
G1 X135.68 Y114.49 E3.6043
G1 X135.33 Y114.5 E3.608
;
; 'Wipe', 0.0 [RPM], 46.7 [mm/s]
G1 F10381.3
G1 X135.33 Y114.5 E3.608
G1 F900
G1 E2.608
G1 F2803
G1 X135.68 Y114.49 E2.608
G1 X135.77 Y114.4 E2.608
G1 X136.46 Y114.39 E2.608
G1 X136.54 Y114.3 E2.608
G1 X136.61 Y114.01 E2.608
G1 X136.83 Y113.7 E2.608
G1 X136.84 Y113.54 E2.608
G1 X136.84 Y111.87 E2.608
G1 X136.82 Y111.72 E2.608
G1 X136.73 Y111.66 E2.608
G1 X136.71 Y111.81 E2.608
G1 X136.08 Y112.41 E2.608
;
; 'Solid', 23.3 [RPM], 46.7 [mm/s]
G1 F10381.3
G1 X136.4 Y108.68 E2.608
G1 F900
G1 E3.608
G1 F2803
G1 X136.4 Y108.67 E3.6081
G1 X135.65 Y108.63 E3.6158
G1 X136.35 Y109.33 E3.6261
G1 X135.93 Y109.62 E3.6314
G1 X134.94 Y108.63 E3.6459
G1 X134.23 Y108.63 E3.6533
G1 X135.2 Y109.6 E3.6675
G1 X134.49 Y109.6 E3.6748
G1 X133.53 Y108.63 E3.6891
G1 X132.82 Y108.63 E3.6964
G1 X133.79 Y109.6 E3.7107
G1 X133.08 Y109.6 E3.718
G1 X132.11 Y108.63 E3.7322
G1 X131.41 Y108.63 E3.7396
G1 X132.37 Y109.6 E3.7538
G1 X131.67 Y109.6 E3.7612
G1 X130.7 Y108.63 E3.7754
G1 X129.99 Y108.63 E3.7827
G1 X130.96 Y109.6 E3.797
G1 X130.25 Y109.6 E3.8043
G1 X129.28 Y108.63 E3.8185
G1 X128.58 Y108.63 E3.8259
G1 X129.55 Y109.6 E3.8401
G1 X128.84 Y109.6 E3.8475
G1 X127.87 Y108.63 E3.8617
G1 X127.16 Y108.63 E3.869
G1 X128.13 Y109.6 E3.8833
G1 X127.42 Y109.6 E3.8906
G1 X126.46 Y108.63 E3.9048
G1 X125.75 Y108.63 E3.9122
G1 X126.72 Y109.6 E3.9264
G1 X126.01 Y109.6 E3.9338
G1 X125.04 Y108.63 E3.948
G1 X124.33 Y108.63 E3.9554
G1 X125.4 Y109.69 E3.971
G1 X124.97 Y109.97 E3.9763
G1 X123.63 Y108.63 E3.996
G1 X122.92 Y108.63 E4.0034
G1 X124.68 Y110.39 E4.0292
G1 X124.6 Y111.02 E4.0358
G1 X122.21 Y108.63 E4.0709
G1 X121.51 Y108.63 E4.0783
G1 X124.59 Y111.71 E4.1237
G1 X124.59 Y112.42 E4.131
G1 X120.8 Y108.63 E4.1868
G1 X120.09 Y108.63 E4.1941
G1 X124.56 Y113.1 E4.2599
G1 X124.22 Y113.47 E4.2651
G1 X119.38 Y108.63 E4.3362
G1 X118.68 Y108.63 E4.3435
G1 X124.02 Y113.97 E4.4221
G1 X124.02 Y114.67 E4.4294
G1 X117.96 Y108.61 E4.5185
G1 X117.78 Y109.15 E4.5244
G1 X124 Y115.37 E4.6158
G1 X124.09 Y116.16 E4.6241
G1 X117.8 Y109.87 E4.7166
G1 X117.8 Y110.58 E4.724
G1 X124.59 Y117.37 E4.8239
G1 X124.59 Y118.08 E4.8312
G1 X117.8 Y111.28 E4.9311
G1 X117.8 Y111.99 E4.9384
G1 X124.56 Y118.75 E5.0378
G1 X124.83 Y119.73 E5.0484
G1 X117.8 Y112.7 E5.1518
G1 X117.8 Y113.41 E5.1591
G1 X125.7 Y121.31 E5.2753
G1 X125 Y121.31 E5.2826
G1 X117.8 Y114.11 E5.3884
G1 X117.8 Y114.82 E5.3958
G1 X124.29 Y121.31 E5.4911
G1 X123.58 Y121.31 E5.4985
G1 X117.8 Y115.53 E5.5835
G1 X117.8 Y116.23 E5.5908
G1 X122.87 Y121.31 E5.6654
G1 X122.17 Y121.31 E5.6728
G1 X117.8 Y116.94 E5.737
G1 X117.8 Y117.65 E5.7443
G1 X121.46 Y121.31 E5.7981
G1 X120.75 Y121.31 E5.8055
G1 X117.8 Y118.36 E5.8489
G1 X117.8 Y119.06 E5.8563
G1 X120.05 Y121.31 E5.8893
G1 X119.34 Y121.31 E5.8966
G1 X117.8 Y119.77 E5.9192
G1 X117.8 Y120.48 E5.9266
G1 X118.63 Y121.31 E5.9388
G1 X117.97 Y121.36 E5.9457
;
; 'Solid', 23.3 [RPM], 46.7 [mm/s]
G1 F10381.3
G1 X125.16 Y120.06 E5.9457
G1 F2803
G1 X126.41 Y121.31 E5.9641
G1 X127.12 Y121.31 E5.9714
G1 X126.2 Y120.4 E5.9848
G1 X126.91 Y120.4 E5.9922
G1 X127.82 Y121.31 E6.0056
G1 X128.53 Y121.31 E6.013
G1 X127.62 Y120.4 E6.0264
G1 X128.33 Y120.4 E6.0337
G1 X129.24 Y121.31 E6.0471
G1 X129.95 Y121.31 E6.0545
G1 X129.03 Y120.4 E6.0679
G1 X129.74 Y120.4 E6.0752
G1 X130.65 Y121.31 E6.0887
G1 X131.36 Y121.31 E6.096
G1 X130.45 Y120.4 E6.1094
G1 X131.15 Y120.4 E6.1168
G1 X132.07 Y121.31 E6.1302
G1 X132.77 Y121.31 E6.1375
G1 X131.86 Y120.4 E6.1509
G1 X132.57 Y120.4 E6.1583
G1 X133.48 Y121.31 E6.1717
G1 X134.19 Y121.31 E6.1791
G1 X133.28 Y120.4 E6.1925
G1 X133.98 Y120.4 E6.1998
G1 X134.89 Y121.31 E6.2132
G1 X135.6 Y121.31 E6.2206
G1 X134.69 Y120.4 E6.234
G1 X135.4 Y120.4 E6.2413
G1 X136.31 Y121.31 E6.2548
G1 X136.33 Y120.63 E6.2619
G1 X136.12 Y120.41 E6.265
;
; 'Wipe', 0.0 [RPM], 46.7 [mm/s]
G1 F10381.3
G1 X136.12 Y120.41 E6.265
G1 F900
G1 E5.265
G1 F2803
G1 X136.33 Y120.63 E5.265
G1 X136.31 Y121.31 E5.265
G1 X135.4 Y120.4 E5.265
G1 X134.69 Y120.4 E5.265
G1 X135.6 Y121.31 E5.265
G1 X134.89 Y121.31 E5.265
G1 X133.98 Y120.4 E5.265
;
; 'Stacked Sparse Infill', 46.6 [RPM], 93.4 [mm/s]
G1 F10381.3
G1 X133.54 Y117.13 E5.265
G1 F900
G1 E6.265
G1 F5605.9
G1 X133.54 Y116.7 E6.2695
G1 X133.5 Y116.45 E6.2721
G1 X133.39 Y116.27 E6.2743
G1 X132.26 Y115.14 E6.2909
G1 X132.09 Y115.04 E6.293
G1 X131.84 Y115 E6.2956
G1 X129.58 Y115 E6.3192
G1 X129.33 Y114.96 E6.3218
G1 X129.15 Y114.86 E6.3239
G1 X128.02 Y113.73 E6.3405
G1 X127.91 Y113.55 E6.3427
G1 X127.88 Y113.3 E6.3453
G1 X127.88 Y112.87 E6.3498
;
; 'Wipe', 0.0 [RPM], 46.7 [mm/s]
G1 F10381.3
G1 X127.88 Y112.87 E6.3498
G1 F900
G1 E5.3498
G1 F2803
G1 X127.88 Y113.3 E5.3498
G1 X127.91 Y113.55 E5.3498
G1 X128.02 Y113.73 E5.3498
G1 X129.15 Y114.86 E5.3498
G1 X129.33 Y114.96 E5.3498
G1 X129.58 Y115 E5.3498
G1 X131.7 Y115 E5.3498
;
; 'Stacked Sparse Infill', 46.6 [RPM], 93.4 [mm/s]
G1 F10381.3
G1 X127.88 Y124.19 E5.3498
G1 F900
G1 E6.3498
G1 F5605.9
G1 X127.88 Y124.62 E6.3542
G1 X127.91 Y124.86 E6.3568
G1 X128.02 Y125.04 E6.359
G1 X129.15 Y126.17 E6.3756
G1 X129.33 Y126.28 E6.3777
G1 X129.58 Y126.31 E6.3803
G1 X131.84 Y126.31 E6.4039
G1 X132.09 Y126.35 E6.4065
G1 X132.26 Y126.46 E6.4086
G1 X133.39 Y127.59 E6.4252
G1 X133.5 Y127.76 E6.4274
G1 X133.54 Y128.01 E6.43
G1 X133.54 Y130.27 E6.4535
G1 X133.57 Y130.52 E6.4561
G1 X133.68 Y130.7 E6.4582
G1 X134.6 Y131.62 E6.4717
G1 X133.18 Y133.03 E6.4925
G1 X132.26 Y132.11 E6.506
G1 X132.09 Y132.01 E6.5082
G1 X131.84 Y131.97 E6.5108
G1 X129.58 Y131.97 E6.5343
G1 X129.33 Y131.94 E6.5369
G1 X129.15 Y131.83 E6.539
G1 X128.02 Y130.7 E6.5557
G1 X127.91 Y130.52 E6.5578
G1 X127.88 Y130.27 E6.5604
G1 X127.88 Y128.01 E6.5839
G1 X127.84 Y127.76 E6.5865
G1 X127.74 Y127.59 E6.5887
G1 X126.61 Y126.46 E6.6053
G1 X126.43 Y126.35 E6.6075
G1 X126.18 Y126.31 E6.6101
G1 X123.92 Y126.31 E6.6336
G1 X123.67 Y126.28 E6.6362
G1 X123.49 Y126.17 E6.6383
G1 X122.36 Y125.04 E6.6549
G1 X122.26 Y124.86 E6.6571
G1 X122.22 Y124.62 E6.6597
G1 X122.22 Y124.19 E6.6642
G1 X116.56 Y124.19 E6.723
G1 X116.56 Y124.62 E6.7274
G1 X116.6 Y124.86 E6.73
G1 X116.71 Y125.04 E6.7322
G1 X117.84 Y126.17 E6.7488
G1 X118.01 Y126.28 E6.751
G1 X118.26 Y126.31 E6.7536
G1 X120.52 Y126.31 E6.7771
G1 X120.77 Y126.35 E6.7797
G1 X120.95 Y126.46 E6.7818
G1 X122.08 Y127.59 E6.7984
G1 X122.19 Y127.76 E6.8006
G1 X122.22 Y128.01 E6.8032
G1 X122.22 Y130.27 E6.8267
G1 X122.26 Y130.52 E6.8293
G1 X122.36 Y130.7 E6.8314
G1 X123.49 Y131.83 E6.8481
G1 X123.67 Y131.94 E6.8502
G1 X123.92 Y131.97 E6.8528
G1 X126.18 Y131.97 E6.8763
G1 X126.43 Y132.01 E6.8789
G1 X126.61 Y132.11 E6.8811
G1 X127.74 Y133.24 E6.8977
G1 X127.84 Y133.42 E6.8999
G1 X127.88 Y133.67 E6.9024
G1 X127.88 Y135.93 E6.926
G1 X127.91 Y136.18 E6.9286
G1 X128.02 Y136.35 E6.9307
G1 X128.94 Y137.27 E6.9442
;
; 'Stacked Sparse Infill', 46.6 [RPM], 93.4 [mm/s]
G1 F10381.3
G1 X133.54 Y124.19 E6.9442
G1 F5605.9
G1 X133.54 Y124.62 E6.9487
G1 X133.57 Y124.86 E6.9513
G1 X133.68 Y125.04 E6.9534
G1 X134.81 Y126.17 E6.9701
G1 X134.99 Y126.28 E6.9722
G1 X135.23 Y126.31 E6.9748
G1 X137.5 Y126.31 E6.9983
G1 X137.74 Y126.35 E7.0009
G1 X137.92 Y126.46 E7.0031
G1 X138.84 Y127.37 E7.0166
G1 X140.25 Y125.96 E7.0374
G1 X139.19 Y124.9 E7.053
;
; 'Wipe', 0.0 [RPM], 46.7 [mm/s]
G1 F10381.3
G1 X139.19 Y124.9 E7.053
G1 F900
G1 E6.053
G1 F2803
G1 X140.25 Y125.96 E6.053
G1 X138.84 Y127.37 E6.053
G1 X137.92 Y126.46 E6.053
G1 X137.74 Y126.35 E6.053
;
; 'Stacked Sparse Infill', 46.6 [RPM], 93.4 [mm/s]
G1 F10381.3
G1 X134.95 Y115 E6.053
G1 F900
G1 E7.053
G1 F5605.9
G1 X133.68 Y113.73 E7.0717
G1 X133.57 Y113.55 E7.0738
G1 X133.54 Y113.3 E7.0764
G1 X133.54 Y112.87 E7.0809
;
; 'Wipe', 0.0 [RPM], 46.7 [mm/s]
G1 F10381.3
G1 X133.54 Y112.87 E7.0809
G1 F900
G1 E6.0809
G1 F2803
G1 X133.54 Y113.3 E6.0809
G1 X133.57 Y113.55 E6.0809
G1 X133.68 Y113.73 E6.0809
G1 X134.95 Y115 E6.0809
;
; 'Crown', 38.8 [RPM], 77.9 [mm/s]
G1 F10381.3
G1 X137.49 Y115.95 E6.0809
G1 F900
G1 E7.0809
G1 F4671.6
G1 X137.49 Y119 E7.1127
G1 X137.45 Y119.27 E7.1155
;
; 'Wipe', 0.0 [RPM], 46.7 [mm/s]
G1 F10381.3
G1 X137.45 Y119.27 E7.1155
G1 F900
G1 E6.1155
G1 F2803
G1 X137.49 Y119 E6.1155
G1 X137.49 Y115.95 E6.1155
; fan off
M107
G1 F210
G1 X137.49 Y115.95 Z0.15 E6.1155
; END_LAYER_OBJECT z=0.10
; Reset extruder pos
G92 E0
; BEGIN_LAYER_OBJECT z=0.15
; *** Cooling...speed multiplier is 0.707926 ***
; fan on
M106
;
; 'Perimeter', 39.7 [RPM], 79.6 [mm/s]
G1 F15000
G1 X115.76 Y123.03 E0
G1 F900
G1 E1
G1 F4778.5
G1 X115.83 Y122.98 E1.001
G1 X116.05 Y122.97 E1.0032
G1 X116.16 Y122.9 E1.0045
G1 X116.29 Y122.88 E1.0059
G1 X137.7 Y122.88 E1.2285
G1 X137.83 Y122.91 E1.2298
G1 X137.94 Y122.97 E1.2311
G1 X138.16 Y122.98 E1.2334
G1 X138.23 Y123.03 E1.2343
G1 X138.25 Y123.37 E1.2378
G1 X138.34 Y123.45 E1.2391
G1 X138.34 Y123.8 E1.2427
G1 X138.43 Y123.89 E1.244
G1 X138.43 Y124.07 E1.2459
G1 X138.52 Y124.15 E1.2472
G1 X138.52 Y124.51 E1.2508
G1 X138.61 Y124.6 E1.2521
;
; 'Wipe', 0.0 [RPM], 47.8 [mm/s]
G1 F10618.9
G1 X138.61 Y124.6 E1.2521
G1 F900
G1 E0.2521
G1 F2867.1
G1 X138.52 Y124.51 E0.2521
G1 X138.52 Y124.15 E0.2521
G1 X138.43 Y124.07 E0.2521
G1 X138.43 Y123.89 E0.2521
G1 X138.34 Y123.8 E0.2521
G1 X138.34 Y123.45 E0.2521
G1 X138.25 Y123.37 E0.2521
G1 X138.23 Y123.03 E0.2521
G1 X138.16 Y122.98 E0.2521
G1 X137.94 Y122.97 E0.2521
G1 X137.83 Y122.91 E0.2521
G1 X137.7 Y122.88 E0.2521
G1 X134.87 Y122.88 E0.2521
;
; 'Perimeter', 39.7 [RPM], 79.6 [mm/s]
G1 F10618.9
G1 X137.26 Y121.75 E0.2521
G1 F900
G1 E1.2521
G1 F4778.5
G1 X137.37 Y122.02 E1.2551
G1 X137.1 Y122.22 E1.2587
G1 X117.3 Y122.22 E1.4644
G1 X117.25 Y122.22 E1.465
G1 X117 Y122.33 E1.4678
G1 X116.5 Y122.32 E1.4731
G1 X116.46 Y122.18 E1.4746
G1 X116.46 Y107.65 E1.6256
G1 X116.6 Y107.61 E1.6271
G1 X137.03 Y107.61 E1.8395
G1 X137.11 Y107.72 E1.8408
G1 X137.1 Y110.61 E1.8709
G1 X126.08 Y110.61 E1.9855
G1 X125.8 Y110.62 E1.9885
G1 X125.68 Y110.68 E1.9898
G1 X125.61 Y110.97 E1.9928
G1 X125.61 Y111.08 E1.994
G1 X125.61 Y113.79 E2.0222
G1 X125.56 Y113.92 E2.0236
G1 X125.24 Y113.93 E2.027
G1 X125.11 Y114 E2.0286
G1 X125.04 Y114.13 E2.0301
G1 X125.05 Y114.47 E2.0336
G1 X125.04 Y115.87 E2.0482
G1 X125.1 Y116.01 E2.0498
G1 X125.22 Y116.07 E2.0512
G1 X125.56 Y116.08 E2.0548
G1 X125.61 Y116.21 E2.0562
G1 X125.61 Y118.92 E2.0844
G1 X125.63 Y119.2 E2.0872
G1 X125.69 Y119.31 E2.0886
G1 X125.9 Y119.38 E2.0908
G1 X125.97 Y119.38 E2.0916
G1 X137.21 Y119.38 E2.2084
G1 X137.37 Y119.48 E2.2104
G1 X137.51 Y119.68 E2.213
G1 X137.51 Y121.81 E2.235
G1 X137.37 Y122.02 E2.2377
G1 X137.09 Y121.94 E2.2407
;
; 'Loop', 28.5 [RPM], 57.1 [mm/s]
G1 F10618.9
G1 X137 Y121.65 E2.2407
G1 F3426.9
G1 X136.89 Y121.72 E2.242
G1 X117.45 Y121.72 E2.4441
G1 X117.23 Y121.58 E2.4468
G1 X117.06 Y121.4 E2.4494
G1 X116.97 Y121.32 E2.4507
G1 X116.97 Y108.15 E2.5875
G1 X117.1 Y108.11 E2.589
G1 X136.53 Y108.11 E2.7909
G1 X136.6 Y108.22 E2.7922
G1 X136.6 Y110.11 E2.8118
G1 X126.05 Y110.11 E2.9214
G1 X125.67 Y110.14 E2.9255
G1 X125.43 Y110.25 E2.9282
G1 X125.18 Y110.54 E2.9321
G1 X125.11 Y110.99 E2.9369
G1 X125.1 Y113.29 E2.9608
G1 X125.09 Y113.45 E2.9625
G1 X124.85 Y113.56 E2.9652
G1 X124.67 Y113.74 E2.9678
G1 X124.56 Y113.98 E2.9706
G1 X124.53 Y114.13 E2.9722
G1 X124.53 Y115.87 E2.9903
G1 X124.6 Y116.15 E2.9933
G1 X124.75 Y116.36 E2.996
G1 X124.96 Y116.51 E2.9986
G1 X125.09 Y116.55 E3
G1 X125.1 Y116.71 E3.0017
G1 X125.11 Y119.01 E3.0256
G1 X125.14 Y119.33 E3.0289
G1 X125.26 Y119.57 E3.0316
G1 X125.43 Y119.74 E3.0342
G1 X125.67 Y119.86 E3.037
G1 X126 Y119.89 E3.0404
G1 X136.96 Y119.89 E3.1543
G1 X137 Y120.02 E3.1558
G1 X137 Y121.65 E3.1727
;
; 'Wipe', 0.0 [RPM], 47.8 [mm/s]
G1 F10618.9
G1 X137 Y121.65 E3.1727
G1 F900
G1 E2.1727
G1 F2867.1
G1 X137 Y120.02 E2.1727
G1 X136.96 Y119.89 E2.1727
G1 X133.65 Y119.89 E2.1727
;
; 'Perimeter', 39.7 [RPM], 79.6 [mm/s]
G1 F10618.9
G1 X125.74 Y115.08 E2.1727
G1 F900
G1 E3.1727
G1 F4778.5
G1 X125.82 Y115.42 E3.1764
G1 X125.72 Y115.39 E3.1774
G1 X125.62 Y115.14 E3.1802
G1 X125.62 Y114.86 E3.1831
G1 X125.72 Y114.61 E3.186
G1 X125.82 Y114.58 E3.1871
G1 X125.86 Y114.72 E3.1886
G1 X125.87 Y114.89 E3.1904
G1 X125.96 Y114.98 E3.1917
G1 X125.96 Y115.02 E3.1922
G1 X125.87 Y115.11 E3.1935
G1 X125.86 Y115.28 E3.1953
G1 X125.82 Y115.42 E3.1967
G1 X125.58 Y115.16 E3.2004
;
; 'Wipe', 0.0 [RPM], 47.8 [mm/s]
G1 F10618.9
G1 X125.58 Y115.16 E3.2004
G1 F900
G1 E2.2004
G1 F2867.1
G1 X125.82 Y115.42 E2.2004
G1 X125.86 Y115.28 E2.2004
G1 X125.87 Y115.11 E2.2004
G1 X125.96 Y115.02 E2.2004
G1 X125.96 Y114.98 E2.2004
G1 X125.87 Y114.89 E2.2004
G1 X125.86 Y114.72 E2.2004
G1 X125.82 Y114.58 E2.2004
G1 X125.72 Y114.61 E2.2004
G1 X125.62 Y114.86 E2.2004
G1 X125.62 Y115.14 E2.2004
G1 X125.72 Y115.39 E2.2004
G1 X125.82 Y115.42 E2.2004
G1 X125.74 Y115.08 E2.2004
;
; 'Perimeter', 39.7 [RPM], 79.6 [mm/s]
G1 F10618.9
G1 X115.76 Y123.05 E2.2004
G1 F900
G1 E3.2004
G1 F4778.5
G1 X115.74 Y123.37 E3.2037
G1 X115.65 Y123.45 E3.205
G1 X115.64 Y123.98 E3.2104
G1 X115.56 Y124.07 E3.2117
G1 X115.55 Y124.42 E3.2154
G1 X115.47 Y124.51 E3.2167
G1 X115.47 Y124.58 E3.2175
;
; 'Loop', 28.5 [RPM], 57.1 [mm/s]
G1 F10618.9
G1 X115.68 Y123.48 E3.2175
G1 F3426.9
G1 X115.69 Y123.47 E3.2176
G1 X116.05 Y123.47 E3.2213
G1 X116.46 Y123.38 E3.2258
G1 X136.09 Y123.38 E3.4297
G1 X137.53 Y123.38 E3.4447
G1 X137.95 Y123.48 E3.4491
G1 X138.13 Y123.48 E3.4511
G1 X138.3 Y123.47 E3.4528
G1 X138.31 Y123.48 E3.453
G1 X138.32 Y123.82 E3.4565
G1 X138.41 Y123.91 E3.4578
G1 X138.42 Y124.08 E3.4596
G1 X138.51 Y124.17 E3.4609
G1 X138.51 Y124.52 E3.4645
G1 X138.6 Y124.61 E3.4658
;
; 'Loop', 28.5 [RPM], 57.1 [mm/s]
G1 F10618.9
G1 X115.68 Y123.49 E3.4658
G1 F3426.9
G1 X115.66 Y124 E3.4711
G1 X115.57 Y124.08 E3.4724
G1 X115.57 Y124.43 E3.4761
G1 X115.48 Y124.52 E3.4774
G1 X115.48 Y124.57 E3.4779
;
; 'Solid', 23.8 [RPM], 47.8 [mm/s]
G1 F10618.9
G1 X135.74 Y121.28 E3.4779
G1 F2867.1
G1 X136.5 Y120.52 E3.4891
G1 X135.93 Y120.38 E3.4952
G1 X135.11 Y121.2 E3.5072
G1 X134.4 Y121.2 E3.5146
G1 X135.21 Y120.4 E3.5264
G1 X134.5 Y120.4 E3.5338
G1 X133.7 Y121.2 E3.5456
G1 X132.99 Y121.2 E3.553
G1 X133.8 Y120.4 E3.5649
G1 X133.09 Y120.4 E3.5722
G1 X132.28 Y121.2 E3.5841
G1 X131.57 Y121.2 E3.5914
G1 X132.38 Y120.4 E3.6033
G1 X131.67 Y120.4 E3.6106
G1 X130.87 Y121.2 E3.6225
G1 X130.16 Y121.2 E3.6298
G1 X130.97 Y120.4 E3.6417
G1 X130.26 Y120.4 E3.649
G1 X129.45 Y121.2 E3.6609
G1 X128.75 Y121.2 E3.6682
G1 X129.55 Y120.4 E3.6801
G1 X128.85 Y120.4 E3.6875
G1 X128.04 Y121.2 E3.6993
G1 X127.33 Y121.2 E3.7067
G1 X128.14 Y120.4 E3.7185
G1 X127.43 Y120.4 E3.7259
G1 X126.62 Y121.2 E3.7377
G1 X125.92 Y121.2 E3.7451
G1 X126.72 Y120.4 E3.7569
G1 X126.02 Y120.4 E3.7643
G1 X125.21 Y121.2 E3.7761
G1 X124.5 Y121.2 E3.7835
G1 X125.41 Y120.3 E3.7968
G1 X124.97 Y120.03 E3.8021
G1 X123.8 Y121.2 E3.8194
G1 X123.09 Y121.2 E3.8268
G1 X124.69 Y119.6 E3.8503
G1 X124.6 Y118.98 E3.8568
G1 X122.38 Y121.2 E3.8894
G1 X121.68 Y121.2 E3.8968
G1 X124.59 Y118.29 E3.9397
G1 X124.59 Y117.58 E3.947
G1 X120.97 Y121.2 E4.0003
G1 X120.26 Y121.2 E4.0076
G1 X124.57 Y116.89 E4.071
G1 X124.23 Y116.53 E4.0762
G1 X119.55 Y121.2 E4.145
G1 X118.85 Y121.2 E4.1523
G1 X124.03 Y116.02 E4.2285
G1 X124.03 Y115.32 E4.2358
G1 X118.13 Y121.21 E4.3225
G1 X117.48 Y121.16 E4.3293
G1 X124.01 Y114.62 E4.4254
G1 X124.12 Y113.81 E4.4339
G1 X117.48 Y120.45 E4.5315
G1 X117.48 Y119.74 E4.5388
G1 X124.59 Y112.63 E4.6434
G1 X124.59 Y111.92 E4.6507
G1 X117.48 Y119.03 E4.7553
G1 X117.48 Y118.33 E4.7626
G1 X124.56 Y111.24 E4.8667
G1 X124.8 Y110.3 E4.8769
G1 X117.48 Y117.62 E4.9845
G1 X117.48 Y116.91 E4.9919
G1 X125.77 Y108.63 E5.1136
G1 X125.06 Y108.63 E5.121
G1 X117.48 Y116.2 E5.2324
G1 X117.48 Y115.5 E5.2397
G1 X124.35 Y108.63 E5.3407
G1 X123.64 Y108.63 E5.348
G1 X117.48 Y114.79 E5.4386
G1 X117.48 Y114.08 E5.446
G1 X122.94 Y108.63 E5.5262
G1 X122.23 Y108.63 E5.5335
G1 X117.48 Y113.38 E5.6033
G1 X117.48 Y112.67 E5.6107
G1 X121.52 Y108.63 E5.6701
G1 X120.82 Y108.63 E5.6774
G1 X117.48 Y111.96 E5.7264
G1 X117.48 Y111.25 E5.7338
G1 X120.11 Y108.63 E5.7724
G1 X119.4 Y108.63 E5.7798
G1 X117.48 Y110.55 E5.808
G1 X117.48 Y109.84 E5.8153
G1 X118.69 Y108.63 E5.8332
G1 X117.99 Y108.63 E5.8405
G1 X117.46 Y109.16 E5.8483
;
; 'Solid', 23.8 [RPM], 47.8 [mm/s]
G1 F10618.9
G1 X125.19 Y109.91 E5.8483
G1 F2867.1
G1 X126.47 Y108.63 E5.8671
G1 X127.18 Y108.63 E5.8745
G1 X126.21 Y109.6 E5.8887
G1 X126.92 Y109.6 E5.896
G1 X127.89 Y108.63 E5.9103
G1 X128.59 Y108.63 E5.9176
G1 X127.63 Y109.6 E5.9318
G1 X128.33 Y109.6 E5.9392
G1 X129.3 Y108.63 E5.9534
G1 X130.01 Y108.63 E5.9608
G1 X129.04 Y109.6 E5.975
G1 X129.75 Y109.6 E5.9823
G1 X130.72 Y108.63 E5.9966
G1 X131.42 Y108.63 E6.0039
G1 X130.46 Y109.6 E6.0181
G1 X131.16 Y109.6 E6.0255
G1 X132.13 Y108.63 E6.0397
G1 X132.84 Y108.63 E6.0471
G1 X131.87 Y109.6 E6.0613
G1 X132.58 Y109.6 E6.0687
G1 X133.54 Y108.63 E6.0829
G1 X134.25 Y108.63 E6.0902
G1 X133.28 Y109.6 E6.1045
G1 X133.99 Y109.6 E6.1118
G1 X134.96 Y108.63 E6.126
G1 X135.67 Y108.63 E6.1334
G1 X134.7 Y109.6 E6.1476
G1 X135.4 Y109.6 E6.155
G1 X136.17 Y108.83 E6.1662
;
; 'Wipe', 0.0 [RPM], 47.8 [mm/s]
G1 F10618.9
G1 X136.17 Y108.83 E6.1662
G1 F900
G1 E5.1662
G1 F2867.1
G1 X135.4 Y109.6 E5.1662
G1 X134.7 Y109.6 E5.1662
G1 X135.67 Y108.63 E5.1662
G1 X134.96 Y108.63 E5.1662
G1 X133.99 Y109.6 E5.1662
;
; 'Stacked Sparse Infill', 47.7 [RPM], 95.6 [mm/s]
G1 F10618.9
G1 X133.54 Y124.19 E5.1662
G1 F900
G1 E6.1662
G1 F5734.2
G1 X133.54 Y124.62 E6.1707
G1 X133.5 Y124.86 E6.1733
G1 X133.39 Y125.04 E6.1754
G1 X132.26 Y126.17 E6.192
G1 X132.09 Y126.28 E6.1942
G1 X131.84 Y126.31 E6.1968
G1 X129.58 Y126.31 E6.2203
G1 X129.33 Y126.35 E6.2229
G1 X129.15 Y126.46 E6.225
G1 X128.02 Y127.59 E6.2417
G1 X127.91 Y127.76 E6.2438
G1 X127.88 Y128.01 E6.2464
G1 X127.88 Y130.27 E6.2699
G1 X127.84 Y130.52 E6.2725
G1 X127.74 Y130.7 E6.2747
G1 X126.61 Y131.83 E6.2913
G1 X126.43 Y131.94 E6.2934
G1 X126.18 Y131.97 E6.296
G1 X123.92 Y131.97 E6.3195
G1 X123.67 Y132.01 E6.3221
G1 X123.49 Y132.11 E6.3243
G1 X122.58 Y133.03 E6.3378
G1 X121.16 Y131.62 E6.3586
G1 X122.08 Y130.7 E6.3721
G1 X122.19 Y130.52 E6.3742
G1 X122.22 Y130.27 E6.3768
G1 X122.22 Y128.01 E6.4004
G1 X122.26 Y127.76 E6.403
G1 X122.36 Y127.59 E6.4051
G1 X123.49 Y126.46 E6.4217
G1 X123.67 Y126.35 E6.4239
G1 X123.92 Y126.31 E6.4265
G1 X126.18 Y126.31 E6.45
G1 X126.43 Y126.28 E6.4526
G1 X126.61 Y126.17 E6.4547
G1 X127.74 Y125.04 E6.4714
G1 X127.84 Y124.86 E6.4735
G1 X127.88 Y124.62 E6.4761
G1 X127.88 Y124.19 E6.4806
G1 X122.22 Y124.19 E6.5394
G1 X122.22 Y124.62 E6.5439
G1 X122.19 Y124.86 E6.5465
G1 X122.08 Y125.04 E6.5486
G1 X120.95 Y126.17 E6.5652
G1 X120.77 Y126.28 E6.5674
G1 X120.52 Y126.31 E6.57
G1 X118.26 Y126.31 E6.5935
G1 X118.01 Y126.35 E6.5961
G1 X117.84 Y126.46 E6.5982
G1 X116.92 Y127.37 E6.6117
G1 X115.5 Y125.96 E6.6325
G1 X116.42 Y125.04 E6.646
G1 X116.53 Y124.86 E6.6482
G1 X116.56 Y124.62 E6.6508
G1 X116.56 Y124.19 E6.6553
;
; 'Wipe', 0.0 [RPM], 47.8 [mm/s]
G1 F10618.9
G1 X116.56 Y124.19 E6.6553
G1 F900
G1 E5.6553
G1 F2867.1
G1 X116.56 Y124.62 E5.6553
G1 X116.53 Y124.86 E5.6553
G1 X116.42 Y125.04 E5.6553
G1 X115.5 Y125.96 E5.6553
G1 X116.92 Y127.37 E5.6553
G1 X117.63 Y126.67 E5.6553
;
; 'Stacked Sparse Infill', 47.7 [RPM], 95.6 [mm/s]
G1 F10618.9
G1 X126.82 Y137.27 E5.6553
G1 F900
G1 E6.6553
G1 F5734.2
G1 X127.74 Y136.35 E6.6688
G1 X127.84 Y136.18 E6.6709
G1 X127.88 Y135.93 E6.6735
G1 X127.88 Y133.67 E6.697
G1 X127.91 Y133.42 E6.6996
G1 X128.02 Y133.24 E6.7018
G1 X129.15 Y132.11 E6.7184
G1 X129.33 Y132.01 E6.7206
G1 X129.58 Y131.97 E6.7232
G1 X131.84 Y131.97 E6.7467
G1 X132.09 Y131.94 E6.7493
G1 X132.26 Y131.83 E6.7514
G1 X133.39 Y130.7 E6.768
G1 X133.5 Y130.52 E6.7702
G1 X133.54 Y130.27 E6.7728
G1 X133.54 Y128.01 E6.7963
G1 X133.57 Y127.76 E6.7989
G1 X133.68 Y127.59 E6.801
G1 X134.81 Y126.46 E6.8177
G1 X134.99 Y126.35 E6.8198
G1 X135.23 Y126.31 E6.8224
G1 X137.5 Y126.31 E6.8459
G1 X137.74 Y126.28 E6.8485
G1 X137.92 Y126.17 E6.8507
G1 X139.19 Y124.9 E6.8694
;
; 'Wipe', 0.0 [RPM], 47.8 [mm/s]
G1 F10618.9
G1 X139.19 Y124.9 E6.8694
G1 F900
G1 E5.8694
G1 F2867.1
G1 X137.92 Y126.17 E5.8694
G1 X137.74 Y126.28 E5.8694
G1 X137.5 Y126.31 E5.8694
G1 X135.23 Y126.31 E5.8694
G1 X134.99 Y126.35 E5.8694
G1 X134.81 Y126.46 E5.8694
G1 X134.74 Y126.53 E5.8694
;
; 'Perimeter', 39.7 [RPM], 79.6 [mm/s]
G1 F10618.9
G1 X135.44 Y112.84 E5.8694
G1 F900
G1 E6.8694
G1 F4778.5
G1 X136.69 Y111.62 E6.8876
G1 X137.07 Y111.29 E6.8928
G1 X137.11 Y111.43 E6.8943
G1 X137.11 Y114.08 E6.9219
G1 X137.1 Y114.15 E6.9226
G1 X137.04 Y114.27 E6.9239
G1 X136.91 Y114.31 E6.9254
G1 X136.74 Y114.32 E6.9271
G1 X136.66 Y114.41 E6.9284
G1 X136.6 Y114.41 E6.929
G1 X135.78 Y114.42 E6.9375
G1 X135.7 Y114.51 E6.9388
G1 X135.34 Y114.51 E6.9425
;
; 'Wipe', 0.0 [RPM], 47.8 [mm/s]
G1 F10618.9
G1 X135.34 Y114.51 E6.9425
G1 F900
G1 E5.9425
G1 F2867.1
G1 X135.7 Y114.51 E5.9425
G1 X135.78 Y114.42 E5.9425
G1 X136.6 Y114.41 E5.9425
G1 X136.66 Y114.41 E5.9425
G1 X136.74 Y114.32 E5.9425
G1 X136.91 Y114.31 E5.9425
G1 X137.04 Y114.27 E5.9425
G1 X137.11 Y114.08 E5.9425
G1 X137.11 Y113.27 E5.9425
G1 X137.11 Y111.43 E5.9425
G1 X137.07 Y111.29 E5.9425
G1 X136.87 Y111.45 E5.9425
;
; 'Loop', 28.5 [RPM], 57.1 [mm/s]
G1 F10618.9
G1 X135.45 Y112.85 E5.9425
G1 F900
G1 E6.9425
G1 F3426.9
G1 X136.6 Y111.75 E6.959
G1 X136.6 Y114 E6.9824
G1 X136.54 Y114.3 E6.9855
G1 X136.46 Y114.39 E6.9868
G1 X135.77 Y114.4 E6.9939
G1 X135.68 Y114.49 E6.9952
G1 X135.33 Y114.5 E6.9989
;
; 'Wipe', 0.0 [RPM], 47.8 [mm/s]
G1 F10618.9
G1 X135.33 Y114.5 E6.9989
G1 F900
G1 E5.9989
G1 F2867.1
G1 X135.68 Y114.49 E5.9989
G1 X135.77 Y114.4 E5.9989
G1 X136.46 Y114.39 E5.9989
G1 X136.54 Y114.3 E5.9989
G1 X136.6 Y114 E5.9989
G1 X136.6 Y111.75 E5.9989
G1 X135.72 Y112.59 E5.9989
;
; 'Crown', 39.7 [RPM], 79.6 [mm/s]
G1 F10618.9
G1 X137.59 Y114.11 E5.9989
G1 F900
G1 E6.9989
G1 F4778.5
G1 X137.62 Y114.1 E6.9991
G1 X137.61 Y113.95 E7.0007
G1 X137.61 Y108.63 E7.056
;
; 'Wipe', 0.0 [RPM], 47.8 [mm/s]
G1 F10618.9
G1 X137.61 Y108.63 E7.056
G1 F900
G1 E6.056
G1 F2867.1
G1 X137.61 Y113.75 E6.056
;
; 'Stacked Sparse Infill', 47.7 [RPM], 95.6 [mm/s]
G1 F10618.9
G1 X133.54 Y112.87 E6.056
G1 F900
G1 E7.056
G1 F5734.2
G1 X133.54 Y113.3 E7.0605
G1 X133.5 Y113.55 E7.0631
G1 X133.39 Y113.73 E7.0652
G1 X132.26 Y114.86 E7.0819
G1 X132.09 Y114.96 E7.084
G1 X131.84 Y115 E7.0866
G1 X129.58 Y115 E7.1101
G1 X129.33 Y115.04 E7.1127
G1 X129.15 Y115.14 E7.1149
G1 X128.02 Y116.27 E7.1315
G1 X127.91 Y116.45 E7.1337
G1 X127.88 Y116.7 E7.1363
G1 X127.88 Y117.13 E7.1407
;
; 'Wipe', 0.0 [RPM], 47.8 [mm/s]
G1 F10618.9
G1 X127.88 Y117.13 E7.1407
G1 F900
G1 E6.1407
G1 F2867.1
G1 X127.88 Y116.7 E6.1407
G1 X127.91 Y116.45 E6.1407
G1 X128.02 Y116.27 E6.1407
G1 X129.15 Y115.14 E6.1407
G1 X129.33 Y115.04 E6.1407
G1 X129.58 Y115 E6.1407
G1 X131.7 Y115 E6.1407
;
; 'Stacked Sparse Infill', 47.7 [RPM], 95.6 [mm/s]
G1 F10618.9
G1 X127.88 Y113.59 E6.1407
G1 F900
G1 E7.1407
G1 F5734.2
G1 X127.88 Y113.52 E7.1415
G1 X127.88 Y112.87 E7.1482
G1 X128.26 Y113.15 E7.153
G1 X133.54 Y117.13 E7.2218
G1 X133.54 Y116.7 E7.2263
G1 X133.57 Y116.45 E7.2289
G1 X133.68 Y116.27 E7.231
G1 X134.95 Y115 E7.2497
;
; 'Wipe', 0.0 [RPM], 47.8 [mm/s]
G1 F10618.9
G1 X134.95 Y115 E7.2497
G1 F900
G1 E6.2497
G1 F2867.1
G1 X133.68 Y116.27 E6.2497
G1 X133.57 Y116.45 E6.2497
G1 X133.54 Y116.7 E6.2497
G1 X133.54 Y117.13 E6.2497
G1 X131.65 Y115.71 E6.2497
; fan off
M107
G1 F210
G1 X131.65 Y115.71 Z0.2 E6.2497
; END_LAYER_OBJECT z=0.15
; Reset extruder pos
G92 E0
; BEGIN_LAYER_OBJECT z=0.20
; *** Cooling...speed multiplier is 0.707619 ***
; fan on
M106
;
; 'Perimeter', 39.7 [RPM], 79.6 [mm/s]
G1 F15000
G1 X115.58 Y123.03 E0
G1 F900
G1 E1
G1 F4776.4
G1 X115.66 Y122.98 E1.001
G1 X115.87 Y122.97 E1.0032
G1 X115.98 Y122.9 E1.0045
G1 X116.11 Y122.88 E1.0059
G1 X137.85 Y122.88 E1.2319
G1 X138 Y122.91 E1.2335
G1 X138.12 Y122.97 E1.2348
G1 X138.33 Y122.98 E1.2371
G1 X138.41 Y123.03 E1.238
G1 X138.43 Y123.37 E1.2415
G1 X138.52 Y123.45 E1.2428
G1 X138.52 Y123.8 E1.2464
G1 X138.61 Y123.89 E1.2477
G1 X138.61 Y124.24 E1.2514
G1 X138.7 Y124.33 E1.2527
G1 X138.7 Y124.58 E1.2553
;
; 'Wipe', 0.0 [RPM], 47.8 [mm/s]
G1 F10614.3
G1 X138.7 Y124.58 E1.2553
G1 F900
G1 E0.2553
G1 F2865.9
G1 X138.7 Y124.33 E0.2553
G1 X138.61 Y124.24 E0.2553
G1 X138.61 Y123.89 E0.2553
G1 X138.52 Y123.8 E0.2553
G1 X138.52 Y123.45 E0.2553
G1 X138.43 Y123.37 E0.2553
G1 X138.41 Y123.03 E0.2553
G1 X138.33 Y122.98 E0.2553
G1 X138.12 Y122.97 E0.2553
G1 X138 Y122.91 E0.2553
G1 X137.88 Y122.88 E0.2553
G1 X135.05 Y122.88 E0.2553
;
; 'Perimeter', 39.7 [RPM], 79.6 [mm/s]
G1 F10614.3
G1 X137.44 Y121.9 E0.2553
G1 F900
G1 E1.2553
G1 F4776.4
G1 X137.67 Y122.14 E1.2587
G1 X137.45 Y122.22 E1.2611
G1 X137.23 Y122.23 E1.2634
G1 X116.77 Y122.22 E1.476
G1 X116.72 Y122.22 E1.4766
G1 X116.48 Y122.33 E1.4793
G1 X116.31 Y122.33 E1.4811
G1 X116.28 Y122.18 E1.4827
G1 X116.28 Y107.65 E1.6337
G1 X116.42 Y107.61 E1.6352
G1 X137.03 Y107.61 E1.8494
G1 X137.11 Y107.72 E1.8507
G1 X137.1 Y110.61 E1.8808
G1 X126.08 Y110.61 E1.9954
G1 X125.8 Y110.62 E1.9984
G1 X125.68 Y110.68 E1.9997
G1 X125.61 Y110.97 E2.0027
G1 X125.61 Y111.08 E2.0039
G1 X125.61 Y113.79 E2.0321
G1 X125.57 Y113.93 E2.0336
G1 X125.22 Y113.94 E2.0372
G1 X125.01 Y114.07 E2.0399
G1 X124.94 Y114.23 E2.0416
G1 X124.94 Y115.77 E2.0577
G1 X125.01 Y115.93 E2.0594
G1 X125.22 Y116.06 E2.0621
G1 X125.41 Y116.07 E2.064
G1 X125.51 Y116.13 E2.0652
G1 X125.61 Y116.27 E2.067
G1 X125.61 Y118.92 E2.0945
G1 X125.63 Y119.2 E2.0974
G1 X125.69 Y119.31 E2.0988
G1 X125.9 Y119.38 E2.101
G1 X125.97 Y119.38 E2.1018
G1 X137.29 Y119.38 E2.2194
G1 X137.38 Y119.37 E2.2204
G1 X137.67 Y119.53 E2.2238
G1 X137.67 Y122.14 E2.2509
G1 X137.34 Y122.1 E2.2543
;
; 'Loop', 28.5 [RPM], 57.1 [mm/s]
G1 F10614.3
G1 X137.08 Y121.72 E2.2543
G1 F3425.5
G1 X117.44 Y121.72 E2.4583
G1 X116.92 Y121.72 E2.4638
G1 X116.79 Y121.67 E2.4652
G1 X116.79 Y108.16 E2.6056
G1 X116.93 Y108.11 E2.6071
G1 X136.53 Y108.11 E2.8109
G1 X136.6 Y108.22 E2.8122
G1 X136.6 Y110.11 E2.8318
G1 X126.05 Y110.11 E2.9414
G1 X125.67 Y110.14 E2.9455
G1 X125.43 Y110.25 E2.9482
G1 X125.18 Y110.54 E2.9521
G1 X125.11 Y110.99 E2.9569
G1 X125.1 Y113.29 E2.9808
G1 X125.1 Y113.45 E2.9825
G1 X124.85 Y113.57 E2.9853
G1 X124.66 Y113.72 E2.9879
G1 X124.51 Y113.93 E2.9905
G1 X124.44 Y114.21 E2.9935
G1 X124.44 Y115.79 E3.01
G1 X124.51 Y116.07 E3.013
G1 X124.66 Y116.28 E3.0156
G1 X124.85 Y116.43 E3.0183
G1 X125.09 Y116.55 E3.021
G1 X125.1 Y116.71 E3.0228
G1 X125.11 Y119.01 E3.0466
G1 X125.14 Y119.33 E3.0499
G1 X125.26 Y119.57 E3.0527
G1 X125.43 Y119.74 E3.0553
G1 X125.67 Y119.86 E3.0581
G1 X126 Y119.89 E3.0615
G1 X137.14 Y119.89 E3.1772
G1 X137.16 Y120.03 E3.1788
G1 X137.16 Y121.63 E3.1954
G1 X137.08 Y121.72 E3.1967
;
; 'Wipe', 0.0 [RPM], 47.8 [mm/s]
G1 F10614.3
G1 X137.08 Y121.72 E3.1967
G1 F900
G1 E2.1967
G1 F2865.9
G1 X137.16 Y121.63 E2.1967
G1 X137.16 Y120.03 E2.1967
G1 X137.14 Y119.89 E2.1967
G1 X134 Y119.89 E2.1967
;
; 'Perimeter', 39.7 [RPM], 79.6 [mm/s]
G1 F10614.3
G1 X125.74 Y115.08 E2.1967
G1 F900
G1 E3.1967
G1 F4776.4
G1 X125.82 Y115.42 E3.2003
G1 X125.72 Y115.39 E3.2014
G1 X125.62 Y115.14 E3.2042
G1 X125.62 Y114.86 E3.2071
G1 X125.72 Y114.61 E3.2099
G1 X125.82 Y114.58 E3.2111
G1 X125.86 Y114.72 E3.2125
G1 X125.87 Y114.89 E3.2143
G1 X125.96 Y114.98 E3.2156
G1 X125.96 Y115.02 E3.2161
G1 X125.87 Y115.11 E3.2174
G1 X125.86 Y115.28 E3.2193
G1 X125.82 Y115.42 E3.2207
G1 X125.58 Y115.16 E3.2243
;
; 'Wipe', 0.0 [RPM], 47.8 [mm/s]
G1 F10614.3
G1 X125.58 Y115.16 E3.2243
G1 F900
G1 E2.2243
G1 F2865.9
G1 X125.82 Y115.42 E2.2243
G1 X125.86 Y115.28 E2.2243
G1 X125.87 Y115.11 E2.2243
G1 X125.96 Y115.02 E2.2243
G1 X125.96 Y114.98 E2.2243
G1 X125.87 Y114.89 E2.2243
G1 X125.86 Y114.72 E2.2243
G1 X125.82 Y114.58 E2.2243
G1 X125.72 Y114.61 E2.2243
G1 X125.62 Y114.86 E2.2243
G1 X125.62 Y115.14 E2.2243
G1 X125.72 Y115.39 E2.2243
G1 X125.82 Y115.42 E2.2243
G1 X125.74 Y115.08 E2.2243
;
; 'Perimeter', 39.7 [RPM], 79.6 [mm/s]
G1 F10614.3
G1 X115.59 Y123.05 E2.2243
G1 F900
G1 E3.2243
G1 F4776.4
G1 X115.56 Y123.37 E3.2276
G1 X115.47 Y123.45 E3.2289
G1 X115.47 Y123.98 E3.2344
G1 X115.38 Y124.07 E3.2357
G1 X115.38 Y124.42 E3.2393
G1 X115.29 Y124.51 E3.2406
G1 X115.29 Y124.58 E3.2414
;
; 'Loop', 28.5 [RPM], 57.1 [mm/s]
G1 F10614.3
G1 X115.5 Y123.48 E3.2414
G1 F3425.5
G1 X115.52 Y123.47 E3.2416
G1 X115.87 Y123.47 E3.2453
G1 X116.29 Y123.38 E3.2497
G1 X136.09 Y123.38 E3.4555
G1 X137.7 Y123.38 E3.4723
G1 X138.12 Y123.48 E3.4768
G1 X138.31 Y123.48 E3.4787
G1 X138.48 Y123.48 E3.4804
G1 X138.49 Y123.48 E3.4806
G1 X138.5 Y123.82 E3.4841
G1 X138.59 Y123.91 E3.4854
G1 X138.6 Y124.26 E3.489
G1 X138.69 Y124.34 E3.4903
G1 X138.69 Y124.57 E3.4927
;
; 'Loop', 28.5 [RPM], 57.1 [mm/s]
G1 F10614.3
G1 X115.5 Y123.49 E3.4927
G1 F3425.5
G1 X115.49 Y124 E3.498
G1 X115.4 Y124.08 E3.4993
G1 X115.39 Y124.43 E3.5029
G1 X115.3 Y124.52 E3.5042
G1 X115.3 Y124.57 E3.5048
;
; 'Wipe', 0.0 [RPM], 47.8 [mm/s]
G1 F10614.3
G1 X115.3 Y124.57 E3.5048
G1 F900
G1 E2.5048
G1 F2865.9
G1 X115.3 Y124.52 E2.5048
G1 X115.39 Y124.43 E2.5048
G1 X115.4 Y124.08 E2.5048
G1 X115.49 Y124 E2.5048
G1 X115.5 Y123.49 E2.5048
;
; 'Crown', 39.7 [RPM], 79.6 [mm/s]
G1 F10614.3
G1 X137.63 Y116.03 E2.5048
G1 F900
G1 E3.5048
G1 F4776.4
G1 X137.63 Y119.09 E3.5366
;
; 'Solid', 23.8 [RPM], 47.8 [mm/s]
G1 F10614.3
G1 X136.03 Y120.32 E3.5366
G1 F2865.9
G1 X136.67 Y120.96 E3.546
G1 X136.23 Y121.23 E3.5514
G1 X135.4 Y120.4 E3.5637
G1 X134.69 Y120.4 E3.571
G1 X135.5 Y121.21 E3.583
G1 X134.8 Y121.21 E3.5903
G1 X133.98 Y120.4 E3.6023
G1 X133.28 Y120.4 E3.6096
G1 X134.09 Y121.21 E3.6216
G1 X133.38 Y121.21 E3.629
G1 X132.57 Y120.4 E3.6409
G1 X131.86 Y120.4 E3.6483
G1 X132.68 Y121.21 E3.6603
G1 X131.97 Y121.21 E3.6676
G1 X131.15 Y120.4 E3.6796
G1 X130.45 Y120.4 E3.6869
G1 X131.26 Y121.21 E3.6989
G1 X130.55 Y121.21 E3.7062
G1 X129.74 Y120.4 E3.7182
G1 X129.03 Y120.4 E3.7256
G1 X129.85 Y121.21 E3.7375
G1 X129.14 Y121.21 E3.7449
G1 X128.33 Y120.4 E3.7569
G1 X127.62 Y120.4 E3.7642
G1 X128.43 Y121.21 E3.7762
G1 X127.73 Y121.21 E3.7835
G1 X126.91 Y120.4 E3.7955
G1 X126.2 Y120.4 E3.8028
G1 X127.02 Y121.21 E3.8148
G1 X126.31 Y121.21 E3.8222
G1 X125.16 Y120.06 E3.8391
;
; 'Solid', 23.8 [RPM], 47.8 [mm/s]
G1 F10614.3
G1 X117.28 Y120.67 E3.8391
G1 F2865.9
G1 X117.83 Y121.21 E3.8471
G1 X118.53 Y121.21 E3.8544
G1 X117.31 Y119.98 E3.8725
G1 X117.31 Y119.28 E3.8798
G1 X119.24 Y121.21 E3.9082
G1 X119.95 Y121.21 E3.9156
G1 X117.31 Y118.57 E3.9544
G1 X117.31 Y117.86 E3.9617
G1 X120.65 Y121.21 E4.011
G1 X121.36 Y121.21 E4.0183
G1 X117.31 Y117.16 E4.0779
G1 X117.31 Y116.45 E4.0853
G1 X122.07 Y121.21 E4.1553
G1 X122.78 Y121.21 E4.1626
G1 X117.31 Y115.74 E4.243
G1 X117.31 Y115.03 E4.2504
G1 X123.48 Y121.21 E4.3411
G1 X124.19 Y121.21 E4.3485
G1 X117.31 Y114.33 E4.4497
G1 X117.31 Y113.62 E4.457
G1 X124.9 Y121.21 E4.5686
G1 X125.6 Y121.21 E4.5759
G1 X117.31 Y112.91 E4.6979
G1 X117.31 Y112.21 E4.7053
G1 X124.83 Y119.73 E4.8159
G1 X124.56 Y118.75 E4.8265
G1 X117.31 Y111.5 E4.9331
G1 X117.31 Y110.79 E4.9404
G1 X124.59 Y118.08 E5.0475
G1 X124.59 Y117.37 E5.0549
G1 X117.31 Y110.08 E5.162
G1 X117.31 Y109.38 E5.1693
G1 X124.01 Y116.08 E5.2679
G1 X123.91 Y115.28 E5.2763
G1 X117.3 Y108.67 E5.3734
G1 X117.97 Y108.62 E5.3803
G1 X123.93 Y114.58 E5.4679
G1 X123.96 Y113.91 E5.4749
G1 X118.68 Y108.63 E5.5526
G1 X119.38 Y108.63 E5.5599
G1 X124.21 Y113.45 E5.6309
G1 X124.58 Y113.12 E5.6361
G1 X120.09 Y108.63 E5.702
G1 X120.8 Y108.63 E5.7094
G1 X124.59 Y112.42 E5.7652
G1 X124.59 Y111.71 E5.7725
G1 X121.51 Y108.63 E5.8179
G1 X122.21 Y108.63 E5.8252
G1 X124.6 Y111.02 E5.8603
G1 X124.68 Y110.39 E5.8669
G1 X122.92 Y108.63 E5.8928
G1 X123.63 Y108.63 E5.9001
G1 X124.97 Y109.97 E5.9198
G1 X125.4 Y109.69 E5.9251
G1 X124.33 Y108.63 E5.9408
G1 X125.04 Y108.63 E5.9482
G1 X126.01 Y109.6 E5.9624
G1 X126.72 Y109.6 E5.9697
G1 X125.75 Y108.63 E5.984
G1 X126.46 Y108.63 E5.9913
G1 X127.42 Y109.6 E6.0055
G1 X128.13 Y109.6 E6.0129
G1 X127.16 Y108.63 E6.0271
G1 X127.87 Y108.63 E6.0345
G1 X128.84 Y109.6 E6.0487
G1 X129.55 Y109.6 E6.056
G1 X128.58 Y108.63 E6.0703
G1 X129.28 Y108.63 E6.0776
G1 X130.25 Y109.6 E6.0918
G1 X130.96 Y109.6 E6.0992
G1 X129.99 Y108.63 E6.1134
G1 X130.7 Y108.63 E6.1208
G1 X131.67 Y109.6 E6.135
G1 X132.37 Y109.6 E6.1423
G1 X131.41 Y108.63 E6.1566
G1 X132.11 Y108.63 E6.1639
G1 X133.08 Y109.6 E6.1782
G1 X133.79 Y109.6 E6.1855
G1 X132.82 Y108.63 E6.1997
G1 X133.53 Y108.63 E6.2071
G1 X134.49 Y109.6 E6.2213
G1 X135.2 Y109.6 E6.2287
G1 X134.23 Y108.63 E6.2429
G1 X134.94 Y108.63 E6.2502
G1 X135.93 Y109.61 E6.2647
G1 X136.11 Y109.09 E6.2705
G1 X135.57 Y108.55 E6.2783
;
; 'Wipe', 0.0 [RPM], 47.8 [mm/s]
G1 F10614.3
G1 X135.57 Y108.55 E6.2783
G1 F900
G1 E5.2783
G1 F2865.9
G1 X136.11 Y109.09 E5.2783
G1 X135.93 Y109.61 E5.2783
G1 X134.94 Y108.63 E5.2783
G1 X134.23 Y108.63 E5.2783
G1 X135.2 Y109.6 E5.2783
G1 X134.49 Y109.6 E5.2783
;
; 'Stacked Sparse Infill', 47.7 [RPM], 95.5 [mm/s]
G1 F10614.3
G1 X133.54 Y124.19 E5.2783
G1 F900
G1 E6.2783
G1 F5731.7
G1 X133.54 Y124.62 E6.2828
G1 X133.57 Y124.86 E6.2854
G1 X133.68 Y125.04 E6.2876
G1 X134.81 Y126.17 E6.3042
G1 X134.99 Y126.28 E6.3063
G1 X135.23 Y126.31 E6.3089
G1 X137.5 Y126.31 E6.3324
G1 X137.74 Y126.35 E6.335
G1 X137.92 Y126.46 E6.3372
G1 X138.84 Y127.37 E6.3507
G1 X140.25 Y125.96 E6.3715
G1 X139.19 Y124.9 E6.3871
;
; 'Wipe', 0.0 [RPM], 47.8 [mm/s]
G1 F10614.3
G1 X139.19 Y124.9 E6.3871
G1 F900
G1 E5.3871
G1 F2865.9
G1 X140.25 Y125.96 E5.3871
G1 X138.84 Y127.37 E5.3871
G1 X137.92 Y126.46 E5.3871
G1 X137.74 Y126.35 E5.3871
;
; 'Stacked Sparse Infill', 47.7 [RPM], 95.5 [mm/s]
G1 F10614.3
G1 X134.6 Y131.62 E5.3871
G1 F900
G1 E6.3871
G1 F5731.7
G1 X133.68 Y130.7 E6.4006
G1 X133.57 Y130.52 E6.4027
G1 X133.54 Y130.27 E6.4053
G1 X133.54 Y128.01 E6.4289
G1 X133.5 Y127.76 E6.4315
G1 X133.39 Y127.59 E6.4336
G1 X132.26 Y126.46 E6.4502
G1 X132.09 Y126.35 E6.4524
G1 X131.84 Y126.31 E6.455
G1 X129.58 Y126.31 E6.4785
G1 X129.33 Y126.28 E6.4811
G1 X129.15 Y126.17 E6.4832
G1 X128.02 Y125.04 E6.4999
G1 X127.91 Y124.86 E6.502
G1 X127.88 Y124.62 E6.5046
G1 X127.88 Y124.19 E6.5091
G1 X122.22 Y124.19 E6.5679
G1 X122.22 Y124.62 E6.5724
G1 X122.26 Y124.86 E6.575
G1 X122.36 Y125.04 E6.5771
G1 X123.49 Y126.17 E6.5937
G1 X123.67 Y126.28 E6.5959
G1 X123.92 Y126.31 E6.5985
G1 X126.18 Y126.31 E6.622
G1 X126.43 Y126.35 E6.6246
G1 X126.61 Y126.46 E6.6267
G1 X127.74 Y127.59 E6.6434
G1 X127.84 Y127.76 E6.6455
G1 X127.88 Y128.01 E6.6481
G1 X127.88 Y130.27 E6.6716
G1 X127.91 Y130.52 E6.6742
G1 X128.02 Y130.7 E6.6764
G1 X129.15 Y131.83 E6.693
G1 X129.33 Y131.94 E6.6951
G1 X129.58 Y131.97 E6.6977
G1 X131.84 Y131.97 E6.7213
G1 X132.09 Y132.01 E6.7239
G1 X132.26 Y132.11 E6.726
G1 X133.18 Y133.03 E6.7395
G1 X128.94 Y137.27 E6.8019
G1 X128.02 Y136.35 E6.8154
G1 X127.91 Y136.18 E6.8175
G1 X127.88 Y135.93 E6.8201
G1 X127.88 Y133.67 E6.8436
G1 X127.84 Y133.42 E6.8462
G1 X127.74 Y133.24 E6.8484
G1 X126.61 Y132.11 E6.865
G1 X126.43 Y132.01 E6.8672
G1 X126.18 Y131.97 E6.8698
G1 X123.92 Y131.97 E6.8933
G1 X123.67 Y131.94 E6.8959
G1 X123.49 Y131.83 E6.898
G1 X122.36 Y130.7 E6.9146
G1 X122.26 Y130.52 E6.9168
G1 X122.22 Y130.27 E6.9194
G1 X122.22 Y128.01 E6.9429
G1 X122.19 Y127.76 E6.9455
G1 X122.08 Y127.59 E6.9476
G1 X120.95 Y126.46 E6.9643
G1 X120.77 Y126.35 E6.9664
G1 X120.52 Y126.31 E6.969
G1 X118.26 Y126.31 E6.9925
G1 X118.01 Y126.28 E6.9951
G1 X117.84 Y126.17 E6.9973
G1 X116.71 Y125.04 E7.0139
G1 X116.6 Y124.86 E7.0161
G1 X116.56 Y124.62 E7.0186
G1 X116.56 Y124.19 E7.0231
;
; 'Wipe', 0.0 [RPM], 47.8 [mm/s]
G1 F10614.3
G1 X116.56 Y124.19 E7.0231
G1 F900
G1 E6.0231
G1 F2865.9
G1 X116.56 Y124.62 E6.0231
G1 X116.6 Y124.86 E6.0231
G1 X116.71 Y125.04 E6.0231
G1 X117.84 Y126.17 E6.0231
G1 X118.01 Y126.28 E6.0231
G1 X118.26 Y126.31 E6.0231
G1 X120.38 Y126.31 E6.0231
;
; 'Crown', 39.7 [RPM], 79.6 [mm/s]
G1 F10614.3
G1 X137.69 Y114.03 E6.0231
G1 F900
G1 E7.0231
G1 F4776.4
G1 X137.69 Y114.02 E7.0232
G1 X137.69 Y108.02 E7.0856
;
; 'Wipe', 0.0 [RPM], 47.8 [mm/s]
G1 F10614.3
G1 X137.69 Y108.02 E7.0856
G1 F900
G1 E6.0856
G1 F2865.9
G1 X137.69 Y113.14 E6.0856
;
; 'Perimeter', 39.7 [RPM], 79.6 [mm/s]
G1 F10614.3
G1 X135.44 Y112.84 E6.0856
G1 F900
G1 E7.0856
G1 F4776.4
G1 X136.69 Y111.62 E7.1038
G1 X137.07 Y111.29 E7.109
G1 X137.11 Y111.43 E7.1105
G1 X137.11 Y114.08 E7.1381
G1 X137.1 Y114.15 E7.1388
G1 X137.04 Y114.27 E7.1402
G1 X136.91 Y114.31 E7.1416
G1 X136.74 Y114.32 E7.1434
G1 X136.66 Y114.41 E7.1447
G1 X136.6 Y114.41 E7.1453
G1 X135.78 Y114.42 E7.1538
G1 X135.7 Y114.51 E7.1551
G1 X135.34 Y114.51 E7.1588
;
; 'Wipe', 0.0 [RPM], 47.8 [mm/s]
G1 F10614.3
G1 X135.34 Y114.51 E7.1588
G1 F900
G1 E6.1588
G1 F2865.9
G1 X135.7 Y114.51 E6.1588
G1 X135.78 Y114.42 E6.1588
G1 X136.6 Y114.41 E6.1588
G1 X136.66 Y114.41 E6.1588
G1 X136.74 Y114.32 E6.1588
G1 X136.91 Y114.31 E6.1588
G1 X137.04 Y114.27 E6.1588
G1 X137.11 Y114.08 E6.1588
G1 X137.11 Y113.27 E6.1588
G1 X137.11 Y111.43 E6.1588
G1 X137.07 Y111.29 E6.1588
G1 X136.87 Y111.45 E6.1588
;
; 'Loop', 28.5 [RPM], 57.1 [mm/s]
G1 F10614.3
G1 X135.45 Y112.85 E6.1588
G1 F900
G1 E7.1588
G1 F3425.5
G1 X136.6 Y111.75 E7.1753
G1 X136.6 Y114 E7.1986
G1 X136.54 Y114.3 E7.2018
G1 X136.46 Y114.39 E7.203
G1 X135.77 Y114.4 E7.2102
G1 X135.68 Y114.49 E7.2115
G1 X135.33 Y114.5 E7.2151
;
; 'Stacked Sparse Infill', 47.7 [RPM], 95.5 [mm/s]
G1 F10614.3
G1 X134.95 Y115 E7.2151
G1 F5731.7
G1 X133.68 Y113.73 E7.2338
G1 X133.57 Y113.55 E7.236
G1 X133.54 Y113.3 E7.2386
G1 X133.54 Y112.87 E7.243
G1 X133.54 Y117.13 E7.2873
G1 X133.54 Y116.7 E7.2918
G1 X133.5 Y116.45 E7.2944
G1 X133.39 Y116.27 E7.2965
G1 X132.26 Y115.14 E7.3131
G1 X132.09 Y115.04 E7.3153
G1 X131.84 Y115 E7.3179
G1 X129.58 Y115 E7.3414
G1 X129.33 Y114.96 E7.344
G1 X129.15 Y114.86 E7.3461
G1 X128.02 Y113.73 E7.3628
G1 X127.91 Y113.55 E7.3649
G1 X127.88 Y113.3 E7.3675
G1 X127.88 Y112.87 E7.372
;
; 'Wipe', 0.0 [RPM], 47.8 [mm/s]
G1 F10614.3
G1 X127.88 Y112.87 E7.372
G1 F900
G1 E6.372
G1 F2865.9
G1 X127.88 Y113.3 E6.372
G1 X127.91 Y113.55 E6.372
G1 X128.02 Y113.73 E6.372
G1 X129.15 Y114.86 E6.372
G1 X129.33 Y114.96 E6.372
G1 X129.58 Y115 E6.372
G1 X131.7 Y115 E6.372
; fan off
M107
G1 F210
G1 X131.7 Y115 Z0.25 E6.372
; END_LAYER_OBJECT z=0.20
; Reset extruder pos
G92 E0
; BEGIN_LAYER_OBJECT z=0.25
; *** Cooling...speed multiplier is 0.681372 ***
; fan on
M106
;
; 'Perimeter', 38.2 [RPM], 76.7 [mm/s]
G1 F15000
G1 X115.41 Y123.03 E0
G1 F900
G1 E1
G1 F4599.3
G1 X115.48 Y122.98 E1.001
G1 X115.69 Y122.97 E1.0032
G1 X115.81 Y122.9 E1.0045
G1 X115.93 Y122.88 E1.0059
G1 X138.03 Y122.88 E1.2355
G1 X138.18 Y122.91 E1.2371
G1 X138.29 Y122.97 E1.2385
G1 X138.51 Y122.98 E1.2407
G1 X138.58 Y123.03 E1.2417
G1 X138.6 Y123.2 E1.2434
G1 X138.69 Y123.28 E1.2447
G1 X138.7 Y123.63 E1.2483
G1 X138.78 Y123.72 E1.2496
G1 X138.79 Y124.07 E1.2532
G1 X138.88 Y124.15 E1.2545
G1 X138.88 Y124.33 E1.2564
G1 X138.97 Y124.42 E1.2577
G1 X138.97 Y124.6 E1.2595
;
; 'Wipe', 0.0 [RPM], 46.0 [mm/s]
G1 F10220.6
G1 X138.97 Y124.6 E1.2595
G1 F900
G1 E0.2595
G1 F2759.6
G1 X138.97 Y124.42 E0.2595
G1 X138.88 Y124.33 E0.2595
G1 X138.88 Y124.15 E0.2595
G1 X138.79 Y124.07 E0.2595
G1 X138.78 Y123.72 E0.2595
G1 X138.7 Y123.63 E0.2595
G1 X138.69 Y123.28 E0.2595
G1 X138.6 Y123.2 E0.2595
G1 X138.58 Y123.03 E0.2595
G1 X138.51 Y122.98 E0.2595
G1 X138.29 Y122.97 E0.2595
G1 X138.18 Y122.91 E0.2595
G1 X138.06 Y122.88 E0.2595
G1 X135.23 Y122.88 E0.2595
;
; 'Perimeter', 38.2 [RPM], 76.7 [mm/s]
G1 F10220.6
G1 X125.74 Y115.08 E0.2595
G1 F900
G1 E1.2595
G1 F4599.3
G1 X125.82 Y115.42 E1.2631
G1 X125.72 Y115.39 E1.2642
G1 X125.62 Y115.14 E1.267
G1 X125.61 Y114.97 E1.2688
G1 X125.82 Y114.71 E1.2722
G1 X125.86 Y114.72 E1.2727
G1 X125.87 Y114.89 E1.2745
G1 X125.96 Y114.98 E1.2758
G1 X125.96 Y115.02 E1.2763
G1 X125.87 Y115.11 E1.2776
G1 X125.86 Y115.28 E1.2794
G1 X125.82 Y115.42 E1.2809
G1 X125.58 Y115.16 E1.2845
;
; 'Wipe', 0.0 [RPM], 46.0 [mm/s]
G1 F10220.6
G1 X125.58 Y115.16 E1.2845
G1 F900
G1 E0.2845
G1 F2759.6
G1 X125.82 Y115.42 E0.2845
G1 X125.86 Y115.28 E0.2845
G1 X125.87 Y115.11 E0.2845
G1 X125.96 Y115.02 E0.2845
G1 X125.96 Y114.98 E0.2845
G1 X125.87 Y114.89 E0.2845
G1 X125.86 Y114.72 E0.2845
G1 X125.82 Y114.71 E0.2845
G1 X125.61 Y114.97 E0.2845
G1 X125.62 Y115.14 E0.2845
G1 X125.72 Y115.39 E0.2845
G1 X125.82 Y115.42 E0.2845
G1 X125.74 Y115.08 E0.2845
;
; 'Perimeter', 38.2 [RPM], 76.7 [mm/s]
G1 F10220.6
G1 X124.03 Y117.08 E0.2845
G1 F900
G1 E1.2845
G1 F4599.3
G1 X124.13 Y117.08 E1.2856
G1 X124.22 Y117 E1.2869
G1 X124.4 Y117 E1.2887
G1 X124.57 Y116.82 E1.2913
G1 X124.75 Y116.82 E1.2932
G1 X125.02 Y116.56 E1.2971
G1 X125.2 Y116.57 E1.299
G1 X125.38 Y116.4 E1.3016
G1 X125.38 Y116.22 E1.3034
G1 X125.41 Y116.07 E1.305
G1 X125.58 Y116.06 E1.3068
G1 X125.61 Y116.21 E1.3084
G1 X125.61 Y118.92 E1.3365
G1 X125.63 Y119.2 E1.3394
G1 X125.69 Y119.31 E1.3408
G1 X125.9 Y119.38 E1.343
G1 X125.97 Y119.38 E1.3438
G1 X137.29 Y119.38 E1.4614
G1 X137.38 Y119.37 E1.4624
G1 X137.49 Y119.31 E1.4637
G1 X137.6 Y119.06 E1.4666
G1 X137.6 Y116.42 E1.4941
G1 X137.83 Y116.54 E1.4967
G1 X137.83 Y121.76 E1.551
G1 X137.57 Y122.04 E1.5549
G1 X137.36 Y122.19 E1.5575
G1 X137.33 Y122.17 E1.5579
G1 X137.31 Y121.84 E1.5614
G1 X137.22 Y121.75 E1.5627
G1 X137.22 Y121.57 E1.5646
G1 X137.13 Y121.48 E1.5659
G1 X136.95 Y121.49 E1.5677
G1 X136.33 Y120.87 E1.5768
G1 X125.37 Y120.87 E1.6908
G1 X125.28 Y120.78 E1.6921
G1 X124.92 Y120.78 E1.6958
G1 X124.84 Y120.69 E1.6971
G1 X124.66 Y120.7 E1.6989
G1 X124.57 Y120.61 E1.7002
;
; 'Loop', 27.4 [RPM], 55.0 [mm/s]
G1 F10220.6
G1 X124.02 Y117.09 E1.7002
G1 F3298.4
G1 X124.14 Y117.1 E1.7015
G1 X124.23 Y117.01 E1.7028
G1 X124.41 Y117.01 E1.7047
G1 X124.59 Y116.84 E1.7073
G1 X124.77 Y116.84 E1.7092
G1 X125.05 Y116.59 E1.7131
G1 X125.1 Y116.65 E1.7139
G1 X125.11 Y119.01 E1.7385
G1 X125.14 Y119.33 E1.7418
G1 X125.26 Y119.57 E1.7446
G1 X125.43 Y119.74 E1.7472
G1 X125.67 Y119.86 E1.7499
G1 X126 Y119.89 E1.7533
G1 X137.31 Y119.89 E1.8709
G1 X137.32 Y121.62 E1.8889
G1 X137.26 Y121.73 E1.8903
G1 X137.25 Y121.72 E1.8905
G1 X137.24 Y121.54 E1.8923
G1 X137.15 Y121.46 E1.8936
G1 X136.97 Y121.47 E1.8955
G1 X136.34 Y120.86 E1.9046
G1 X125.38 Y120.86 E2.0185
G1 X125.29 Y120.77 E2.0198
G1 X124.94 Y120.77 E2.0235
G1 X124.85 Y120.68 E2.0248
G1 X124.67 Y120.68 E2.0267
G1 X124.58 Y120.59 E2.028
;
; 'Wipe', 0.0 [RPM], 46.0 [mm/s]
G1 F10220.6
G1 X124.58 Y120.59 E2.028
G1 F900
G1 E1.028
G1 F2759.6
G1 X124.67 Y120.68 E1.028
G1 X124.85 Y120.68 E1.028
G1 X124.94 Y120.77 E1.028
G1 X125.29 Y120.77 E1.028
G1 X125.38 Y120.86 E1.028
G1 X129.49 Y120.86 E1.028
;
; 'Perimeter', 38.2 [RPM], 76.7 [mm/s]
G1 F10220.6
G1 X115.41 Y123.05 E1.028
G1 F900
G1 E2.028
G1 F4599.3
G1 X115.39 Y123.37 E2.0313
G1 X115.3 Y123.45 E2.0326
G1 X115.29 Y123.8 E2.0362
G1 X115.2 Y123.89 E2.0375
G1 X115.2 Y124.42 E2.043
G1 X115.11 Y124.51 E2.0443
G1 X115.11 Y124.58 E2.0451
;
; 'Loop', 27.4 [RPM], 55.0 [mm/s]
G1 F10220.6
G1 X115.33 Y123.48 E2.0451
G1 F3298.4
G1 X115.34 Y123.47 E2.0453
G1 X115.69 Y123.47 E2.0489
G1 X116.11 Y123.38 E2.0534
G1 X136.09 Y123.38 E2.261
G1 X137.88 Y123.38 E2.2796
G1 X138.3 Y123.48 E2.2841
G1 X138.49 Y123.48 E2.2861
G1 X138.65 Y123.48 E2.2878
G1 X138.66 Y123.48 E2.2879
G1 X138.67 Y123.65 E2.2897
G1 X138.76 Y123.74 E2.291
G1 X138.77 Y124.08 E2.2946
G1 X138.86 Y124.17 E2.2959
G1 X138.86 Y124.34 E2.2977
G1 X138.95 Y124.43 E2.299
G1 X138.95 Y124.61 E2.3008
;
; 'Loop', 27.4 [RPM], 55.0 [mm/s]
G1 F10220.6
G1 X115.33 Y123.49 E2.3008
G1 F3298.4
G1 X115.31 Y123.82 E2.3043
G1 X115.22 Y123.91 E2.3056
G1 X115.21 Y124.43 E2.3111
G1 X115.12 Y124.52 E2.3124
G1 X115.13 Y124.57 E2.3129
;
; 'Wipe', 0.0 [RPM], 46.0 [mm/s]
G1 F10220.6
G1 X115.13 Y124.57 E2.3129
G1 F900
G1 E1.3129
G1 F2759.6
G1 X115.12 Y124.52 E1.3129
G1 X115.21 Y124.43 E1.3129
G1 X115.22 Y123.91 E1.3129
G1 X115.31 Y123.82 E1.3129
G1 X115.33 Y123.49 E1.3129
;
; 'Perimeter', 38.2 [RPM], 76.7 [mm/s]
G1 F10220.6
G1 X116.11 Y107.85 E1.3129
G1 F900
G1 E2.3129
G1 F4599.3
G1 X116.11 Y122.17 E2.4617
G1 X116.25 Y122.21 E2.4632
G1 X116.94 Y122.23 E2.4704
G1 X117.09 Y122.25 E2.472
G1 X117.29 Y122.09 E2.4747
G1 X117.3 Y121.92 E2.4765
G1 X117.48 Y121.75 E2.4791
G1 X117.48 Y121.57 E2.4809
G1 X117.57 Y121.49 E2.4822
G1 X117.57 Y121.14 E2.4859
G1 X117.66 Y121.05 E2.4872
G1 X117.66 Y120.87 E2.489
G1 X117.84 Y120.7 E2.4916
;
; 'Loop', 27.4 [RPM], 55.0 [mm/s]
G1 F10220.6
G1 X116.62 Y108.16 E2.4916
G1 F3298.4
G1 X116.75 Y108.11 E2.4931
G1 X136.53 Y108.11 E2.6987
G1 X136.6 Y108.22 E2.7
G1 X136.6 Y110.11 E2.7196
G1 X126.05 Y110.11 E2.8292
G1 X125.67 Y110.14 E2.8332
G1 X125.43 Y110.25 E2.836
G1 X125.18 Y110.54 E2.8399
G1 X125.11 Y110.99 E2.8447
G1 X125.1 Y113.35 E2.8693
G1 X125.05 Y113.41 E2.8701
G1 X124.77 Y113.16 E2.874
G1 X124.59 Y113.16 E2.8759
G1 X124.41 Y112.99 E2.8785
G1 X124.23 Y112.99 E2.8804
G1 X124.14 Y112.9 E2.8817
G1 X123.96 Y112.9 E2.8835
;
; 'Loop', 27.4 [RPM], 55.0 [mm/s]
G1 F10220.6
G1 X116.62 Y108.23 E2.8835
G1 F3298.4
G1 X116.62 Y121.67 E3.0232
G1 X116.74 Y121.72 E3.0245
G1 X117.08 Y121.73 E3.0281
G1 X117.34 Y121.82 E3.031
G1 X117.46 Y121.72 E3.0325
G1 X117.46 Y121.55 E3.0343
G1 X117.55 Y121.47 E3.0356
G1 X117.56 Y121.12 E3.0392
G1 X117.65 Y121.03 E3.0405
G1 X117.65 Y120.86 E3.0424
G1 X117.83 Y120.68 E3.045
;
; 'Wipe', 0.0 [RPM], 46.0 [mm/s]
G1 F10220.6
G1 X117.83 Y120.68 E3.045
G1 F900
G1 E2.045
G1 F2759.6
G1 X117.65 Y120.86 E2.045
G1 X117.65 Y121.03 E2.045
G1 X117.56 Y121.12 E2.045
G1 X117.55 Y121.47 E2.045
G1 X117.46 Y121.55 E2.045
G1 X117.46 Y121.72 E2.045
G1 X117.34 Y121.82 E2.045
G1 X117.08 Y121.73 E2.045
G1 X116.74 Y121.72 E2.045
G1 X116.62 Y121.67 E2.045
G1 X116.62 Y118.76 E2.045
;
; 'Perimeter', 38.2 [RPM], 76.7 [mm/s]
G1 F10220.6
G1 X116.11 Y107.83 E2.045
G1 F900
G1 E3.045
G1 F4599.3
G1 X116.11 Y107.65 E3.0468
G1 X116.25 Y107.61 E3.0483
G1 X137.03 Y107.61 E3.2643
G1 X137.11 Y107.72 E3.2657
G1 X137.1 Y110.61 E3.2958
G1 X126.08 Y110.61 E3.4103
G1 X125.8 Y110.62 E3.4133
G1 X125.68 Y110.68 E3.4146
G1 X125.61 Y110.97 E3.4177
G1 X125.61 Y111.08 E3.4189
G1 X125.61 Y113.79 E3.447
G1 X125.58 Y113.94 E3.4486
G1 X125.41 Y113.93 E3.4504
G1 X125.38 Y113.78 E3.452
G1 X125.38 Y113.6 E3.4538
G1 X125.2 Y113.43 E3.4564
G1 X125.02 Y113.44 E3.4583
G1 X124.75 Y113.18 E3.4622
G1 X124.57 Y113.18 E3.4641
G1 X124.4 Y113 E3.4667
G1 X124.22 Y113 E3.4686
G1 X124.13 Y112.92 E3.4699
G1 X123.95 Y112.92 E3.4717
;
; 'Solid', 22.9 [RPM], 46.0 [mm/s]
G1 F10220.6
G1 X124.31 Y112.91 E3.4717
G1 F2759.6
G1 X124.59 Y112.63 E3.4759
G1 X124.59 Y111.92 E3.4833
G1 X117.13 Y119.38 E3.5929
G1 X117.13 Y118.68 E3.6003
G1 X124.56 Y111.24 E3.7095
G1 X124.8 Y110.3 E3.7197
G1 X117.13 Y117.97 E3.8325
G1 X117.13 Y117.26 E3.8398
G1 X125.77 Y108.63 E3.9667
G1 X125.06 Y108.63 E3.9741
G1 X117.13 Y116.55 E4.0906
G1 X117.13 Y115.85 E4.0979
G1 X124.35 Y108.63 E4.2041
G1 X123.64 Y108.63 E4.2114
G1 X117.13 Y115.14 E4.3072
G1 X117.13 Y114.43 E4.3145
G1 X122.94 Y108.63 E4.3998
G1 X122.23 Y108.63 E4.4072
G1 X117.13 Y113.73 E4.4821
G1 X117.13 Y113.02 E4.4895
G1 X121.52 Y108.63 E4.554
G1 X120.82 Y108.63 E4.5614
G1 X117.13 Y112.31 E4.6155
G1 X117.13 Y111.6 E4.6229
G1 X120.11 Y108.63 E4.6667
G1 X119.4 Y108.63 E4.674
G1 X117.13 Y110.9 E4.7074
G1 X117.13 Y110.19 E4.7147
G1 X118.69 Y108.63 E4.7377
G1 X117.99 Y108.63 E4.7451
G1 X117.14 Y109.47 E4.7575
G1 X117.22 Y108.69 E4.7657
G1 X117.3 Y108.61 E4.7669
;
; 'Solid', 22.9 [RPM], 46.0 [mm/s]
G1 F10220.6
G1 X125.19 Y109.91 E4.7669
G1 F2759.6
G1 X126.47 Y108.63 E4.7857
G1 X127.18 Y108.63 E4.7931
G1 X126.21 Y109.6 E4.8073
G1 X126.92 Y109.6 E4.8147
G1 X127.89 Y108.63 E4.8289
G1 X128.59 Y108.63 E4.8362
G1 X127.63 Y109.6 E4.8505
G1 X128.33 Y109.6 E4.8578
G1 X129.3 Y108.63 E4.8721
G1 X130.01 Y108.63 E4.8794
G1 X129.04 Y109.6 E4.8936
G1 X129.75 Y109.6 E4.901
G1 X130.72 Y108.63 E4.9152
G1 X131.42 Y108.63 E4.9226
G1 X130.46 Y109.6 E4.9368
G1 X131.16 Y109.6 E4.9441
G1 X132.13 Y108.63 E4.9584
G1 X132.84 Y108.63 E4.9657
G1 X131.87 Y109.6 E4.9799
G1 X132.58 Y109.6 E4.9873
G1 X133.54 Y108.63 E5.0015
G1 X134.25 Y108.63 E5.0089
G1 X133.28 Y109.6 E5.0231
G1 X133.99 Y109.6 E5.0304
G1 X134.96 Y108.63 E5.0447
G1 X135.67 Y108.63 E5.052
G1 X134.7 Y109.6 E5.0662
G1 X135.4 Y109.6 E5.0736
G1 X136.17 Y108.83 E5.0848
;
; 'Wipe', 0.0 [RPM], 46.0 [mm/s]
G1 F10220.6
G1 X136.17 Y108.83 E5.0848
G1 F900
G1 E4.0848
G1 F2759.6
G1 X135.4 Y109.6 E4.0848
G1 X134.7 Y109.6 E4.0848
G1 X135.67 Y108.63 E4.0848
G1 X134.96 Y108.63 E4.0848
G1 X133.99 Y109.6 E4.0848
;
; 'Solid', 22.9 [RPM], 46.0 [mm/s]
G1 F10220.6
G1 X126.09 Y120.32 E4.0848
G1 F900
G1 E5.0848
G1 F2759.6
G1 X125.8 Y120.62 E5.0892
G1 X125.07 Y120.64 E5.0967
G1 X125.41 Y120.3 E5.1017
G1 X124.97 Y120.03 E5.107
G1 X124.73 Y120.27 E5.1106
G1 X124 Y120.3 E5.1182
G1 X124.69 Y119.6 E5.1284
G1 X124.6 Y118.98 E5.1349
G1 X123.29 Y120.3 E5.1543
G1 X122.58 Y120.3 E5.1616
G1 X124.59 Y118.29 E5.1913
G1 X124.59 Y117.58 E5.1986
G1 X121.87 Y120.3 E5.2386
G1 X121.16 Y120.3 E5.246
G1 X124.31 Y117.15 E5.2923
G1 X123.64 Y117.11 E5.2993
G1 X120.46 Y120.3 E5.3461
G1 X119.75 Y120.3 E5.3535
G1 X123.28 Y116.77 E5.4054
G1 X123.28 Y116.06 E5.4128
G1 X119.04 Y120.3 E5.4751
G1 X118.34 Y120.3 E5.4825
G1 X123.28 Y115.35 E5.5552
G1 X123.28 Y114.64 E5.5626
G1 X117.13 Y120.8 E5.653
G1 X117.13 Y120.09 E5.6603
G1 X123.36 Y113.86 E5.7519
;
; 'Wipe', 0.0 [RPM], 46.0 [mm/s]
G1 F10220.6
G1 X123.36 Y113.86 E5.7519
G1 F900
G1 E4.7519
G1 F2759.6
G1 X117.13 Y120.09 E4.7519
;
; 'Solid', 22.9 [RPM], 46.0 [mm/s]
G1 F10220.6
G1 X136.65 Y120.37 E4.7519
G1 F900
G1 E5.7519
G1 F2759.6
G1 X136.38 Y120.64 E5.7558
G1 X136.75 Y120.98 E5.761
G1 X136.89 Y120.84 E5.763
;
; 'Wipe', 0.0 [RPM], 46.0 [mm/s]
G1 F10220.6
G1 X136.89 Y120.84 E5.763
G1 F900
G1 E4.763
G1 F2759.6
G1 X136.75 Y120.98 E4.763
G1 X136.38 Y120.64 E4.763
G1 X136.65 Y120.37 E4.763
;
; 'Stacked Sparse Infill', 45.9 [RPM], 92.0 [mm/s]
G1 F10220.6
G1 X139.19 Y124.9 E4.763
G1 F900
G1 E5.763
G1 F5519.1
G1 X137.92 Y126.17 E5.7817
G1 X137.74 Y126.28 E5.7839
G1 X137.5 Y126.31 E5.7865
G1 X135.23 Y126.31 E5.81
G1 X134.99 Y126.35 E5.8126
G1 X134.81 Y126.46 E5.8147
G1 X133.68 Y127.59 E5.8313
G1 X133.57 Y127.76 E5.8335
G1 X133.54 Y128.01 E5.8361
G1 X133.54 Y130.27 E5.8596
G1 X133.5 Y130.52 E5.8622
G1 X133.39 Y130.7 E5.8643
G1 X132.26 Y131.83 E5.881
G1 X132.09 Y131.94 E5.8831
G1 X131.84 Y131.97 E5.8857
G1 X129.58 Y131.97 E5.9092
G1 X129.33 Y132.01 E5.9118
G1 X129.15 Y132.11 E5.914
G1 X128.02 Y133.24 E5.9306
G1 X127.91 Y133.42 E5.9328
G1 X127.88 Y133.67 E5.9354
G1 X127.88 Y135.93 E5.9589
G1 X127.84 Y136.18 E5.9615
G1 X127.74 Y136.35 E5.9636
G1 X126.82 Y137.27 E5.9771
G1 X122.58 Y133.03 E6.0395
G1 X123.49 Y132.11 E6.053
G1 X123.67 Y132.01 E6.0551
G1 X123.92 Y131.97 E6.0577
G1 X126.18 Y131.97 E6.0813
G1 X126.43 Y131.94 E6.0839
G1 X126.61 Y131.83 E6.086
G1 X127.74 Y130.7 E6.1026
G1 X127.84 Y130.52 E6.1048
G1 X127.88 Y130.27 E6.1074
G1 X127.88 Y128.01 E6.1309
G1 X127.91 Y127.76 E6.1335
G1 X128.02 Y127.59 E6.1356
G1 X129.15 Y126.46 E6.1523
G1 X129.33 Y126.35 E6.1544
G1 X129.58 Y126.31 E6.157
G1 X131.84 Y126.31 E6.1805
G1 X132.09 Y126.28 E6.1831
G1 X132.26 Y126.17 E6.1853
G1 X133.39 Y125.04 E6.2019
G1 X133.5 Y124.86 E6.204
G1 X133.54 Y124.62 E6.2066
G1 X133.54 Y124.19 E6.2111
G1 X127.88 Y124.19 E6.2699
G1 X127.88 Y124.62 E6.2744
G1 X127.84 Y124.86 E6.277
G1 X127.74 Y125.04 E6.2791
G1 X126.61 Y126.17 E6.2958
G1 X126.43 Y126.28 E6.2979
G1 X126.18 Y126.31 E6.3005
G1 X123.92 Y126.31 E6.324
G1 X123.67 Y126.35 E6.3266
G1 X123.49 Y126.46 E6.3288
G1 X122.36 Y127.59 E6.3454
G1 X122.26 Y127.76 E6.3475
G1 X122.22 Y128.01 E6.3501
G1 X122.22 Y130.27 E6.3737
G1 X122.19 Y130.52 E6.3763
G1 X122.08 Y130.7 E6.3784
G1 X121.16 Y131.62 E6.3919
G1 X116.92 Y127.37 E6.4543
G1 X117.84 Y126.46 E6.4678
G1 X118.01 Y126.35 E6.4699
G1 X118.26 Y126.31 E6.4725
G1 X120.52 Y126.31 E6.496
G1 X120.77 Y126.28 E6.4986
G1 X120.95 Y126.17 E6.5008
G1 X122.08 Y125.04 E6.5174
G1 X122.19 Y124.86 E6.5196
G1 X122.22 Y124.62 E6.5222
G1 X122.22 Y124.19 E6.5266
G1 X116.56 Y124.19 E6.5854
G1 X116.56 Y124.62 E6.5899
G1 X116.53 Y124.86 E6.5925
G1 X116.42 Y125.04 E6.5947
G1 X115.5 Y125.96 E6.6082
;
; 'Wipe', 0.0 [RPM], 46.0 [mm/s]
G1 F10220.6
G1 X115.5 Y125.96 E6.6082
G1 F900
G1 E5.6082
G1 F2759.6
G1 X116.42 Y125.04 E5.6082
G1 X116.53 Y124.86 E5.6082
G1 X116.56 Y124.62 E5.6082
G1 X116.56 Y124.19 E5.6082
G1 X119.39 Y124.19 E5.6082
;
; 'Crown', 38.2 [RPM], 76.7 [mm/s]
G1 F10220.6
G1 X137.81 Y113.97 E5.6082
G1 F900
G1 E6.6082
G1 F4599.3
G1 X137.81 Y113.9 E6.6089
G1 X137.87 Y114.03 E6.6103
G1 X137.81 Y113.8 E6.6128
G1 X137.81 Y108.07 E6.6723
;
; 'Wipe', 0.0 [RPM], 46.0 [mm/s]
G1 F10220.6
G1 X137.81 Y108.07 E6.6723
G1 F900
G1 E5.6723
G1 F2759.6
G1 X137.81 Y113.09 E5.6723
;
; 'Perimeter', 38.2 [RPM], 76.7 [mm/s]
G1 F10220.6
G1 X135.44 Y112.84 E5.6723
G1 F900
G1 E6.6723
G1 F4599.3
G1 X136.69 Y111.62 E6.6905
G1 X137.07 Y111.29 E6.6957
G1 X137.11 Y111.43 E6.6972
G1 X137.11 Y114.08 E6.7247
G1 X137.04 Y114.27 E6.7268
G1 X136.91 Y114.31 E6.7282
G1 X136.74 Y114.32 E6.73
G1 X136.66 Y114.41 E6.7313
G1 X136.6 Y114.41 E6.7319
G1 X135.78 Y114.42 E6.7404
G1 X135.7 Y114.51 E6.7417
G1 X135.34 Y114.51 E6.7453
;
; 'Wipe', 0.0 [RPM], 46.0 [mm/s]
G1 F10220.6
G1 X135.34 Y114.51 E6.7453
G1 F900
G1 E5.7453
G1 F2759.6
G1 X135.7 Y114.51 E5.7453
G1 X135.78 Y114.42 E5.7453
G1 X136.6 Y114.41 E5.7453
G1 X136.66 Y114.41 E5.7453
G1 X136.74 Y114.32 E5.7453
G1 X136.91 Y114.31 E5.7453
G1 X137.04 Y114.27 E5.7453
G1 X137.11 Y114.08 E5.7453
G1 X137.11 Y111.43 E5.7453
G1 X137.07 Y111.29 E5.7453
G1 X136.87 Y111.45 E5.7453
;
; 'Loop', 27.4 [RPM], 55.0 [mm/s]
G1 F10220.6
G1 X135.45 Y112.85 E5.7453
G1 F900
G1 E6.7453
G1 F3298.4
G1 X136.6 Y111.75 E6.7619
G1 X136.6 Y114 E6.7852
G1 X136.54 Y114.3 E6.7884
G1 X136.46 Y114.39 E6.7896
G1 X135.77 Y114.4 E6.7968
G1 X135.68 Y114.49 E6.7981
G1 X135.33 Y114.5 E6.8017
;
; 'Stacked Sparse Infill', 45.9 [RPM], 92.0 [mm/s]
G1 F10220.6
G1 X134.95 Y115 E6.8017
G1 F5519.1
G1 X133.68 Y116.27 E6.8204
G1 X133.57 Y116.45 E6.8226
G1 X133.54 Y116.7 E6.8252
G1 X133.54 Y117.13 E6.8296
G1 X133.54 Y112.87 E6.8739
G1 X133.54 Y113.3 E6.8784
G1 X133.5 Y113.55 E6.881
G1 X133.39 Y113.73 E6.8831
G1 X132.26 Y114.86 E6.8997
G1 X132.09 Y114.96 E6.9019
G1 X131.84 Y115 E6.9045
G1 X129.58 Y115 E6.928
G1 X129.33 Y115.04 E6.9306
G1 X129.15 Y115.14 E6.9327
G1 X128.02 Y116.27 E6.9494
G1 X127.91 Y116.45 E6.9515
G1 X127.88 Y116.7 E6.9541
G1 X127.88 Y117.13 E6.9586
;
; 'Wipe', 0.0 [RPM], 46.0 [mm/s]
G1 F10220.6
G1 X127.88 Y117.13 E6.9586
G1 F900
G1 E5.9586
G1 F2759.6
G1 X127.88 Y116.7 E5.9586
G1 X127.91 Y116.45 E5.9586
G1 X128.02 Y116.27 E5.9586
G1 X129.15 Y115.14 E5.9586
G1 X129.33 Y115.04 E5.9586
G1 X129.58 Y115 E5.9586
G1 X131.7 Y115 E5.9586
; fan off
M107
G1 F210
G1 X131.7 Y115 Z0.3 E5.9586
; END_LAYER_OBJECT z=0.25
; Reset extruder pos
G92 E0
; BEGIN_LAYER_OBJECT z=0.30
; *** Cooling...speed multiplier is 0.694508 ***
; fan on
M106
;
; 'Perimeter', 39.0 [RPM], 78.1 [mm/s]
G1 F15000
G1 X115.23 Y123.03 E0
G1 F900
G1 E1
G1 F4687.9
G1 X115.3 Y122.98 E1.0009
G1 X115.52 Y122.97 E1.0032
G1 X115.63 Y122.9 E1.0045
G1 X115.76 Y122.88 E1.0059
G1 X138.21 Y122.88 E1.2392
G1 X138.36 Y122.91 E1.2408
G1 X138.47 Y122.97 E1.2421
G1 X138.69 Y122.98 E1.2444
G1 X138.76 Y123.03 E1.2453
G1 X138.77 Y123.2 E1.247
G1 X138.87 Y123.28 E1.2483
G1 X138.87 Y123.63 E1.2519
G1 X138.96 Y123.72 E1.2532
G1 X138.96 Y123.89 E1.2551
G1 X139.05 Y123.98 E1.2564
G1 X139.05 Y124.33 E1.26
G1 X139.14 Y124.42 E1.2613
G1 X139.14 Y124.6 E1.2632
;
; 'Wipe', 0.0 [RPM], 46.9 [mm/s]
G1 F10417.6
G1 X139.14 Y124.6 E1.2632
G1 F900
G1 E0.2632
G1 F2812.8
G1 X139.14 Y124.42 E0.2632
G1 X139.05 Y124.33 E0.2632
G1 X139.05 Y123.98 E0.2632
G1 X138.96 Y123.89 E0.2632
G1 X138.96 Y123.72 E0.2632
G1 X138.87 Y123.63 E0.2632
G1 X138.87 Y123.28 E0.2632
G1 X138.77 Y123.2 E0.2632
G1 X138.76 Y123.03 E0.2632
G1 X138.69 Y122.98 E0.2632
G1 X138.47 Y122.97 E0.2632
G1 X138.36 Y122.91 E0.2632
G1 X138.21 Y122.88 E0.2632
G1 X135.4 Y122.88 E0.2632
;
; 'Perimeter', 39.0 [RPM], 78.1 [mm/s]
G1 F10417.6
G1 X125.74 Y115.08 E0.2632
G1 F900
G1 E1.2632
G1 F4687.9
G1 X125.82 Y115.42 E1.2668
G1 X125.72 Y115.39 E1.2678
G1 X125.62 Y115.14 E1.2706
G1 X125.61 Y114.97 E1.2724
G1 X125.82 Y114.71 E1.2759
G1 X125.86 Y114.72 E1.2764
G1 X125.87 Y114.89 E1.2782
G1 X125.96 Y114.98 E1.2795
G1 X125.96 Y115.02 E1.28
G1 X125.87 Y115.11 E1.2813
G1 X125.86 Y115.28 E1.2831
G1 X125.82 Y115.42 E1.2846
G1 X125.58 Y115.16 E1.2882
;
; 'Wipe', 0.0 [RPM], 46.9 [mm/s]
G1 F10417.6
G1 X125.58 Y115.16 E1.2882
G1 F900
G1 E0.2882
G1 F2812.8
G1 X125.82 Y115.42 E0.2882
G1 X125.86 Y115.28 E0.2882
G1 X125.87 Y115.11 E0.2882
G1 X125.96 Y115.02 E0.2882
G1 X125.96 Y114.98 E0.2882
G1 X125.87 Y114.89 E0.2882
G1 X125.86 Y114.72 E0.2882
G1 X125.82 Y114.71 E0.2882
G1 X125.61 Y114.97 E0.2882
G1 X125.62 Y115.14 E0.2882
G1 X125.72 Y115.39 E0.2882
G1 X125.82 Y115.42 E0.2882
G1 X125.74 Y115.08 E0.2882
;
; 'Perimeter', 39.0 [RPM], 78.1 [mm/s]
G1 F10417.6
G1 X124.03 Y117.08 E0.2882
G1 F900
G1 E1.2882
G1 F4687.9
G1 X124.13 Y117.08 E1.2892
G1 X124.22 Y117 E1.2905
G1 X124.4 Y117 E1.2924
G1 X124.57 Y116.82 E1.295
G1 X124.75 Y116.82 E1.2968
G1 X125.02 Y116.56 E1.3007
G1 X125.2 Y116.57 E1.3026
G1 X125.38 Y116.4 E1.3052
G1 X125.38 Y116.22 E1.3071
G1 X125.41 Y116.07 E1.3087
G1 X125.58 Y116.06 E1.3104
G1 X125.61 Y116.21 E1.312
G1 X125.61 Y118.92 E1.3402
G1 X125.63 Y119.2 E1.3431
G1 X125.69 Y119.31 E1.3444
G1 X125.9 Y119.38 E1.3467
G1 X125.97 Y119.38 E1.3475
G1 X137.29 Y119.38 E1.4651
G1 X137.38 Y119.37 E1.4661
G1 X137.49 Y119.31 E1.4674
G1 X137.6 Y119.06 E1.4702
G1 X137.6 Y116.06 E1.5014
G1 X137.71 Y116 E1.5028
G1 X137.99 Y116.03 E1.5056
G1 X137.99 Y122.28 E1.5706
G1 X137.92 Y122.28 E1.5713
G1 X137.8 Y122.23 E1.5727
G1 X137.58 Y122.23 E1.5749
G1 X137.5 Y122.17 E1.5759
G1 X137.48 Y121.84 E1.5794
G1 X137.39 Y121.75 E1.5807
G1 X137.4 Y121.57 E1.5826
G1 X137.31 Y121.48 E1.5839
G1 X137.13 Y121.49 E1.5858
G1 X136.5 Y120.87 E1.5949
G1 X125.37 Y120.87 E1.7106
G1 X125.28 Y120.78 E1.7119
G1 X124.92 Y120.78 E1.7156
G1 X124.84 Y120.69 E1.7169
G1 X124.66 Y120.7 E1.7188
G1 X124.57 Y120.61 E1.7201
;
; 'Loop', 28.0 [RPM], 56.0 [mm/s]
G1 F10417.6
G1 X124.02 Y117.09 E1.7201
G1 F3362
G1 X124.14 Y117.1 E1.7214
G1 X124.23 Y117.01 E1.7227
G1 X124.41 Y117.01 E1.7245
G1 X124.59 Y116.84 E1.7271
G1 X124.77 Y116.84 E1.729
G1 X125.05 Y116.59 E1.7329
G1 X125.1 Y116.65 E1.7338
G1 X125.11 Y119.01 E1.7584
G1 X125.14 Y119.33 E1.7617
G1 X125.26 Y119.57 E1.7644
G1 X125.43 Y119.74 E1.767
G1 X125.67 Y119.86 E1.7698
G1 X126 Y119.89 E1.7732
G1 X137.31 Y119.89 E1.8908
G1 X137.48 Y119.89 E1.8925
G1 X137.48 Y121.6 E1.9103
G1 X137.44 Y121.73 E1.9117
G1 X137.42 Y121.72 E1.912
G1 X137.42 Y121.54 E1.9138
G1 X137.33 Y121.46 E1.9151
G1 X137.15 Y121.47 E1.917
G1 X136.52 Y120.86 E1.9261
G1 X125.38 Y120.86 E2.0418
G1 X125.29 Y120.77 E2.0431
G1 X124.94 Y120.77 E2.0468
G1 X124.85 Y120.68 E2.0481
G1 X124.67 Y120.68 E2.05
G1 X124.58 Y120.59 E2.0513
;
; 'Wipe', 0.0 [RPM], 46.9 [mm/s]
G1 F10417.6
G1 X124.58 Y120.59 E2.0513
G1 F900
G1 E1.0513
G1 F2812.8
G1 X124.67 Y120.68 E1.0513
G1 X124.85 Y120.68 E1.0513
G1 X124.94 Y120.77 E1.0513
G1 X125.29 Y120.77 E1.0513
G1 X125.38 Y120.86 E1.0513
G1 X129.49 Y120.86 E1.0513
;
; 'Perimeter', 39.0 [RPM], 78.1 [mm/s]
G1 F10417.6
G1 X115.23 Y123.05 E1.0513
G1 F900
G1 E2.0513
G1 F4687.9
G1 X115.22 Y123.2 E2.0528
G1 X115.21 Y123.54 E2.0564
G1 X115.12 Y123.63 E2.0577
G1 X115.11 Y123.98 E2.0614
G1 X115.03 Y124.07 E2.0626
G1 X115.02 Y124.6 E2.0681
;
; 'Loop', 28.0 [RPM], 56.0 [mm/s]
G1 F10417.6
G1 X115.14 Y123.65 E2.0681
G1 F3362
G1 X115.33 Y123.48 E2.0707
G1 X115.51 Y123.47 E2.0727
G1 X115.93 Y123.38 E2.0772
G1 X136.09 Y123.38 E2.2866
G1 X138.06 Y123.38 E2.3071
G1 X138.48 Y123.48 E2.3116
G1 X138.66 Y123.48 E2.3135
G1 X138.83 Y123.48 E2.3152
G1 X138.84 Y123.48 E2.3154
G1 X138.85 Y123.65 E2.3171
G1 X138.94 Y123.74 E2.3184
G1 X138.94 Y123.91 E2.3202
G1 X139.03 Y124 E2.3215
G1 X139.04 Y124.34 E2.3251
G1 X139.13 Y124.43 E2.3264
G1 X139.13 Y124.61 E2.3283
;
; 'Wipe', 0.0 [RPM], 46.9 [mm/s]
G1 F10417.6
G1 X139.13 Y124.61 E2.3283
G1 F900
G1 E1.3283
G1 F2812.8
G1 X139.13 Y124.43 E1.3283
G1 X139.04 Y124.34 E1.3283
G1 X139.03 Y124 E1.3283
G1 X138.94 Y123.91 E1.3283
G1 X138.94 Y123.74 E1.3283
G1 X138.85 Y123.65 E1.3283
G1 X138.84 Y123.48 E1.3283
G1 X138.83 Y123.48 E1.3283
G1 X138.48 Y123.48 E1.3283
G1 X138.06 Y123.38 E1.3283
G1 X136.09 Y123.38 E1.3283
G1 X135.05 Y123.38 E1.3283
;
; 'Perimeter', 39.0 [RPM], 78.1 [mm/s]
G1 F10417.6
G1 X115.93 Y108.03 E1.3283
G1 F900
G1 E2.3283
G1 F4687.9
G1 X115.93 Y121.82 E2.4716
G1 X116.09 Y122.02 E2.4742
G1 X116.37 Y122.23 E2.4779
G1 X116.56 Y122.25 E2.4799
G1 X116.76 Y122.09 E2.4826
G1 X116.77 Y121.92 E2.4843
G1 X116.95 Y121.75 E2.4869
G1 X116.95 Y121.57 E2.4888
G1 X117.04 Y121.49 E2.4901
G1 X117.04 Y121.31 E2.4919
G1 X117.66 Y120.7 E2.501
;
; 'Loop', 28.0 [RPM], 56.0 [mm/s]
G1 F10417.6
G1 X116.44 Y108.16 E2.501
G1 F3362
G1 X116.57 Y108.11 E2.5024
G1 X136.53 Y108.11 E2.7099
G1 X136.6 Y108.22 E2.7112
G1 X136.6 Y110.11 E2.7308
G1 X126.05 Y110.11 E2.8404
G1 X125.67 Y110.14 E2.8444
G1 X125.43 Y110.25 E2.8472
G1 X125.18 Y110.54 E2.8511
G1 X125.11 Y110.99 E2.8559
G1 X125.1 Y113.35 E2.8805
G1 X125.05 Y113.41 E2.8813
G1 X124.77 Y113.16 E2.8852
G1 X124.59 Y113.16 E2.8871
G1 X124.41 Y112.99 E2.8897
G1 X124.23 Y112.99 E2.8916
G1 X124.14 Y112.9 E2.8929
G1 X123.96 Y112.9 E2.8947
;
; 'Loop', 28.0 [RPM], 56.0 [mm/s]
G1 F10417.6
G1 X116.44 Y108.23 E2.8947
G1 F3362
G1 X116.44 Y121.66 E3.0344
G1 X116.55 Y121.73 E3.0357
G1 X116.81 Y121.82 E3.0386
G1 X116.93 Y121.72 E3.0401
G1 X116.93 Y121.55 E3.0419
G1 X117.02 Y121.47 E3.0432
G1 X117.03 Y121.29 E3.045
G1 X117.65 Y120.68 E3.0541
;
; 'Wipe', 0.0 [RPM], 46.9 [mm/s]
G1 F10417.6
G1 X117.65 Y120.68 E3.0541
G1 F900
G1 E2.0541
G1 F2812.8
G1 X117.03 Y121.29 E2.0541
G1 X117.02 Y121.47 E2.0541
G1 X116.93 Y121.55 E2.0541
G1 X116.93 Y121.72 E2.0541
G1 X116.81 Y121.82 E2.0541
G1 X116.55 Y121.73 E2.0541
G1 X116.44 Y121.66 E2.0541
G1 X116.44 Y118.48 E2.0541
;
; 'Perimeter', 39.0 [RPM], 78.1 [mm/s]
G1 F10417.6
G1 X115.93 Y108.01 E2.0541
G1 F900
G1 E3.0541
G1 F4687.9
G1 X115.93 Y107.65 E3.0578
G1 X116.07 Y107.61 E3.0593
G1 X137.03 Y107.61 E3.2772
G1 X137.11 Y107.72 E3.2785
G1 X137.1 Y110.61 E3.3086
G1 X126.08 Y110.61 E3.4232
G1 X125.8 Y110.62 E3.4261
G1 X125.68 Y110.68 E3.4275
G1 X125.61 Y110.97 E3.4305
G1 X125.61 Y111.08 E3.4317
G1 X125.61 Y113.79 E3.4599
G1 X125.58 Y113.94 E3.4614
G1 X125.41 Y113.93 E3.4632
G1 X125.38 Y113.78 E3.4648
G1 X125.38 Y113.6 E3.4667
G1 X125.2 Y113.43 E3.4693
G1 X125.02 Y113.44 E3.4712
G1 X124.75 Y113.18 E3.4751
G1 X124.57 Y113.18 E3.4769
G1 X124.4 Y113 E3.4795
G1 X124.22 Y113 E3.4814
G1 X124.13 Y112.92 E3.4827
G1 X123.95 Y112.92 E3.4845
;
; 'Solid', 23.4 [RPM], 46.9 [mm/s]
G1 F10417.6
G1 X123.36 Y116.14 E3.4845
G1 F2812.8
G1 X116.96 Y109.74 E3.5786
G1 X116.96 Y109.03 E3.586
G1 X123.28 Y115.36 E3.679
G1 X123.28 Y114.65 E3.6863
G1 X117.26 Y108.63 E3.7748
G1 X117.97 Y108.63 E3.7822
G1 X123.28 Y113.94 E3.8603
G1 X123.28 Y113.23 E3.8677
G1 X118.68 Y108.63 E3.9354
G1 X119.38 Y108.63 E3.9427
G1 X123.64 Y112.89 E4.0053
G1 X124.31 Y112.85 E4.0123
G1 X120.09 Y108.63 E4.0744
G1 X120.8 Y108.63 E4.0817
G1 X124.59 Y112.42 E4.1375
G1 X124.59 Y111.71 E4.1448
G1 X121.51 Y108.63 E4.1902
G1 X122.21 Y108.63 E4.1976
G1 X124.6 Y111.02 E4.2327
G1 X124.68 Y110.39 E4.2392
G1 X122.92 Y108.63 E4.2651
G1 X123.63 Y108.63 E4.2725
G1 X124.97 Y109.97 E4.2921
G1 X125.4 Y109.69 E4.2975
G1 X124.33 Y108.63 E4.3131
G1 X125.04 Y108.63 E4.3205
G1 X126.01 Y109.6 E4.3347
G1 X126.72 Y109.6 E4.3421
G1 X125.75 Y108.63 E4.3563
G1 X126.46 Y108.63 E4.3636
G1 X127.42 Y109.6 E4.3779
G1 X128.13 Y109.6 E4.3852
G1 X127.16 Y108.63 E4.3994
G1 X127.87 Y108.63 E4.4068
G1 X128.84 Y109.6 E4.421
G1 X129.55 Y109.6 E4.4284
G1 X128.58 Y108.63 E4.4426
G1 X129.28 Y108.63 E4.45
G1 X130.25 Y109.6 E4.4642
G1 X130.96 Y109.6 E4.4715
G1 X129.99 Y108.63 E4.4858
G1 X130.7 Y108.63 E4.4931
G1 X131.67 Y109.6 E4.5073
G1 X132.37 Y109.6 E4.5147
G1 X131.41 Y108.63 E4.5289
G1 X132.11 Y108.63 E4.5363
G1 X133.08 Y109.6 E4.5505
G1 X133.79 Y109.6 E4.5578
G1 X132.82 Y108.63 E4.5721
G1 X133.53 Y108.63 E4.5794
G1 X134.49 Y109.6 E4.5936
G1 X135.2 Y109.6 E4.601
G1 X134.23 Y108.63 E4.6152
G1 X134.94 Y108.63 E4.6226
G1 X135.93 Y109.61 E4.637
G1 X136.11 Y109.09 E4.6428
G1 X135.57 Y108.55 E4.6507
;
; 'Wipe', 0.0 [RPM], 46.9 [mm/s]
G1 F10417.6
G1 X135.57 Y108.55 E4.6507
G1 F900
G1 E3.6507
G1 F2812.8
G1 X136.11 Y109.09 E3.6507
G1 X135.93 Y109.61 E3.6507
G1 X134.94 Y108.63 E3.6507
G1 X134.23 Y108.63 E3.6507
G1 X135.2 Y109.6 E3.6507
G1 X134.49 Y109.6 E3.6507
;
; 'Solid', 23.4 [RPM], 46.9 [mm/s]
G1 F10417.6
G1 X136.03 Y120.32 E3.6507
G1 F900
G1 E4.6507
G1 F2812.8
G1 X136.99 Y121.29 E4.6648
;
; 'Solid', 23.4 [RPM], 46.9 [mm/s]
G1 F10417.6
G1 X135.69 Y120.69 E4.6648
G1 F2812.8
G1 X135.37 Y120.37 E4.6695
G1 X134.93 Y120.64 E4.6749
G1 X134.61 Y120.32 E4.6796
G1 X134.28 Y120.69 E4.6848
G1 X133.96 Y120.37 E4.6895
G1 X133.52 Y120.64 E4.6948
G1 X133.2 Y120.32 E4.6995
G1 X132.87 Y120.69 E4.7047
G1 X132.55 Y120.37 E4.7094
G1 X132.11 Y120.64 E4.7148
G1 X131.79 Y120.32 E4.7195
G1 X131.45 Y120.69 E4.7247
G1 X131.13 Y120.37 E4.7294
G1 X130.69 Y120.64 E4.7348
G1 X130.37 Y120.32 E4.7395
G1 X130.04 Y120.69 E4.7447
G1 X129.72 Y120.37 E4.7494
G1 X129.28 Y120.64 E4.7547
G1 X128.96 Y120.32 E4.7594
G1 X128.62 Y120.69 E4.7646
G1 X128.3 Y120.37 E4.7693
G1 X127.86 Y120.64 E4.7747
G1 X127.54 Y120.32 E4.7794
G1 X127.21 Y120.69 E4.7846
G1 X126.89 Y120.37 E4.7893
G1 X126.45 Y120.64 E4.7946
G1 X126.13 Y120.32 E4.7993
G1 X125.8 Y120.69 E4.8045
G1 X125.16 Y120.06 E4.8139
;
; 'Solid', 23.4 [RPM], 46.9 [mm/s]
G1 F10417.6
G1 X124.31 Y117.09 E4.8139
G1 F2812.8
G1 X124.59 Y117.37 E4.8181
G1 X124.59 Y118.08 E4.8254
G1 X116.96 Y110.44 E4.9377
G1 X116.96 Y111.15 E4.945
G1 X124.56 Y118.75 E5.0568
G1 X124.83 Y119.73 E5.0674
G1 X116.96 Y111.86 E5.1832
G1 X116.96 Y112.56 E5.1905
G1 X124.99 Y120.6 E5.3086
G1 X123.95 Y120.26 E5.32
G1 X116.96 Y113.27 E5.4227
G1 X116.96 Y113.98 E5.4301
G1 X123.28 Y120.3 E5.523
G1 X122.57 Y120.3 E5.5304
G1 X116.96 Y114.68 E5.6129
G1 X116.96 Y115.39 E5.6203
G1 X121.87 Y120.3 E5.6924
G1 X121.16 Y120.3 E5.6998
G1 X116.96 Y116.1 E5.7615
G1 X116.96 Y116.81 E5.7689
G1 X120.45 Y120.3 E5.8202
G1 X119.74 Y120.3 E5.8276
G1 X116.96 Y117.51 E5.8686
G1 X116.96 Y118.22 E5.8759
G1 X119.04 Y120.3 E5.9065
G1 X118.33 Y120.3 E5.9138
G1 X116.96 Y118.93 E5.934
G1 X116.96 Y119.63 E5.9414
G1 X117.64 Y120.32 E5.9514
G1 X117.26 Y120.65 E5.9566
G1 X116.96 Y120.34 E5.9611
G1 X116.88 Y120.97 E5.9677
;
; 'Wipe', 0.0 [RPM], 46.9 [mm/s]
G1 F10417.6
G1 X116.88 Y120.97 E5.9677
G1 F900
G1 E4.9677
G1 F2812.8
G1 X116.96 Y120.34 E4.9677
G1 X117.26 Y120.65 E4.9677
G1 X117.64 Y120.32 E4.9677
G1 X116.96 Y119.63 E4.9677
G1 X116.96 Y118.93 E4.9677
G1 X118.33 Y120.3 E4.9677
;
; 'Stacked Sparse Infill', 46.8 [RPM], 93.8 [mm/s]
G1 F10417.6
G1 X116.56 Y124.19 E4.9677
G1 F900
G1 E5.9677
G1 F5625.5
G1 X116.56 Y124.62 E5.9722
G1 X116.6 Y124.86 E5.9748
G1 X116.71 Y125.04 E5.9769
G1 X117.84 Y126.17 E5.9936
G1 X118.01 Y126.28 E5.9957
G1 X118.26 Y126.31 E5.9983
G1 X120.52 Y126.31 E6.0218
G1 X120.77 Y126.35 E6.0244
G1 X120.95 Y126.46 E6.0266
G1 X122.08 Y127.59 E6.0432
G1 X122.19 Y127.76 E6.0453
G1 X122.22 Y128.01 E6.0479
G1 X122.22 Y130.27 E6.0714
G1 X122.26 Y130.52 E6.074
G1 X122.36 Y130.7 E6.0762
G1 X123.49 Y131.83 E6.0928
G1 X123.67 Y131.94 E6.095
G1 X123.92 Y131.97 E6.0976
G1 X126.18 Y131.97 E6.1211
G1 X126.43 Y132.01 E6.1237
G1 X126.61 Y132.11 E6.1258
G1 X127.74 Y133.24 E6.1425
G1 X127.84 Y133.42 E6.1446
G1 X127.88 Y133.67 E6.1472
G1 X127.88 Y135.93 E6.1707
G1 X127.91 Y136.18 E6.1733
G1 X128.02 Y136.35 E6.1755
G1 X128.94 Y137.27 E6.189
G1 X133.18 Y133.03 E6.2513
G1 X132.26 Y132.11 E6.2648
G1 X132.09 Y132.01 E6.267
G1 X131.84 Y131.97 E6.2696
G1 X129.58 Y131.97 E6.2931
G1 X129.33 Y131.94 E6.2957
G1 X129.15 Y131.83 E6.2978
G1 X128.02 Y130.7 E6.3145
G1 X127.91 Y130.52 E6.3166
G1 X127.88 Y130.27 E6.3192
G1 X127.88 Y128.01 E6.3427
G1 X127.84 Y127.76 E6.3453
G1 X127.74 Y127.59 E6.3475
G1 X126.61 Y126.46 E6.3641
G1 X126.43 Y126.35 E6.3662
G1 X126.18 Y126.31 E6.3688
G1 X123.92 Y126.31 E6.3924
G1 X123.67 Y126.28 E6.395
G1 X123.49 Y126.17 E6.3971
G1 X122.36 Y125.04 E6.4137
G1 X122.26 Y124.86 E6.4159
G1 X122.22 Y124.62 E6.4185
G1 X122.22 Y124.19 E6.423
G1 X127.88 Y124.19 E6.4818
G1 X127.88 Y124.62 E6.4862
G1 X127.91 Y124.86 E6.4888
G1 X128.02 Y125.04 E6.491
G1 X129.15 Y126.17 E6.5076
G1 X129.33 Y126.28 E6.5097
G1 X129.58 Y126.31 E6.5123
G1 X131.84 Y126.31 E6.5359
G1 X132.09 Y126.35 E6.5385
G1 X132.26 Y126.46 E6.5406
G1 X133.39 Y127.59 E6.5572
G1 X133.5 Y127.76 E6.5594
G1 X133.54 Y128.01 E6.562
G1 X133.54 Y130.27 E6.5855
G1 X133.57 Y130.52 E6.5881
G1 X133.68 Y130.7 E6.5902
G1 X134.6 Y131.62 E6.6037
G1 X138.84 Y127.37 E6.6661
G1 X137.92 Y126.46 E6.6796
G1 X137.74 Y126.35 E6.6818
G1 X137.5 Y126.31 E6.6844
G1 X135.23 Y126.31 E6.7079
G1 X134.99 Y126.28 E6.7105
G1 X134.81 Y126.17 E6.7126
G1 X133.68 Y125.04 E6.7293
G1 X133.57 Y124.86 E6.7314
G1 X133.54 Y124.62 E6.734
G1 X133.54 Y124.19 E6.7385
G1 X139.19 Y124.9 E6.7977
G1 X140.25 Y125.96 E6.8133
;
; 'Wipe', 0.0 [RPM], 46.9 [mm/s]
G1 F10417.6
G1 X140.25 Y125.96 E6.8133
G1 F900
G1 E5.8133
G1 F2812.8
G1 X139.19 Y124.9 E5.8133
G1 X135.42 Y124.42 E5.8133
;
; 'Perimeter', 39.0 [RPM], 78.1 [mm/s]
G1 F10417.6
G1 X137.76 Y113.21 E5.8133
G1 F900
G1 E6.8133
G1 F4687.9
G1 X137.99 Y113.44 E6.8167
G1 X137.8 Y113.56 E6.819
G1 X137.8 Y107.78 E6.8791
G1 X137.86 Y107.65 E6.8805
G1 X137.92 Y107.61 E6.8813
G1 X137.99 Y107.72 E6.8826
G1 X137.99 Y113.44 E6.9421
G1 X137.66 Y113.41 E6.9454
;
; 'Wipe', 0.0 [RPM], 46.9 [mm/s]
G1 F10417.6
G1 X137.66 Y113.41 E6.9454
G1 F900
G1 E5.9454
G1 F2812.8
G1 X137.99 Y113.44 E5.9454
G1 X137.99 Y108.67 E5.9454
;
; 'Perimeter', 39.0 [RPM], 78.1 [mm/s]
G1 F10417.6
G1 X135.44 Y112.84 E5.9454
G1 F900
G1 E6.9454
G1 F4687.9
G1 X136.69 Y111.62 E6.9636
G1 X137.07 Y111.29 E6.9688
G1 X137.11 Y111.43 E6.9703
G1 X137.11 Y114.08 E6.9979
G1 X137.04 Y114.27 E7
G1 X136.91 Y114.31 E7.0014
G1 X136.74 Y114.32 E7.0032
G1 X136.66 Y114.41 E7.0045
G1 X136.6 Y114.41 E7.005
G1 X135.78 Y114.42 E7.0136
G1 X135.7 Y114.51 E7.0149
G1 X135.34 Y114.51 E7.0185
;
; 'Wipe', 0.0 [RPM], 46.9 [mm/s]
G1 F10417.6
G1 X135.34 Y114.51 E7.0185
G1 F900
G1 E6.0185
G1 F2812.8
G1 X135.7 Y114.51 E6.0185
G1 X135.78 Y114.42 E6.0185
G1 X136.6 Y114.41 E6.0185
G1 X136.66 Y114.41 E6.0185
G1 X136.74 Y114.32 E6.0185
G1 X136.91 Y114.31 E6.0185
G1 X137.04 Y114.27 E6.0185
G1 X137.11 Y114.08 E6.0185
G1 X137.11 Y111.43 E6.0185
G1 X137.07 Y111.29 E6.0185
G1 X136.87 Y111.45 E6.0185
;
; 'Loop', 28.0 [RPM], 56.0 [mm/s]
G1 F10417.6
G1 X135.45 Y112.85 E6.0185
G1 F900
G1 E7.0185
G1 F3362
G1 X136.6 Y111.75 E7.035
G1 X136.6 Y114 E7.0584
G1 X136.54 Y114.3 E7.0616
G1 X136.46 Y114.39 E7.0628
G1 X135.77 Y114.4 E7.0699
G1 X135.68 Y114.49 E7.0712
G1 X135.33 Y114.5 E7.0749
;
; 'Stacked Sparse Infill', 46.8 [RPM], 93.8 [mm/s]
G1 F10417.6
G1 X134.95 Y115 E7.0749
G1 F5625.5
G1 X133.68 Y113.73 E7.0936
G1 X133.57 Y113.55 E7.0957
