; KISSlicer - FREE
; Linux
; version 1.0.9.7
; Built: Jun 12 2012, 22:45:36
;
; Saved: Sat Nov 17 21:03:48 2012
; 'footbroken_sm(1).gco'
;
; *** Printer Settings ***
;
; printer_name = Series
; extension = gco
; cost_per_hour = 0
; g_code_prefix = 4D333031205032342E37322049302E383820443233312E310A473238200A473020583132302059313135205A3135204631303030300A4739322045300A4731205935205A31352046353030300A4D31303920533138350A47312046313030204535300A4739322045300A473120583530205A302E3320463130303030
; g_code_postfix = 47312059323330204631303030300A4739322045300A473120452D31300A4D3130370A4D3130342053300A4731205A323330204631303030300A4D3834204520582059
; g_code_ext_change = NULL
; post_process = NULL
; num_extruders = 1
; firmware_type = 2
; M104_M109 = 0
; add_comments = 1
; z_speed_mm_per_s = 3.5
; z_settle_mm = 0
; bed_size_x_mm = 260
; bed_size_y_mm = 230
; bed_size_z_mm = 230
; bed_offset_x_mm = 130
; bed_offset_y_mm = 115
; bed_offset_z_mm = 0
; bed_roughness_mm = 0
; travel_speed_mm_per_s = 250
; first_layer_speed_mm_per_s = 25
; lo_speed_perim_mm_per_s = 45
; lo_speed_solid_mm_per_s = 45
; lo_speed_sparse_mm_per_s = 90
; hi_speed_perim_mm_per_s = 180
; hi_speed_solid_mm_per_s = 90
; hi_speed_sparse_mm_per_s = 180
; ext_mm_per_rev_1 = 1.25
; ext_material_1 = 2
; ext_axis_1 = 0
; ext_mm_per_rev_2 = 1.25
; ext_material_2 = 0
; ext_axis_2 = 0
; ext_mm_per_rev_3 = 1.25
; ext_material_3 = 0
; ext_axis_3 = 0
; model_ext = 0
; support_ext = 0
; support_body_ext = 0
; raft_ext = 0
; solid_loop_overlap_fraction = 0.25
;
; *** Material Settings for Extruder 1 ***
;
; material_name = PLA
; fan_off_ISOs_all = 2
; temperature_C = 160
; keep_warm_C = 159
; first_layer_C = 185
; bed_C = 81
; sec_per_C_per_C = 0
; RPM_min = 3
; RPM_max = 180
; destring_suck = 1
; destring_prime = 1
; destring_min_mm = 0
; destring_speed_mm_per_s = 15
; min_layer_time_s = 12
; wipe_mm = 5
; cost_per_cm3 = 0
; flowrate_tweak = 1
; fiber_dia_mm = 1.75
; color = 0
;
; *** Style Settings ***
;
; style_name = Draft
; layer_thickness_mm = 0.3
; extrusion_width_mm = 0.5
; num_loops = 2
; skin_thickness_mm = 1
; infill_extrusion_width = 0.5
; infill_density_denominator = 4
; stacked_layers = 1
; use_destring = 0
; loops_insideout = 1
; round_infill = 0
;
; *** Actual Slicing Settings As Used ***
;
; layer_thickness_mm = 0.3
; extrusion_width = 0.5
; num_ISOs = 2
; wall_thickness = 1
; infill_style = 5
; support_style = 0
; support_angle = 90
; destring_min_mm = 0
; stacked_infill_layers = 1
; ISO_wipe_mm = 5
; raft_style = 0
; extra_raft_depth = 0
; oversample_res_mm = 0.125
; crowning_threshold_mm = 1
; loops_insideout = 1
; sheathed_support = 0
; solid_loop_overlap_fraction = 0.25
; inflate_raft_mm = 0
; inflate_support_mm = 2
; model_support_gap_mm = 0.5
; round_infill = 0
; Speed vs Quality = 0.50
;
; *** Header ***
;
; fan off
M107
; [mm] mode
G21
; absolute mode
G90
; *** User-Supplied G-code Prefix ***
;
M301 P24.72 I0.88 D231.1
G28 
G0 X120 Y115 Z15 F10000
G92 E0
G1 Y5 Z15 F5000
M109 S185
G1 F100 E50
G92 E0
G1 X50 Z0.3 F10000
;
; *** Main G-code ***
;
; Reset extruder pos
G92 E0
; BEGIN_LAYER_OBJECT z=0.30
;
; *** Warming Extruder 1 to 185 C ***
M104 S185
G92 E0
;
;
; 'Loop', 74.8 [RPM], 25.0 [mm/s]
G1 F15000
G1 X115.4 Y123.74 Z0.3 E0
G1 F1500
G1 X115.5 Y123.65 E0.0078
G1 X115.52 Y123.5 E0.0175
G1 X115.87 Y123.5 E0.0396
G1 X116.29 Y123.41 E0.0661
G1 X116.31 Y123.41 E0.0676
G1 X137.53 Y123.41 E1.3905
G1 X137.66 Y123.42 E1.3991
G1 X137.94 Y123.5 E1.4171
G1 X138.15 Y123.51 E1.4303
G1 X138.32 Y123.65 E1.444
G1 X138.33 Y124 E1.4655
G1 X138.42 Y124.08 E1.4733
G1 X138.42 Y124.61 E1.5059
G1 X138.51 Y124.7 E1.5137
;
; 'Perimeter', 74.8 [RPM], 25.0 [mm/s]
G1 F15000
G1 X115.59 Y123.05 E1.5137
G1 F1500
G1 X115.57 Y123.2 E1.5232
G1 X115.48 Y123.28 E1.531
G1 X115.47 Y123.63 E1.5526
G1 X115.38 Y123.72 E1.5604
G1 X115.38 Y124.07 E1.5823
G1 X115.29 Y124.16 E1.5901
G1 X115.29 Y124.33 E1.601
G1 X115.2 Y124.42 E1.6088
G1 X115.2 Y124.6 E1.6198
;
; 'Wipe', 0.0 [RPM], 25.0 [mm/s]
G1 F15000
G1 X115.2 Y124.6 E1.6198
G1 F1500
G1 X115.2 Y124.42 E1.6198
G1 X115.29 Y124.33 E1.6198
G1 X115.29 Y124.16 E1.6198
G1 X115.38 Y124.07 E1.6198
G1 X115.38 Y123.72 E1.6198
G1 X115.47 Y123.63 E1.6198
G1 X115.48 Y123.28 E1.6198
G1 X115.57 Y123.2 E1.6198
G1 X115.59 Y123.05 E1.6198
;
; 'Perimeter', 74.8 [RPM], 25.0 [mm/s]
G1 F15000
G1 X125.78 Y115.05 E1.6198
G1 F1500
G1 X125.79 Y115.38 E1.6409
G1 X125.74 Y115.37 E1.6441
G1 X125.64 Y115.12 E1.661
G1 X125.64 Y114.94 E1.6721
G1 X125.82 Y114.71 E1.6904
G1 X125.86 Y114.72 E1.6928
G1 X125.86 Y114.89 E1.7037
G1 X125.96 Y114.98 E1.7115
G1 X125.96 Y115.02 E1.7143
G1 X125.86 Y115.11 E1.7221
G1 X125.86 Y115.28 E1.7329
G1 X125.79 Y115.38 E1.7408
G1 X125.58 Y115.12 E1.7619
;
; 'Wipe', 0.0 [RPM], 25.0 [mm/s]
G1 F15000
G1 X125.58 Y115.12 E1.7619
G1 F1500
G1 X125.79 Y115.38 E1.7619
G1 X125.86 Y115.28 E1.7619
G1 X125.86 Y115.11 E1.7619
G1 X125.96 Y115.02 E1.7619
G1 X125.96 Y114.98 E1.7619
G1 X125.86 Y114.89 E1.7619
G1 X125.86 Y114.72 E1.7619
G1 X125.82 Y114.71 E1.7619
G1 X125.64 Y114.94 E1.7619
G1 X125.64 Y115.12 E1.7619
G1 X125.74 Y115.37 E1.7619
G1 X125.79 Y115.38 E1.7619
G1 X125.78 Y115.05 E1.7619
;
; 'Loop', 74.8 [RPM], 25.0 [mm/s]
G1 F15000
G1 X137.05 Y121.7 E1.7619
G1 F1500
G1 X117.12 Y121.69 E3.0047
G1 X116.91 Y121.72 E3.0178
G1 X116.9 Y121.56 E3.0282
G1 X116.9 Y108.27 E3.857
G1 X116.95 Y108.14 E3.8655
G1 X136.51 Y108.14 E5.085
G1 X136.58 Y108.24 E5.0929
G1 X136.57 Y110.08 E5.2076
G1 X126.08 Y110.08 E5.8621
G1 X125.71 Y110.1 E5.8854
G1 X125.41 Y110.23 E5.9056
G1 X125.23 Y110.41 E5.9212
G1 X125.12 Y110.65 E5.9377
G1 X125.08 Y111.08 E5.9649
G1 X125.08 Y113.26 E6.1009
G1 X125.07 Y113.43 E6.1115
G1 X124.83 Y113.55 E6.128
G1 X124.63 Y113.7 E6.1437
G1 X124.49 Y113.91 E6.1595
G1 X124.41 Y114.23 E6.1802
G1 X124.41 Y115.77 E6.2764
G1 X124.49 Y116.09 E6.2971
G1 X124.63 Y116.3 E6.3129
G1 X124.83 Y116.46 E6.3286
G1 X125.07 Y116.57 E6.3451
G1 X125.08 Y116.74 E6.3556
G1 X125.08 Y119.03 E6.4988
G1 X125.12 Y119.35 E6.5185
G1 X125.24 Y119.58 E6.535
G1 X125.42 Y119.76 E6.5505
G1 X125.65 Y119.88 E6.567
G1 X125.97 Y119.91 E6.5872
G1 X136.93 Y119.91 E7.2707
G1 X137.06 Y119.96 E7.2791
G1 X137.05 Y121.7 E7.3872
;
; 'Perimeter', 74.8 [RPM], 25.0 [mm/s]
G1 F15000
G1 X137.39 Y121.9 E7.3872
G1 F1500
G1 X137.56 Y122.21 E7.4092
G1 X137.37 Y122.19 E7.4212
G1 X117.15 Y122.19 E8.6822
G1 X117.05 Y122.21 E8.6883
G1 X116.87 Y122.3 E8.7012
G1 X116.51 Y122.3 E8.7234
G1 X116.39 Y122.24 E8.7316
G1 X116.39 Y107.76 E9.6348
G1 X116.45 Y107.64 E9.6432
G1 X137.01 Y107.64 E10.9254
G1 X137.08 Y107.74 E10.9333
G1 X137.08 Y110.59 E11.111
G1 X126.1 Y110.59 E11.7956
G1 X125.78 Y110.6 E11.816
G1 X125.67 Y110.67 E11.824
G1 X125.59 Y110.92 E11.8407
G1 X125.59 Y111.1 E11.852
G1 X125.59 Y113.77 E12.0182
G1 X125.43 Y113.79 E12.0282
G1 X125.26 Y113.9 E12.0409
G1 X125.2 Y113.91 E12.0446
G1 X124.99 Y114.05 E12.0606
G1 X124.91 Y114.26 E12.0742
G1 X124.91 Y114.86 E12.1117
G1 X124.91 Y115.74 E12.1669
G1 X124.92 Y115.84 E12.1727
G1 X124.99 Y115.95 E12.1807
G1 X125.2 Y116.09 E12.1966
G1 X125.55 Y116.09 E12.2182
G1 X125.59 Y116.23 E12.2271
G1 X125.59 Y118.9 E12.3933
G1 X125.61 Y119.22 E12.4133
G1 X125.67 Y119.33 E12.4214
G1 X125.92 Y119.4 E12.4375
G1 X125.95 Y119.4 E12.4393
G1 X137.06 Y119.4 E13.132
G1 X137.29 Y119.55 E13.1493
G1 X137.46 Y119.74 E13.1649
G1 X137.56 Y119.81 E13.1728
G1 X137.56 Y122.21 E13.3222
G1 X137.27 Y122.01 E13.3442
;
; 'Wipe', 0.0 [RPM], 25.0 [mm/s]
G1 F15000
G1 X137.27 Y122.01 E13.3442
G1 F1500
G1 X137.56 Y122.21 E13.3442
G1 X137.56 Y119.81 E13.3442
G1 X137.46 Y119.74 E13.3442
G1 X137.29 Y119.55 E13.3442
G1 X137.06 Y119.4 E13.3442
G1 X135.32 Y119.4 E13.3442
;
; 'Perimeter', 74.8 [RPM], 25.0 [mm/s]
G1 F15000
G1 X115.59 Y123.04 E13.3442
G1 F1500
G1 X115.63 Y123.01 E13.3475
G1 X115.89 Y122.99 E13.3639
G1 X116 Y122.92 E13.372
G1 X116.15 Y123.02 E13.3827
G1 X116.28 Y123.02 E13.3907
G1 X116.44 Y122.91 E13.4029
G1 X137.55 Y122.91 E14.7198
G1 X137.71 Y123.02 E14.732
G1 X137.85 Y123.03 E14.7407
G1 X137.92 Y122.99 E14.7459
G1 X138.18 Y123 E14.762
G1 X138.23 Y123.04 E14.7655
G1 X138.25 Y123.54 E14.797
G1 X138.34 Y123.63 E14.8048
G1 X138.34 Y123.98 E14.8267
G1 X138.43 Y124.07 E14.8345
G1 X138.44 Y124.6 E14.8674
G1 X138.52 Y124.68 E14.8752
;
; 'Wipe', 0.0 [RPM], 25.0 [mm/s]
G1 F15000
G1 X138.52 Y124.68 E14.8752
G1 F1500
G1 X138.44 Y124.6 E14.8752
G1 X138.43 Y124.07 E14.8752
G1 X138.34 Y123.98 E14.8752
G1 X138.34 Y123.63 E14.8752
G1 X138.25 Y123.54 E14.8752
G1 X138.23 Y123.04 E14.8752
G1 X138.18 Y123 E14.8752
G1 X137.92 Y122.99 E14.8752
G1 X137.85 Y123.03 E14.8752
G1 X137.71 Y123.02 E14.8752
G1 X137.55 Y122.91 E14.8752
G1 X135 Y122.91 E14.8752
;
; 'Crown', 74.8 [RPM], 25.0 [mm/s]
G1 F15000
G1 X137.54 Y119.35 E14.8752
G1 F1500
G1 X137.58 Y119.08 E14.8924
G1 X137.6 Y119.06 E14.8939
G1 X137.6 Y116.06 E15.0813
;
; 'Wipe', 0.0 [RPM], 25.0 [mm/s]
G1 F15000
G1 X137.6 Y116.06 E15.0813
G1 F1500
G1 X137.6 Y119.06 E15.0813
G1 X137.58 Y119.08 E15.0813
G1 X137.54 Y119.35 E15.0813
;
; 'Solid', 74.8 [RPM], 25.0 [mm/s]
G1 F15000
G1 X135.76 Y121.26 E15.0813
G1 F1500
G1 X136.55 Y120.47 E15.1508
G1 X135.9 Y120.42 E15.1917
G1 X135.13 Y121.18 E15.2593
G1 X134.42 Y121.18 E15.3034
G1 X135.18 Y120.42 E15.3705
G1 X134.48 Y120.42 E15.4146
G1 X133.72 Y121.18 E15.4817
G1 X133.01 Y121.18 E15.5258
G1 X133.77 Y120.42 E15.5929
G1 X133.06 Y120.42 E15.637
G1 X132.3 Y121.18 E15.7041
G1 X131.6 Y121.18 E15.7482
G1 X132.36 Y120.42 E15.8153
G1 X131.65 Y120.42 E15.8594
G1 X130.89 Y121.18 E15.9265
G1 X130.18 Y121.18 E15.9706
G1 X130.94 Y120.42 E16.0377
G1 X130.24 Y120.42 E16.0818
G1 X129.47 Y121.18 E16.1489
G1 X128.77 Y121.18 E16.193
G1 X129.53 Y120.42 E16.2601
G1 X128.82 Y120.42 E16.3042
G1 X128.06 Y121.18 E16.3713
G1 X127.35 Y121.18 E16.4154
G1 X128.11 Y120.42 E16.4825
G1 X127.41 Y120.42 E16.5266
G1 X126.65 Y121.18 E16.5937
G1 X125.94 Y121.18 E16.6378
G1 X126.7 Y120.42 E16.7049
G1 X125.99 Y120.42 E16.749
G1 X125.23 Y121.18 E16.8162
G1 X124.52 Y121.18 E16.8603
G1 X125.39 Y120.32 E16.9364
G1 X124.96 Y120.04 E16.9683
G1 X123.82 Y121.18 E17.0687
G1 X123.11 Y121.18 E17.1128
G1 X124.67 Y119.62 E17.2502
G1 X124.58 Y119.01 E17.2891
G1 X122.4 Y121.18 E17.481
G1 X121.7 Y121.18 E17.5251
G1 X124.57 Y118.31 E17.7784
G1 X124.57 Y117.6 E17.8225
G1 X120.99 Y121.18 E18.1381
G1 X120.28 Y121.18 E18.1822
G1 X124.55 Y116.91 E18.559
G1 X124.19 Y116.57 E18.5902
G1 X119.57 Y121.18 E18.997
G1 X118.87 Y121.18 E19.0411
G1 X123.94 Y116.11 E19.4881
G1 X123.9 Y115.45 E19.5299
G1 X118.16 Y121.18 E20.0359
G1 X117.45 Y121.18 E20.08
G1 X123.89 Y114.75 E20.6473
G1 X123.95 Y113.98 E20.6954
G1 X117.42 Y120.51 E21.2716
G1 X117.42 Y119.81 E21.3157
G1 X124.57 Y112.65 E21.9464
G1 X124.57 Y111.95 E21.9905
G1 X117.42 Y119.1 E22.6212
G1 X117.42 Y118.39 E22.6653
G1 X124.55 Y111.26 E23.2942
G1 X124.73 Y110.37 E23.3506
G1 X117.42 Y117.68 E23.9954
G1 X117.42 Y116.98 E24.0395
G1 X125.74 Y108.65 E24.7737
G1 X125.03 Y108.65 E24.8178
G1 X117.42 Y116.27 E25.4896
G1 X117.42 Y115.56 E25.5337
G1 X124.33 Y108.65 E26.1432
G1 X123.62 Y108.65 E26.1873
G1 X117.42 Y114.86 E26.7344
G1 X117.42 Y114.15 E26.7785
G1 X122.91 Y108.65 E27.2632
G1 X122.21 Y108.65 E27.3073
G1 X117.42 Y113.44 E27.7297
G1 X117.42 Y112.73 E27.7738
G1 X121.5 Y108.65 E28.1338
G1 X120.79 Y108.65 E28.1779
G1 X117.42 Y112.03 E28.4755
G1 X117.42 Y111.32 E28.5196
G1 X120.08 Y108.65 E28.7549
G1 X119.38 Y108.65 E28.799
G1 X117.42 Y110.61 E28.972
G1 X117.42 Y109.91 E29.0161
G1 X118.67 Y108.65 E29.1266
G1 X117.96 Y108.65 E29.1707
G1 X117.39 Y109.22 E29.2209
;
; 'Solid', 74.8 [RPM], 25.0 [mm/s]
G1 F15000
G1 X125.28 Y109.82 E29.2209
G1 F1500
G1 X126.45 Y108.65 E29.3241
G1 X127.16 Y108.65 E29.3682
G1 X126.24 Y109.57 E29.4492
G1 X126.94 Y109.57 E29.4933
G1 X127.86 Y108.65 E29.5742
G1 X128.57 Y108.65 E29.6183
G1 X127.65 Y109.57 E29.6993
G1 X128.36 Y109.57 E29.7433
G1 X129.28 Y108.65 E29.8243
G1 X129.98 Y108.65 E29.8684
G1 X129.07 Y109.57 E29.9493
G1 X129.77 Y109.57 E29.9934
G1 X130.69 Y108.65 E30.0744
G1 X131.4 Y108.65 E30.1185
G1 X130.48 Y109.57 E30.1994
G1 X131.19 Y109.57 E30.2435
G1 X132.1 Y108.65 E30.3245
G1 X132.81 Y108.65 E30.3686
G1 X131.89 Y109.57 E30.4495
G1 X132.6 Y109.57 E30.4936
G1 X133.52 Y108.65 E30.5746
G1 X134.23 Y108.65 E30.6187
G1 X133.31 Y109.57 E30.6996
G1 X134.02 Y109.57 E30.7437
G1 X134.93 Y108.65 E30.8247
G1 X135.64 Y108.65 E30.8688
G1 X134.72 Y109.57 E30.9497
G1 X135.43 Y109.57 E30.9938
G1 X136.14 Y108.86 E31.0566
;
; 'Wipe', 0.0 [RPM], 25.0 [mm/s]
G1 F15000
G1 X136.14 Y108.86 E31.0566
G1 F1500
G1 X135.43 Y109.57 E31.0566
G1 X134.72 Y109.57 E31.0566
G1 X135.64 Y108.65 E31.0566
G1 X134.93 Y108.65 E31.0566
G1 X134.02 Y109.57 E31.0566
;
; 'Sparse Infill', 74.8 [RPM], 25.0 [mm/s]
G1 F15000
G1 X139.19 Y124.9 E31.0566
G1 F1500
G1 X139.19 Y124.9 E31.0567
G1 X137.78 Y126.31 E31.1815
G1 X134.95 Y126.31 E31.3578
G1 X133.54 Y127.73 E31.4826
G1 X133.54 Y130.56 E31.659
G1 X132.12 Y131.97 E31.7837
G1 X129.29 Y131.97 E31.9601
G1 X127.88 Y133.38 E32.0848
G1 X127.88 Y136.21 E32.2612
G1 X126.82 Y137.27 E32.3547
G1 X122.58 Y133.03 E32.7289
G1 X123.64 Y131.97 E32.8224
G1 X126.46 Y131.97 E32.9988
G1 X127.88 Y130.56 E33.1236
G1 X127.88 Y127.73 E33.3
G1 X129.29 Y126.31 E33.4247
G1 X132.12 Y126.31 E33.6011
G1 X133.54 Y124.9 E33.7258
G1 X133.54 Y124.19 E33.7703
G1 X127.88 Y124.19 E34.1231
G1 X127.88 Y124.9 E34.1676
G1 X126.46 Y126.31 E34.2924
G1 X123.64 Y126.31 E34.4687
G1 X122.22 Y127.73 E34.5935
G1 X122.22 Y130.56 E34.7699
G1 X121.16 Y131.62 E34.8634
G1 X116.92 Y127.37 E35.2376
G1 X117.98 Y126.31 E35.3311
G1 X120.81 Y126.31 E35.5075
G1 X122.22 Y124.9 E35.6322
G1 X122.22 Y124.19 E35.6768
G1 X116.56 Y124.19 E36.0296
G1 X116.56 Y124.9 E36.0741
G1 X115.5 Y125.96 E36.1676
;
; 'Wipe', 0.0 [RPM], 25.0 [mm/s]
G1 F15000
G1 X115.5 Y125.96 E36.1676
G1 F1500
G1 X116.56 Y124.9 E36.1676
G1 X116.56 Y124.19 E36.1676
G1 X119.39 Y124.19 E36.1676
;
; 'Loop', 74.8 [RPM], 25.0 [mm/s]
G1 F15000
G1 X135.45 Y112.85 E36.1676
G1 F1500
G1 X136.58 Y111.78 E36.2646
G1 X136.58 Y113.98 E36.4017
G1 X136.51 Y114.32 E36.4237
G1 X136.46 Y114.38 E36.4288
G1 X135.77 Y114.4 E36.4717
G1 X135.68 Y114.49 E36.4795
G1 X135.33 Y114.5 E36.5014
;
; 'Wipe', 0.0 [RPM], 25.0 [mm/s]
G1 F15000
G1 X135.33 Y114.5 E36.5014
G1 F1500
G1 X135.68 Y114.49 E36.5014
G1 X135.77 Y114.4 E36.5014
G1 X136.46 Y114.38 E36.5014
G1 X136.51 Y114.32 E36.5014
G1 X136.58 Y113.98 E36.5014
G1 X136.58 Y111.78 E36.5014
G1 X135.63 Y112.68 E36.5014
;
; 'Perimeter', 74.8 [RPM], 25.0 [mm/s]
G1 F15000
G1 X135.44 Y112.84 E36.5014
G1 F1500
G1 X136.6 Y111.7 E36.6027
G1 X137.05 Y111.31 E36.6401
G1 X137.08 Y111.45 E36.6494
G1 X137.08 Y114.1 E36.8148
G1 X137.02 Y114.25 E36.8245
G1 X136.91 Y114.31 E36.8326
G1 X136.74 Y114.32 E36.8431
G1 X136.66 Y114.41 E36.8509
G1 X136.61 Y114.41 E36.854
G1 X135.78 Y114.42 E36.9054
G1 X135.69 Y114.51 E36.9132
G1 X135.34 Y114.51 E36.9351
;
; 'Wipe', 0.0 [RPM], 25.0 [mm/s]
G1 F15000
G1 X135.34 Y114.51 E36.9351
G1 F1500
G1 X135.69 Y114.51 E36.9351
G1 X135.78 Y114.42 E36.9351
G1 X136.61 Y114.41 E36.9351
G1 X136.66 Y114.41 E36.9351
G1 X136.74 Y114.32 E36.9351
G1 X136.91 Y114.31 E36.9351
G1 X137.02 Y114.25 E36.9351
G1 X137.08 Y114.1 E36.9351
G1 X137.08 Y111.45 E36.9351
G1 X137.05 Y111.31 E36.9351
G1 X136.79 Y111.53 E36.9351
;
; 'Sparse Infill', 74.8 [RPM], 25.0 [mm/s]
G1 F15000
G1 X134.95 Y115 E36.9351
G1 F1500
G1 X134.95 Y115 E36.9352
G1 X133.54 Y116.41 E37.0599
G1 X133.54 Y116.42 E37.0604
G1 X133.54 Y113.58 E37.2376
G1 X133.54 Y113.59 E37.2381
G1 X132.12 Y115 E37.3628
G1 X129.29 Y115 E37.5392
G1 X128.23 Y116.06 E37.633
;
; 'Wipe', 0.0 [RPM], 25.0 [mm/s]
G1 F15000
G1 X128.23 Y116.06 E37.633
G1 F1500
G1 X129.29 Y115 E37.633
G1 X132.12 Y115 E37.633
G1 X132.83 Y114.29 E37.633
G1 F210
G1 X132.83 Y114.29 Z0.6 E37.633
; END_LAYER_OBJECT z=0.30
; Reset extruder pos
G92 E0
; BEGIN_LAYER_OBJECT z=0.60
;
; *** Warming Extruder 1 to 160 C ***
M104 S160
G92 E0
;
; fan on
M106
;
; 'Perimeter', 180.0 [RPM], 60.1 [mm/s]
G1 F15000
G1 X115.48 Y107.73 E0
G1 F3607.9
G1 X115.57 Y107.64 E0.0078
G1 X137.01 Y107.64 E1.3451
G1 X137.08 Y107.74 E1.353
G1 X137.08 Y110.59 E1.5308
G1 X126.1 Y110.59 E2.2154
G1 X125.78 Y110.6 E2.2357
G1 X125.67 Y110.67 E2.2437
G1 X125.59 Y110.92 E2.2604
G1 X125.59 Y111.1 E2.2717
G1 X125.59 Y113.77 E2.4379
G1 X125.56 Y113.92 E2.4475
G1 X125.43 Y113.91 E2.4558
G1 X125.39 Y113.78 E2.4645
G1 X125.39 Y113.6 E2.4756
G1 X125.2 Y113.43 E2.4912
G1 X125.02 Y113.44 E2.5026
G1 X124.75 Y113.18 E2.526
G1 X124.57 Y113.18 E2.5372
G1 X124.4 Y113 E2.5527
G1 X124.22 Y113 E2.5639
G1 X124.13 Y112.91 E2.5717
G1 X123.95 Y112.92 E2.5828
G1 X123.86 Y112.83 E2.5906
;
; 'Loop', 180.0 [RPM], 60.1 [mm/s]
G1 F15000
G1 X115.99 Y108.33 E2.5906
G1 F3607.9
G1 X115.99 Y121.59 E3.4174
G1 X116.01 Y121.75 E3.4272
G1 X116.13 Y121.8 E3.4355
G1 X116.22 Y121.72 E3.443
G1 X116.22 Y121.55 E3.4538
G1 X117.21 Y120.6 E3.5396
;
; 'Loop', 180.0 [RPM], 60.1 [mm/s]
G1 F15000
G1 X115.99 Y108.23 E3.5396
G1 F3607.9
G1 X116.07 Y108.14 E3.5474
G1 X136.51 Y108.14 E4.822
G1 X136.58 Y108.24 E4.8299
G1 X136.57 Y110.08 E4.9446
G1 X126.08 Y110.08 E5.5991
G1 X125.71 Y110.1 E5.6223
G1 X125.41 Y110.23 E5.6426
G1 X125.23 Y110.41 E5.6582
G1 X125.12 Y110.65 E5.6747
G1 X125.08 Y111.08 E5.7019
G1 X125.08 Y113.38 E5.8452
G1 X125.05 Y113.41 E5.848
G1 X124.77 Y113.16 E5.8714
G1 X124.59 Y113.16 E5.8828
G1 X124.41 Y112.99 E5.8983
G1 X124.23 Y112.99 E5.9096
G1 X124.14 Y112.9 E5.9174
G1 X123.96 Y112.9 E5.9285
G1 X123.87 Y112.82 E5.9363
;
; 'Wipe', 0.0 [RPM], 67.5 [mm/s]
G1 F15000
G1 X123.87 Y112.82 E5.9363
G1 F4050
G1 X123.96 Y112.9 E5.9363
G1 X124.14 Y112.9 E5.9363
G1 X124.23 Y112.99 E5.9363
G1 X124.41 Y112.99 E5.9363
G1 X124.59 Y113.16 E5.9363
G1 X124.77 Y113.16 E5.9363
G1 X125.05 Y113.41 E5.9363
G1 X125.08 Y113.38 E5.9363
G1 X125.08 Y110.97 E5.9363
G1 X125.12 Y110.65 E5.9363
G1 X125.23 Y110.41 E5.9363
G1 X125.41 Y110.23 E5.9363
G1 X125.71 Y110.1 E5.9363
;
; 'Perimeter', 180.0 [RPM], 60.1 [mm/s]
G1 F15000
G1 X115.48 Y107.77 E5.9363
G1 F3607.9
G1 X115.48 Y121.87 E6.8155
G1 X115.65 Y122.1 E6.8332
G1 X115.87 Y122.23 E6.8492
G1 X116.05 Y122.09 E6.8637
G1 X116.06 Y121.92 E6.8743
G1 X116.24 Y121.75 E6.8899
G1 X116.24 Y121.57 E6.9009
G1 X117.22 Y120.61 E6.9867
;
; 'Wipe', 0.0 [RPM], 67.5 [mm/s]
G1 F15000
G1 X117.22 Y120.61 E6.9867
G1 F4050
G1 X116.24 Y121.57 E6.9867
G1 X116.24 Y121.75 E6.9867
G1 X116.06 Y121.92 E6.9867
G1 X116.05 Y122.09 E6.9867
G1 X115.87 Y122.23 E6.9867
G1 X115.65 Y122.1 E6.9867
G1 X115.48 Y121.87 E6.9867
G1 X115.48 Y119.62 E6.9867
;
; 'Loop', 180.0 [RPM], 60.1 [mm/s]
G1 F15000
G1 X114.7 Y123.74 E6.9867
G1 F3607.9
G1 X114.79 Y123.65 E6.9945
G1 X114.81 Y123.5 E7.0041
G1 X115.16 Y123.5 E7.026
G1 X115.58 Y123.41 E7.0525
G1 X138.23 Y123.41 E8.4651
G1 X138.59 Y123.41 E8.4872
G1 X139 Y123.5 E8.5136
G1 X139.22 Y123.51 E8.5271
G1 X139.35 Y123.5 E8.5357
G1 X139.38 Y123.65 E8.5454
G1 X139.47 Y123.74 E8.5532
G1 X139.48 Y124.08 E8.5748
G1 X139.57 Y124.17 E8.5826
G1 X139.57 Y124.52 E8.6043
G1 X139.66 Y124.61 E8.6121
;
; 'Wipe', 0.0 [RPM], 67.5 [mm/s]
G1 F15000
G1 X139.66 Y124.61 E8.6121
G1 F4050
G1 X139.57 Y124.52 E8.6121
G1 X139.57 Y124.17 E8.6121
G1 X139.48 Y124.08 E8.6121
G1 X139.47 Y123.74 E8.6121
G1 X139.38 Y123.65 E8.6121
G1 X139.35 Y123.5 E8.6121
G1 X139 Y123.5 E8.6121
G1 X138.59 Y123.41 E8.6121
G1 X138.23 Y123.41 E8.6121
G1 X135.58 Y123.41 E8.6121
;
; 'Perimeter', 180.0 [RPM], 60.1 [mm/s]
G1 F15000
G1 X114.88 Y123.05 E8.6121
G1 F3607.9
G1 X114.86 Y123.37 E8.6323
G1 X114.77 Y123.46 E8.6401
G1 X114.76 Y123.63 E8.6509
G1 X114.68 Y123.72 E8.6587
G1 X114.67 Y124.07 E8.6806
G1 X114.58 Y124.16 E8.6884
G1 X114.58 Y124.51 E8.7103
G1 X114.49 Y124.6 E8.7181
;
; 'Wipe', 0.0 [RPM], 67.5 [mm/s]
G1 F15000
G1 X114.49 Y124.6 E8.7181
G1 F4050
G1 X114.58 Y124.51 E8.7181
G1 X114.58 Y124.16 E8.7181
G1 X114.67 Y124.07 E8.7181
G1 X114.68 Y123.72 E8.7181
G1 X114.76 Y123.63 E8.7181
G1 X114.77 Y123.46 E8.7181
G1 X114.86 Y123.37 E8.7181
G1 X114.88 Y123.05 E8.7181
;
; 'Loop', 180.0 [RPM], 60.1 [mm/s]
G1 F15000
G1 X123.87 Y117.18 E8.7181
G1 F3607.9
G1 X123.96 Y117.1 E8.7259
G1 X124.14 Y117.1 E8.7371
G1 X124.23 Y117.01 E8.7449
G1 X124.41 Y117.01 E8.7561
G1 X124.59 Y116.84 E8.7717
G1 X124.77 Y116.84 E8.783
G1 X125.05 Y116.59 E8.8064
G1 X125.08 Y116.62 E8.8092
G1 X125.08 Y119.03 E8.9597
G1 X125.12 Y119.35 E8.9794
G1 X125.24 Y119.58 E8.9959
G1 X125.42 Y119.76 E9.0115
G1 X125.65 Y119.88 E9.028
G1 X125.97 Y119.91 E9.0481
G1 X137.29 Y119.91 E9.7537
G1 X137.66 Y119.83 E9.7773
G1 X137.82 Y119.91 E9.7885
G1 X137.91 Y120 E9.7963
G1 X138.02 Y120.07 E9.8043
G1 X138.02 Y121.6 E9.9002
G1 X137.77 Y121.37 E9.9212
G1 X137.59 Y121.38 E9.9326
G1 X137.05 Y120.86 E9.9793
G1 X125.38 Y120.86 E10.707
G1 X125.29 Y120.77 E10.7148
G1 X124.94 Y120.77 E10.737
G1 X124.85 Y120.68 E10.7448
G1 X124.67 Y120.68 E10.7559
G1 X124.58 Y120.59 E10.7637
;
; 'Perimeter', 180.0 [RPM], 60.1 [mm/s]
G1 F15000
G1 X123.86 Y117.17 E10.7637
G1 F3607.9
G1 X123.95 Y117.08 E10.7715
G1 X124.13 Y117.09 E10.7826
G1 X124.22 Y117 E10.7904
G1 X124.4 Y117 E10.8016
G1 X124.57 Y116.82 E10.8171
G1 X124.75 Y116.82 E10.8283
G1 X125.02 Y116.56 E10.8517
G1 X125.2 Y116.57 E10.8631
G1 X125.39 Y116.4 E10.8787
G1 X125.39 Y116.22 E10.8898
G1 X125.43 Y116.09 E10.8985
G1 X125.56 Y116.08 E10.9067
G1 X125.59 Y116.23 E10.9162
G1 X125.59 Y118.9 E11.0824
G1 X125.61 Y119.22 E11.1024
G1 X125.67 Y119.33 E11.1105
G1 X125.92 Y119.4 E11.1266
G1 X125.95 Y119.4 E11.1284
G1 X137.26 Y119.4 E11.834
G1 X137.4 Y119.4 E11.8426
G1 X137.51 Y119.33 E11.8506
G1 X137.63 Y119.04 E11.8704
G1 X137.63 Y118.21 E11.9218
G1 X137.63 Y116.09 E12.054
G1 X137.74 Y116.02 E12.062
G1 X138.52 Y116.03 E12.1106
G1 X138.52 Y121.86 E12.4744
G1 X138.33 Y122.1 E12.4931
G1 X138.18 Y122.2 E12.5048
G1 X138.09 Y122.2 E12.5104
G1 X138.04 Y122.17 E12.5144
G1 X138.02 Y121.83 E12.5352
G1 X137.93 Y121.75 E12.543
G1 X137.93 Y121.57 E12.5541
G1 X137.75 Y121.39 E12.5697
G1 X137.57 Y121.4 E12.5809
G1 X137.03 Y120.87 E12.6277
G1 X125.37 Y120.87 E13.3553
G1 X125.28 Y120.78 E13.3631
G1 X124.92 Y120.78 E13.3853
G1 X124.84 Y120.69 E13.3931
G1 X124.66 Y120.7 E13.4042
G1 X124.57 Y120.61 E13.412
;
; 'Wipe', 0.0 [RPM], 67.5 [mm/s]
G1 F15000
G1 X124.57 Y120.61 E13.412
G1 F4050
G1 X124.66 Y120.7 E13.412
G1 X124.84 Y120.69 E13.412
G1 X124.92 Y120.78 E13.412
G1 X125.28 Y120.78 E13.412
G1 X125.37 Y120.87 E13.412
G1 X129.51 Y120.87 E13.412
;
; 'Perimeter', 180.0 [RPM], 60.1 [mm/s]
G1 F15000
G1 X125.78 Y115.05 E13.412
G1 F3607.9
G1 X125.79 Y115.38 E13.4331
G1 X125.74 Y115.37 E13.4363
G1 X125.64 Y115.12 E13.4532
G1 X125.64 Y114.94 E13.4643
G1 X125.82 Y114.71 E13.4826
G1 X125.86 Y114.72 E13.485
G1 X125.86 Y114.89 E13.4959
G1 X125.96 Y114.98 E13.5037
G1 X125.96 Y115.02 E13.5065
G1 X125.86 Y115.11 E13.5143
G1 X125.86 Y115.28 E13.5251
G1 X125.79 Y115.38 E13.533
G1 X125.58 Y115.12 E13.5541
;
; 'Wipe', 0.0 [RPM], 67.5 [mm/s]
G1 F15000
G1 X125.58 Y115.12 E13.5541
G1 F4050
G1 X125.79 Y115.38 E13.5541
G1 X125.86 Y115.28 E13.5541
G1 X125.86 Y115.11 E13.5541
G1 X125.96 Y115.02 E13.5541
G1 X125.96 Y114.98 E13.5541
G1 X125.86 Y114.89 E13.5541
G1 X125.86 Y114.72 E13.5541
G1 X125.82 Y114.71 E13.5541
G1 X125.64 Y114.94 E13.5541
G1 X125.64 Y115.12 E13.5541
G1 X125.74 Y115.37 E13.5541
G1 X125.79 Y115.38 E13.5541
G1 X125.78 Y115.05 E13.5541
;
; 'Perimeter', 180.0 [RPM], 60.1 [mm/s]
G1 F15000
G1 X114.88 Y123.04 E13.5541
G1 F3607.9
G1 X114.92 Y123.01 E13.5573
G1 X115.18 Y122.99 E13.5737
G1 X115.38 Y122.91 E13.5867
G1 X138.71 Y122.91 E15.0419
G1 X138.79 Y122.91 E15.0469
G1 X138.87 Y122.92 E15.052
G1 X138.98 Y122.99 E15.06
G1 X139.24 Y123.01 E15.0765
G1 X139.29 Y123.04 E15.0798
G1 X139.3 Y123.2 E15.0899
G1 X139.39 Y123.28 E15.0977
G1 X139.4 Y123.63 E15.1193
G1 X139.49 Y123.72 E15.1271
G1 X139.49 Y124.07 E15.1489
G1 X139.58 Y124.16 E15.1567
G1 X139.58 Y124.51 E15.1787
G1 X139.67 Y124.6 E15.1865
;
; 'Wipe', 0.0 [RPM], 67.5 [mm/s]
G1 F15000
G1 X139.67 Y124.6 E15.1865
G1 F4050
G1 X139.58 Y124.51 E15.1865
G1 X139.58 Y124.16 E15.1865
G1 X139.49 Y124.07 E15.1865
G1 X139.49 Y123.72 E15.1865
G1 X139.4 Y123.63 E15.1865
G1 X139.39 Y123.28 E15.1865
G1 X139.3 Y123.2 E15.1865
G1 X139.29 Y123.04 E15.1865
G1 X139.24 Y123.01 E15.1865
G1 X138.98 Y122.99 E15.1865
G1 X138.79 Y122.91 E15.1865
G1 X138.71 Y122.91 E15.1865
G1 X135.96 Y122.91 E15.1865
;
; 'Crown', 180.0 [RPM], 60.1 [mm/s]
G1 F15000
G1 X137.98 Y119.62 E15.1865
G1 F3607.9
G1 X138.03 Y119.5 E15.1949
G1 X138.03 Y119.34 E15.2043
G1 X138.05 Y119.34 E15.2055
G1 X138.06 Y119.17 E15.2156
G1 X138.05 Y119.15 E15.2176
G1 X138.07 Y119 E15.2264
G1 X138.07 Y116.48 E15.3841
G1 X138.13 Y116.41 E15.3895
;
; 'Wipe', 0.0 [RPM], 67.5 [mm/s]
G1 F15000
G1 X138.13 Y116.41 E15.3895
G1 F4050
G1 X138.07 Y116.48 E15.3895
G1 X138.07 Y119 E15.3895
G1 X138.05 Y119.15 E15.3895
G1 X138.06 Y119.17 E15.3895
G1 X138.05 Y119.34 E15.3895
G1 X138.03 Y119.34 E15.3895
G1 X138.03 Y119.5 E15.3895
G1 X137.98 Y119.62 E15.3895
;
; 'Solid', 180.0 [RPM], 60.1 [mm/s]
G1 F15000
G1 X136.81 Y120.4 E15.3895
G1 F3607.9
G1 X137.58 Y121.16 E15.457
;
; 'Solid', 180.0 [RPM], 60.1 [mm/s]
G1 F15000
G1 X136.35 Y120.64 E15.457
G1 F3607.9
G1 X136.05 Y120.35 E15.4827
G1 X135.69 Y120.69 E15.5139
G1 X135.4 Y120.4 E15.5396
G1 X134.93 Y120.64 E15.5724
G1 X134.64 Y120.35 E15.5982
G1 X134.28 Y120.69 E15.6294
G1 X133.99 Y120.4 E15.6551
G1 X133.52 Y120.64 E15.6879
G1 X133.23 Y120.35 E15.7136
G1 X132.86 Y120.69 E15.7448
G1 X132.57 Y120.4 E15.7706
G1 X132.1 Y120.64 E15.8033
G1 X131.81 Y120.35 E15.8291
G1 X131.45 Y120.69 E15.8603
G1 X131.16 Y120.4 E15.886
G1 X130.69 Y120.64 E15.9188
G1 X130.4 Y120.35 E15.9445
G1 X130.03 Y120.69 E15.9757
G1 X129.74 Y120.4 E16.0015
G1 X129.27 Y120.64 E16.0342
G1 X128.98 Y120.35 E16.06
G1 X128.62 Y120.69 E16.0912
G1 X128.33 Y120.4 E16.1169
G1 X127.86 Y120.64 E16.1497
G1 X127.57 Y120.35 E16.1754
G1 X127.21 Y120.69 E16.2066
G1 X126.91 Y120.4 E16.2324
G1 X126.45 Y120.64 E16.2652
G1 X126.15 Y120.35 E16.2909
G1 X125.79 Y120.69 E16.3221
G1 X125.24 Y120.14 E16.3705
;
; 'Solid', 180.0 [RPM], 60.1 [mm/s]
G1 F15000
G1 X124.31 Y117.09 E16.3705
G1 F3607.9
G1 X124.57 Y117.35 E16.3932
G1 X124.57 Y118.05 E16.4373
G1 X116.5 Y109.98 E17.1491
G1 X116.5 Y110.69 E17.1932
G1 X124.54 Y118.73 E17.9027
G1 X124.76 Y119.66 E17.9616
G1 X116.5 Y111.4 E18.69
G1 X116.5 Y112.1 E18.7341
G1 X124.99 Y120.6 E19.4829
G1 X123.95 Y120.26 E19.5513
G1 X116.5 Y112.81 E20.2081
G1 X116.5 Y113.52 E20.2522
G1 X123.28 Y120.3 E20.8503
G1 X122.57 Y120.3 E20.8944
G1 X116.5 Y114.23 E21.4301
G1 X116.5 Y114.93 E21.4742
G1 X121.87 Y120.3 E21.9476
G1 X121.16 Y120.3 E21.9917
G1 X116.5 Y115.64 E22.4027
G1 X116.5 Y116.35 E22.4468
G1 X120.45 Y120.3 E22.7955
G1 X119.74 Y120.3 E22.8396
G1 X116.5 Y117.05 E23.1259
G1 X116.5 Y117.76 E23.17
G1 X119.04 Y120.3 E23.3939
G1 X118.33 Y120.3 E23.438
G1 X116.5 Y118.47 E23.5995
G1 X116.5 Y119.18 E23.6436
G1 X117.62 Y120.3 E23.7426
G1 X116.89 Y120.27 E23.7882
G1 X116.5 Y119.88 E23.8227
G1 X116.5 Y120.59 E23.8668
G1 X116.53 Y120.62 E23.8696
;
; 'Solid', 180.0 [RPM], 60.1 [mm/s]
G1 F15000
G1 X123.36 Y116.14 E23.8696
G1 F3607.9
G1 X116.49 Y109.27 E24.4753
G1 X116.57 Y108.64 E24.5145
G1 X123.28 Y115.36 E25.1064
G1 X123.28 Y114.65 E25.1505
G1 X117.29 Y108.65 E25.6793
G1 X118 Y108.65 E25.7234
G1 X123.28 Y113.94 E26.1898
G1 X123.28 Y113.23 E26.234
G1 X118.7 Y108.65 E26.6379
G1 X119.41 Y108.65 E26.682
G1 X123.64 Y112.89 E27.0554
G1 X124.31 Y112.85 E27.0972
G1 X120.12 Y108.65 E27.4671
G1 X120.82 Y108.65 E27.5112
G1 X124.57 Y112.4 E27.8414
G1 X124.57 Y111.69 E27.8855
G1 X121.53 Y108.65 E28.1533
G1 X122.24 Y108.65 E28.1974
G1 X124.58 Y110.99 E28.4037
G1 X124.66 Y110.37 E28.443
G1 X122.95 Y108.65 E28.5942
G1 X123.65 Y108.65 E28.6383
G1 X124.95 Y109.95 E28.7527
G1 X125.38 Y109.67 E28.7846
G1 X124.36 Y108.65 E28.8746
G1 X125.07 Y108.65 E28.9187
G1 X125.99 Y109.57 E28.9997
G1 X126.69 Y109.57 E29.0437
G1 X125.77 Y108.65 E29.1247
G1 X126.48 Y108.65 E29.1688
G1 X127.4 Y109.57 E29.2497
G1 X128.11 Y109.57 E29.2938
G1 X127.19 Y108.65 E29.3748
G1 X127.9 Y108.65 E29.4189
G1 X128.81 Y109.57 E29.4998
G1 X129.52 Y109.57 E29.5439
G1 X128.6 Y108.65 E29.6249
G1 X129.31 Y108.65 E29.669
G1 X130.23 Y109.57 E29.7499
G1 X130.93 Y109.57 E29.794
G1 X130.02 Y108.65 E29.875
G1 X130.72 Y108.65 E29.9191
G1 X131.64 Y109.57 E30
G1 X132.35 Y109.57 E30.0441
G1 X131.43 Y108.65 E30.1251
G1 X132.14 Y108.65 E30.1692
G1 X133.06 Y109.57 E30.2501
G1 X133.76 Y109.57 E30.2942
G1 X132.84 Y108.65 E30.3752
G1 X133.55 Y108.65 E30.4193
G1 X134.47 Y109.57 E30.5002
G1 X135.18 Y109.57 E30.5443
G1 X134.26 Y108.65 E30.6253
G1 X134.97 Y108.65 E30.6694
G1 X135.9 Y109.59 E30.7517
G1 X136.08 Y109.06 E30.7863
G1 X135.6 Y108.58 E30.8291
;
; 'Wipe', 0.0 [RPM], 67.5 [mm/s]
G1 F15000
G1 X135.6 Y108.58 E30.8291
G1 F4050
G1 X136.08 Y109.06 E30.8291
G1 X135.9 Y109.59 E30.8291
G1 X134.97 Y108.65 E30.8291
G1 X134.26 Y108.65 E30.8291
G1 X135.18 Y109.57 E30.8291
G1 X134.47 Y109.57 E30.8291
;
; 'Stacked Sparse Infill', 180.0 [RPM], 60.1 [mm/s]
G1 F15000
G1 X133.54 Y124.19 E30.8291
G1 F3607.9
G1 X133.54 Y124.9 E30.8737
G1 X134.95 Y126.31 E30.9984
G1 X137.78 Y126.31 E31.1748
G1 X139.19 Y127.73 E31.2995
G1 X140.61 Y126.31 E31.4242
G1 X139.19 Y124.9 E31.5489
G1 X139.19 Y124.19 E31.5935
;
; 'Wipe', 0.0 [RPM], 67.5 [mm/s]
G1 F15000
G1 X139.19 Y124.19 E31.5935
G1 F4050
G1 X139.19 Y124.9 E31.5935
G1 X140.61 Y126.31 E31.5935
G1 X139.19 Y127.73 E31.5935
G1 X138.84 Y127.37 E31.5935
;
; 'Stacked Sparse Infill', 180.0 [RPM], 60.1 [mm/s]
G1 F15000
G1 X134.95 Y131.97 E31.5935
G1 F3607.9
G1 X133.54 Y130.56 E31.7182
G1 X133.54 Y127.73 E31.8946
G1 X132.12 Y126.31 E32.0193
G1 X129.29 Y126.31 E32.1957
G1 X127.88 Y124.9 E32.3204
G1 X127.88 Y124.19 E32.365
G1 X122.22 Y124.19 E32.7177
G1 X122.22 Y124.9 E32.7623
G1 X123.64 Y126.31 E32.887
G1 X126.46 Y126.31 E33.0634
G1 X127.88 Y127.73 E33.1881
G1 X127.88 Y130.56 E33.3645
G1 X129.29 Y131.97 E33.4892
G1 X132.12 Y131.97 E33.6656
G1 X133.54 Y133.38 E33.7903
G1 X129.29 Y137.63 E34.1645
G1 X127.88 Y136.21 E34.2892
G1 X127.88 Y133.38 E34.4656
G1 X126.46 Y131.97 E34.5904
G1 X123.64 Y131.97 E34.7668
G1 X122.22 Y130.56 E34.8915
G1 X122.22 Y127.73 E35.0679
G1 X120.81 Y126.31 E35.1926
G1 X117.98 Y126.31 E35.369
G1 X116.56 Y124.9 E35.4937
G1 X116.56 Y124.19 E35.5382
G1 X115.15 Y126.31 E35.6976
G1 X115.15 Y126.31 E35.6977
G1 X116.56 Y127.73 E35.8225
G1 X120.81 Y131.97 E36.1966
G1 X120.81 Y131.97 E36.1966
G1 X122.22 Y133.39 E36.3214
G1 X126.46 Y137.63 E36.6955
G1 X126.46 Y137.63 E36.6956
G1 X127.88 Y139.04 E36.8203
;
; 'Wipe', 0.0 [RPM], 67.5 [mm/s]
G1 F15000
G1 X127.88 Y139.04 E36.8203
G1 F4050
G1 X126.46 Y137.63 E36.8203
G1 X126.46 Y137.63 E36.8203
G1 X124.34 Y135.51 E36.8203
;
; 'Perimeter', 180.0 [RPM], 60.1 [mm/s]
G1 F15000
G1 X138.34 Y113.67 E36.8203
G1 F3607.9
G1 X138.52 Y113.97 E36.842
G1 X137.92 Y113.97 E36.8789
G1 X137.95 Y113.94 E36.8815
G1 X137.94 Y113.74 E36.8935
G1 X138.11 Y113.56 E36.9091
G1 X138.11 Y108.13 E37.2477
G1 X137.85 Y107.86 E37.2711
G1 X137.86 Y107.67 E37.2832
G1 X137.84 Y107.64 E37.2856
G1 X138.42 Y107.64 E37.3221
G1 X138.52 Y107.72 E37.3299
G1 X138.52 Y113.97 E37.7197
G1 X138.22 Y113.79 E37.7415
;
; 'Wipe', 0.0 [RPM], 67.5 [mm/s]
G1 F15000
G1 X138.22 Y113.79 E37.7415
G1 F4050
G1 X138.52 Y113.97 E37.7415
G1 X138.52 Y109.31 E37.7415
;
; 'Loop', 180.0 [RPM], 60.1 [mm/s]
G1 F15000
G1 X135.45 Y112.85 E37.7415
G1 F3607.9
G1 X136.58 Y111.78 E37.8385
G1 X136.58 Y113.98 E37.9756
G1 X136.51 Y114.32 E37.9976
G1 X136.46 Y114.38 E38.0027
G1 X135.77 Y114.4 E38.0456
G1 X135.68 Y114.49 E38.0534
G1 X135.33 Y114.5 E38.0752
;
; 'Wipe', 0.0 [RPM], 67.5 [mm/s]
G1 F15000
G1 X135.33 Y114.5 E38.0752
G1 F4050
G1 X135.68 Y114.49 E38.0752
G1 X135.77 Y114.4 E38.0752
G1 X136.46 Y114.38 E38.0752
G1 X136.51 Y114.32 E38.0752
G1 X136.58 Y113.98 E38.0752
G1 X136.58 Y111.78 E38.0752
G1 X135.63 Y112.68 E38.0752
;
; 'Perimeter', 180.0 [RPM], 60.1 [mm/s]
G1 F15000
G1 X135.44 Y112.84 E38.0752
G1 F3607.9
G1 X136.6 Y111.7 E38.1765
G1 X137.05 Y111.31 E38.214
G1 X137.08 Y111.45 E38.2232
G1 X137.08 Y114.1 E38.3886
G1 X137.02 Y114.25 E38.3983
G1 X136.91 Y114.31 E38.4065
G1 X136.74 Y114.32 E38.4169
G1 X136.66 Y114.41 E38.4247
G1 X136.61 Y114.41 E38.4279
G1 X135.78 Y114.42 E38.4792
G1 X135.69 Y114.51 E38.487
G1 X135.34 Y114.51 E38.509
;
; 'Wipe', 0.0 [RPM], 67.5 [mm/s]
G1 F15000
G1 X135.34 Y114.51 E38.509
G1 F4050
G1 X135.69 Y114.51 E38.509
G1 X135.78 Y114.42 E38.509
G1 X136.61 Y114.41 E38.509
G1 X136.66 Y114.41 E38.509
G1 X136.74 Y114.32 E38.509
G1 X136.91 Y114.31 E38.509
G1 X137.02 Y114.25 E38.509
G1 X137.08 Y114.1 E38.509
G1 X137.08 Y111.45 E38.509
G1 X137.05 Y111.31 E38.509
G1 X136.79 Y111.53 E38.509
;
; 'Stacked Sparse Infill', 180.0 [RPM], 60.1 [mm/s]
G1 F15000
G1 X134.95 Y115 E38.509
G1 F3607.9
G1 X134.95 Y115 E38.509
G1 X133.54 Y113.59 E38.6338
G1 X133.54 Y113.58 E38.6342
G1 X133.54 Y116.42 E38.8115
G1 X133.54 Y116.41 E38.8119
G1 X132.12 Y115 E38.9366
G1 X129.29 Y115 E39.113
G1 X128.23 Y113.94 E39.2069
;
; 'Wipe', 0.0 [RPM], 67.5 [mm/s]
G1 F15000
G1 X128.23 Y113.94 E39.2069
G1 F4050
G1 X129.29 Y115 E39.2069
G1 X132.12 Y115 E39.2069
G1 X132.83 Y115.71 E39.2069
; fan off
M107
G1 F210
G1 X132.83 Y115.71 Z0.9 E39.2069
; END_LAYER_OBJECT z=0.60
; Reset extruder pos
G92 E0
; BEGIN_LAYER_OBJECT z=0.90
; fan on
M106
;
; 'Perimeter', 180.0 [RPM], 60.1 [mm/s]
G1 F15000
G1 X114.91 Y107.69 E0
G1 F3607.9
G1 X115.04 Y107.64 E0.0084
G1 X137.01 Y107.64 E1.3788
G1 X137.08 Y107.74 E1.3866
G1 X137.08 Y110.59 E1.5644
G1 X126.1 Y110.59 E2.249
G1 X125.78 Y110.6 E2.2693
G1 X125.67 Y110.67 E2.2774
G1 X125.59 Y110.92 E2.2941
G1 X125.59 Y111.1 E2.3053
G1 X125.59 Y113.77 E2.4716
G1 X125.56 Y113.92 E2.4811
G1 X125.43 Y113.91 E2.4894
G1 X125.39 Y113.78 E2.4982
G1 X125.39 Y113.6 E2.5092
G1 X125.2 Y113.43 E2.5248
G1 X125.02 Y113.44 E2.5362
G1 X124.75 Y113.18 E2.5596
G1 X124.57 Y113.18 E2.5708
G1 X124.4 Y113 E2.5864
G1 X124.22 Y113 E2.5975
G1 X124.13 Y112.91 E2.6053
G1 X123.95 Y112.92 E2.6164
G1 X123.86 Y112.83 E2.6242
;
; 'Loop', 180.0 [RPM], 60.1 [mm/s]
G1 F15000
G1 X115.42 Y108.37 E2.6242
G1 F3607.9
G1 X115.42 Y121.63 E3.4511
G1 X115.42 Y121.8 E3.4618
G1 X116.68 Y120.6 E3.5705
;
; 'Loop', 180.0 [RPM], 60.1 [mm/s]
G1 F15000
G1 X115.42 Y108.19 E3.5705
G1 F3607.9
G1 X115.54 Y108.14 E3.5788
G1 X136.51 Y108.14 E4.8865
G1 X136.58 Y108.24 E4.8945
G1 X136.57 Y110.08 E5.0091
G1 X126.08 Y110.08 E5.6636
G1 X125.71 Y110.1 E5.6869
G1 X125.41 Y110.23 E5.7071
G1 X125.23 Y110.41 E5.7227
G1 X125.12 Y110.65 E5.7392
G1 X125.08 Y111.08 E5.7665
G1 X125.08 Y113.38 E5.9098
G1 X125.05 Y113.41 E5.9126
G1 X124.77 Y113.16 E5.936
G1 X124.59 Y113.16 E5.9473
G1 X124.41 Y112.99 E5.9629
G1 X124.23 Y112.99 E5.9741
G1 X124.14 Y112.9 E5.9819
G1 X123.96 Y112.9 E5.9931
G1 X123.87 Y112.82 E6.0009
;
; 'Wipe', 0.0 [RPM], 67.5 [mm/s]
G1 F15000
G1 X123.87 Y112.82 E6.0009
G1 F4050
G1 X123.96 Y112.9 E6.0009
G1 X124.14 Y112.9 E6.0009
G1 X124.23 Y112.99 E6.0009
G1 X124.41 Y112.99 E6.0009
G1 X124.59 Y113.16 E6.0009
G1 X124.77 Y113.16 E6.0009
G1 X125.05 Y113.41 E6.0009
G1 X125.08 Y113.38 E6.0009
G1 X125.08 Y110.97 E6.0009
G1 X125.12 Y110.65 E6.0009
G1 X125.23 Y110.41 E6.0009
G1 X125.41 Y110.23 E6.0009
G1 X125.71 Y110.1 E6.0009
;
; 'Perimeter', 180.0 [RPM], 60.1 [mm/s]
G1 F15000
G1 X114.91 Y107.81 E6.0009
G1 F3607.9
G1 X114.91 Y121.83 E6.8752
G1 X115.03 Y122.01 E6.8886
G1 X115.22 Y122.18 E6.9043
G1 X115.25 Y122.17 E6.9066
G1 X115.44 Y122.01 E6.9222
G1 X115.44 Y121.83 E6.9331
G1 X116.69 Y120.61 E7.0422
;
; 'Wipe', 0.0 [RPM], 67.5 [mm/s]
G1 F15000
G1 X116.69 Y120.61 E7.0422
G1 F4050
G1 X115.44 Y121.83 E7.0422
G1 X115.44 Y122.01 E7.0422
G1 X115.25 Y122.17 E7.0422
G1 X115.22 Y122.18 E7.0422
G1 X115.03 Y122.01 E7.0422
G1 X114.91 Y121.83 E7.0422
G1 X114.91 Y119.48 E7.0422
;
; 'Loop', 180.0 [RPM], 60.1 [mm/s]
G1 F15000
G1 X114.17 Y123.74 E7.0422
G1 F3607.9
G1 X114.26 Y123.65 E7.05
G1 X114.29 Y123.5 E7.0595
G1 X114.47 Y123.51 E7.0709
G1 X114.87 Y123.41 E7.097
G1 X114.9 Y123.41 E7.0985
G1 X139.47 Y123.41 E8.6309
G1 X139.61 Y123.42 E8.6395
G1 X139.89 Y123.5 E8.6575
G1 X140.24 Y123.5 E8.6795
G1 X140.27 Y124 E8.7106
G1 X140.36 Y124.08 E8.7184
G1 X140.37 Y124.43 E8.7402
G1 X140.46 Y124.52 E8.748
G1 X140.46 Y124.7 E8.7589
;
; 'Perimeter', 180.0 [RPM], 60.1 [mm/s]
G1 F15000
G1 X114.35 Y123.05 E8.7589
G1 F3607.9
G1 X114.33 Y123.2 E8.7685
G1 X114.24 Y123.28 E8.7763
G1 X114.23 Y123.63 E8.7978
G1 X114.15 Y123.72 E8.8056
G1 X114.14 Y124.07 E8.8275
G1 X114.05 Y124.16 E8.8353
G1 X114.05 Y124.51 E8.8573
G1 X113.96 Y124.6 E8.865
;
; 'Wipe', 0.0 [RPM], 67.5 [mm/s]
G1 F15000
G1 X113.96 Y124.6 E8.865
G1 F4050
G1 X114.05 Y124.51 E8.865
G1 X114.05 Y124.16 E8.865
G1 X114.14 Y124.07 E8.865
G1 X114.15 Y123.72 E8.865
G1 X114.23 Y123.63 E8.865
G1 X114.24 Y123.28 E8.865
G1 X114.33 Y123.2 E8.865
G1 X114.35 Y123.05 E8.865
;
; 'Loop', 180.0 [RPM], 60.1 [mm/s]
G1 F15000
G1 X123.87 Y117.18 E8.865
G1 F3607.9
G1 X123.96 Y117.1 E8.8728
G1 X124.14 Y117.1 E8.884
G1 X124.23 Y117.01 E8.8918
G1 X124.41 Y117.01 E8.903
G1 X124.59 Y116.84 E8.9186
G1 X124.77 Y116.84 E8.9299
G1 X125.05 Y116.59 E8.9533
G1 X125.08 Y116.62 E8.9562
G1 X125.08 Y119.03 E9.1066
G1 X125.12 Y119.35 E9.1263
G1 X125.24 Y119.58 E9.1428
G1 X125.42 Y119.76 E9.1584
G1 X125.65 Y119.88 E9.1749
G1 X125.97 Y119.91 E9.195
G1 X137.29 Y119.91 E9.9006
G1 X137.66 Y119.83 E9.9242
G1 X137.86 Y119.68 E9.94
G1 X138.01 Y119.48 E9.9558
G1 X138.11 Y119.22 E9.973
G1 X138.14 Y119.06 E9.9828
G1 X138.14 Y116.59 E10.1368
G1 X138.24 Y116.52 E10.1447
G1 X138.91 Y116.52 E10.1861
G1 X138.97 Y116.63 E10.1941
G1 X138.97 Y121.68 E10.5087
G1 X138.75 Y121.8 E10.5249
G1 X138.66 Y121.72 E10.5324
G1 X138.65 Y121.55 E10.5431
G1 X138.56 Y121.47 E10.5509
G1 X138.56 Y121.29 E10.562
G1 X138.02 Y120.77 E10.6088
G1 X137.89 Y120.77 E10.6169
G1 X137.8 Y120.86 E10.6247
G1 X125.38 Y120.86 E11.3995
G1 X125.29 Y120.77 E11.4073
G1 X124.94 Y120.77 E11.4295
G1 X124.85 Y120.68 E11.4373
G1 X124.67 Y120.68 E11.4484
G1 X124.58 Y120.59 E11.4562
;
; 'Perimeter', 180.0 [RPM], 60.1 [mm/s]
G1 F15000
G1 X123.86 Y117.17 E11.4562
G1 F3607.9
G1 X123.95 Y117.08 E11.464
G1 X124.13 Y117.09 E11.4751
G1 X124.22 Y117 E11.4829
G1 X124.4 Y117 E11.494
G1 X124.57 Y116.82 E11.5096
G1 X124.75 Y116.82 E11.5208
G1 X125.02 Y116.56 E11.5442
G1 X125.2 Y116.57 E11.5556
G1 X125.39 Y116.4 E11.5712
G1 X125.39 Y116.22 E11.5822
G1 X125.43 Y116.09 E11.591
G1 X125.56 Y116.08 E11.5991
G1 X125.59 Y116.23 E11.6087
G1 X125.59 Y118.9 E11.7749
G1 X125.61 Y119.22 E11.7949
G1 X125.67 Y119.33 E11.803
G1 X125.92 Y119.4 E11.819
G1 X125.95 Y119.4 E11.8209
G1 X137.26 Y119.4 E12.5265
G1 X137.4 Y119.4 E12.5351
G1 X137.51 Y119.33 E12.5431
G1 X137.63 Y119.04 E12.5629
G1 X137.63 Y118.21 E12.6142
G1 X137.63 Y116.09 E12.7465
G1 X137.74 Y116.02 E12.7545
G1 X139.41 Y116.02 E12.8585
G1 X139.48 Y116.13 E12.8665
G1 X139.48 Y122.14 E13.2413
G1 X139.43 Y122.18 E13.2453
G1 X139.14 Y122.2 E13.2633
G1 X139 Y122.23 E13.2725
G1 X138.82 Y122.09 E13.2869
G1 X138.81 Y121.92 E13.2976
G1 X138.63 Y121.75 E13.3132
G1 X138.63 Y121.57 E13.3242
G1 X138.54 Y121.49 E13.332
G1 X138.54 Y121.31 E13.3431
G1 X138.01 Y120.78 E13.3899
G1 X137.9 Y120.78 E13.3964
G1 X137.82 Y120.87 E13.4042
G1 X125.37 Y120.87 E14.1806
G1 X125.28 Y120.78 E14.1884
G1 X124.92 Y120.78 E14.2106
G1 X124.84 Y120.69 E14.2184
G1 X124.66 Y120.7 E14.2295
G1 X124.57 Y120.61 E14.2373
;
; 'Wipe', 0.0 [RPM], 67.5 [mm/s]
G1 F15000
G1 X124.57 Y120.61 E14.2373
G1 F4050
G1 X124.66 Y120.7 E14.2373
G1 X124.84 Y120.69 E14.2373
G1 X124.92 Y120.78 E14.2373
G1 X125.28 Y120.78 E14.2373
G1 X125.37 Y120.87 E14.2373
G1 X129.51 Y120.87 E14.2373
;
; 'Perimeter', 180.0 [RPM], 60.1 [mm/s]
G1 F15000
G1 X125.78 Y115.05 E14.2373
G1 F3607.9
G1 X125.79 Y115.38 E14.2584
G1 X125.74 Y115.37 E14.2616
G1 X125.64 Y115.12 E14.2785
G1 X125.64 Y114.94 E14.2896
G1 X125.82 Y114.71 E14.3079
G1 X125.86 Y114.72 E14.3103
G1 X125.86 Y114.89 E14.3212
G1 X125.96 Y114.98 E14.329
G1 X125.96 Y115.02 E14.3318
G1 X125.86 Y115.11 E14.3396
G1 X125.86 Y115.28 E14.3504
G1 X125.79 Y115.38 E14.3583
G1 X125.58 Y115.12 E14.3794
;
; 'Wipe', 0.0 [RPM], 67.5 [mm/s]
G1 F15000
G1 X125.58 Y115.12 E14.3794
G1 F4050
G1 X125.79 Y115.38 E14.3794
G1 X125.86 Y115.28 E14.3794
G1 X125.86 Y115.11 E14.3794
G1 X125.96 Y115.02 E14.3794
G1 X125.96 Y114.98 E14.3794
G1 X125.86 Y114.89 E14.3794
G1 X125.86 Y114.72 E14.3794
G1 X125.82 Y114.71 E14.3794
G1 X125.64 Y114.94 E14.3794
G1 X125.64 Y115.12 E14.3794
G1 X125.74 Y115.37 E14.3794
G1 X125.79 Y115.38 E14.3794
G1 X125.78 Y115.05 E14.3794
;
; 'Perimeter', 180.0 [RPM], 60.1 [mm/s]
G1 F15000
G1 X114.35 Y123.04 E14.3794
G1 F3607.9
G1 X114.39 Y123.01 E14.3824
G1 X114.49 Y123 E14.3885
G1 X114.75 Y122.91 E14.4059
G1 X136.85 Y122.91 E15.7839
G1 X139.5 Y122.91 E15.9493
G1 X139.55 Y122.95 E15.9536
G1 X139.71 Y122.95 E15.9635
G1 X139.76 Y122.92 E15.9666
G1 X139.87 Y122.99 E15.9747
G1 X140.13 Y123 E15.9908
G1 X140.17 Y123.04 E15.9943
G1 X140.19 Y123.37 E16.015
G1 X140.28 Y123.46 E16.0228
G1 X140.29 Y123.98 E16.0555
G1 X140.38 Y124.07 E16.0633
G1 X140.38 Y124.42 E16.0852
G1 X140.47 Y124.51 E16.093
G1 X140.47 Y124.68 E16.104
;
; 'Wipe', 0.0 [RPM], 67.5 [mm/s]
G1 F15000
G1 X140.47 Y124.68 E16.104
G1 F4050
G1 X140.47 Y124.51 E16.104
G1 X140.38 Y124.42 E16.104
G1 X140.38 Y124.07 E16.104
G1 X140.29 Y123.98 E16.104
G1 X140.28 Y123.46 E16.104
G1 X140.19 Y123.37 E16.104
G1 X140.17 Y123.04 E16.104
G1 X140.13 Y123 E16.104
G1 X139.87 Y122.99 E16.104
G1 X139.76 Y122.92 E16.104
G1 X139.71 Y122.95 E16.104
G1 X139.55 Y122.95 E16.104
G1 X139.5 Y122.91 E16.104
G1 X136.94 Y122.91 E16.104
;
; 'Solid', 180.0 [RPM], 60.1 [mm/s]
G1 F15000
G1 X138.54 Y120.61 E16.104
G1 F3607.9
G1 X137.82 Y120.62 E16.149
G1 X138.48 Y119.95 E16.2079
;
; 'Solid', 180.0 [RPM], 60.1 [mm/s]
G1 F15000
G1 X126.07 Y120.35 E16.2079
G1 F3607.9
G1 X125.8 Y120.62 E16.2316
G1 X125.07 Y120.63 E16.2769
G1 X125.39 Y120.32 E16.3046
G1 X124.96 Y120.04 E16.3366
G1 X124.73 Y120.27 E16.3563
G1 X124 Y120.3 E16.4023
G1 X124.67 Y119.62 E16.4615
G1 X124.58 Y119.01 E16.5005
G1 X123.29 Y120.3 E16.6145
G1 X122.58 Y120.3 E16.6586
G1 X124.57 Y118.31 E16.8341
G1 X124.57 Y117.6 E16.8782
G1 X121.87 Y120.3 E17.1159
G1 X121.16 Y120.3 E17.16
G1 X124.31 Y117.15 E17.4376
G1 X123.64 Y117.11 E17.4794
G1 X120.46 Y120.3 E17.7604
G1 X119.75 Y120.3 E17.8045
G1 X123.28 Y116.77 E18.116
G1 X123.28 Y116.06 E18.1602
G1 X119.04 Y120.3 E18.5342
G1 X118.34 Y120.3 E18.5783
G1 X123.28 Y115.35 E19.0147
G1 X123.28 Y114.64 E19.0588
G1 X117.55 Y120.38 E19.5642
;
; 'Solid', 180.0 [RPM], 60.1 [mm/s]
G1 F15000
G1 X115.86 Y121.36 E19.5642
G1 F3607.9
G1 X123.36 Y113.86 E20.2257
;
; 'Solid', 180.0 [RPM], 60.1 [mm/s]
G1 F15000
G1 X124.31 Y112.91 E20.2257
G1 F3607.9
G1 X124.57 Y112.65 E20.2484
G1 X124.57 Y111.95 E20.2925
G1 X115.93 Y120.58 E21.0542
G1 X115.93 Y119.88 E21.0983
G1 X124.55 Y111.26 E21.8581
G1 X124.73 Y110.37 E21.9145
G1 X115.93 Y119.17 E22.6902
G1 X115.93 Y118.46 E22.7343
G1 X125.74 Y108.65 E23.5994
G1 X125.03 Y108.65 E23.6435
G1 X115.93 Y117.75 E24.4462
G1 X115.93 Y117.05 E24.4903
G1 X124.33 Y108.65 E25.2307
G1 X123.62 Y108.65 E25.2748
G1 X115.93 Y116.34 E25.9528
G1 X115.93 Y115.63 E25.9969
G1 X122.91 Y108.65 E26.6126
G1 X122.21 Y108.65 E26.6567
G1 X115.93 Y114.93 E27.21
G1 X115.93 Y114.22 E27.2541
G1 X121.5 Y108.65 E27.745
G1 X120.79 Y108.65 E27.7891
G1 X115.93 Y113.51 E28.2177
G1 X115.93 Y112.8 E28.2618
G1 X120.08 Y108.65 E28.628
G1 X119.38 Y108.65 E28.6721
G1 X115.93 Y112.1 E28.9759
G1 X115.93 Y111.39 E29.02
G1 X118.67 Y108.65 E29.2615
G1 X117.96 Y108.65 E29.3056
G1 X115.93 Y110.68 E29.4847
G1 X115.93 Y109.98 E29.5288
G1 X117.26 Y108.65 E29.6455
G1 X116.55 Y108.65 E29.6896
G1 X115.93 Y109.27 E29.744
G1 X115.86 Y108.64 E29.7837
;
; 'Solid', 180.0 [RPM], 60.1 [mm/s]
G1 F15000
G1 X125.28 Y109.82 E29.7837
G1 F3607.9
G1 X126.45 Y108.65 E29.887
G1 X127.16 Y108.65 E29.9311
G1 X126.24 Y109.57 E30.012
G1 X126.94 Y109.57 E30.0561
G1 X127.86 Y108.65 E30.1371
G1 X128.57 Y108.65 E30.1812
G1 X127.65 Y109.57 E30.2621
G1 X128.36 Y109.57 E30.3062
G1 X129.28 Y108.65 E30.3872
G1 X129.98 Y108.65 E30.4313
G1 X129.07 Y109.57 E30.5122
G1 X129.77 Y109.57 E30.5563
G1 X130.69 Y108.65 E30.6373
G1 X131.4 Y108.65 E30.6814
G1 X130.48 Y109.57 E30.7623
G1 X131.19 Y109.57 E30.8064
G1 X132.1 Y108.65 E30.8873
G1 X132.81 Y108.65 E30.9314
G1 X131.89 Y109.57 E31.0124
G1 X132.6 Y109.57 E31.0565
G1 X133.52 Y108.65 E31.1374
G1 X134.23 Y108.65 E31.1815
G1 X133.31 Y109.57 E31.2625
G1 X134.02 Y109.57 E31.3066
G1 X134.93 Y108.65 E31.3875
G1 X135.64 Y108.65 E31.4316
G1 X134.72 Y109.57 E31.5126
G1 X135.43 Y109.57 E31.5567
G1 X136.14 Y108.86 E31.6195
;
; 'Wipe', 0.0 [RPM], 67.5 [mm/s]
G1 F15000
G1 X136.14 Y108.86 E31.6195
G1 F4050
G1 X135.43 Y109.57 E31.6195
G1 X134.72 Y109.57 E31.6195
G1 X135.64 Y108.65 E31.6195
G1 X134.93 Y108.65 E31.6195
G1 X134.02 Y109.57 E31.6195
;
; 'Stacked Sparse Infill', 180.0 [RPM], 60.1 [mm/s]
G1 F15000
G1 X142.38 Y124.54 E31.6195
G1 F3607.9
G1 X127.88 Y139.04 E32.8983
G1 X126.46 Y137.63 E33.023
G1 X127.88 Y136.21 E33.1477
G1 X127.88 Y133.38 E33.3241
G1 X129.29 Y131.97 E33.4488
G1 X132.12 Y131.97 E33.6252
G1 X133.54 Y130.56 E33.7499
G1 X133.54 Y127.73 E33.9263
G1 X134.95 Y126.31 E34.051
G1 X137.78 Y126.31 E34.2274
G1 X139.19 Y124.9 E34.3522
G1 X139.19 Y124.19 E34.3967
G1 X133.54 Y124.19 E34.7495
G1 X133.54 Y124.9 E34.794
G1 X132.12 Y126.31 E34.9187
G1 X129.29 Y126.31 E35.0951
G1 X127.88 Y127.73 E35.2198
G1 X127.88 Y130.56 E35.3962
G1 X126.46 Y131.97 E35.521
G1 X123.64 Y131.97 E35.6974
G1 X122.22 Y133.38 E35.8221
G1 X120.81 Y131.97 E35.9468
G1 X122.22 Y130.56 E36.0715
G1 X122.22 Y127.73 E36.2479
G1 X123.64 Y126.31 E36.3726
G1 X126.46 Y126.31 E36.549
G1 X127.88 Y124.9 E36.6738
G1 X127.88 Y124.19 E36.7183
G1 X122.22 Y124.19 E37.0711
G1 X122.22 Y124.9 E37.1156
G1 X120.81 Y126.31 E37.2403
G1 X117.98 Y126.31 E37.4167
G1 X116.56 Y127.73 E37.5414
G1 X115.15 Y126.31 E37.6662
G1 X116.56 Y124.9 E37.7909
G1 X116.56 Y124.19 E37.8354
;
; 'Wipe', 0.0 [RPM], 67.5 [mm/s]
G1 F15000
G1 X116.56 Y124.19 E37.8354
G1 F4050
G1 X116.56 Y124.9 E37.8354
G1 X115.15 Y126.31 E37.8354
G1 X116.56 Y127.73 E37.8354
G1 X116.92 Y127.37 E37.8354
;
; 'Sparse Infill', 180.0 [RPM], 60.1 [mm/s]
G1 F15000
G1 X145.91 Y115.36 E37.8354
G1 F3607.9
G1 X146.62 Y114.64 E37.8984
;
; 'Wipe', 0.0 [RPM], 67.5 [mm/s]
G1 F15000
G1 X146.62 Y114.64 E37.8984
G1 F4050
G1 X145.91 Y115.36 E37.8984
;
; 'Sparse Infill', 180.0 [RPM], 60.1 [mm/s]
G1 F15000
G1 X146.97 Y112.88 E37.8984
G1 F3607.9
G1 X147.33 Y112.52 E37.9302
G1 X147.13 Y112.17 E37.9555
G1 X147.17 Y111.82 E37.9775
G1 X146.97 Y111.47 E38.0028
G1 X147.33 Y111.11 E38.0346
G1 X147.13 Y110.76 E38.0598
G1 X147.17 Y110.4 E38.0819
G1 X146.97 Y110.05 E38.1071
G1 X147.33 Y109.69 E38.1389
G1 X147.13 Y109.34 E38.1642
G1 X147.17 Y108.99 E38.1862
G1 X146.97 Y108.64 E38.2115
G1 X146.97 Y108.63 E38.2121
;
; 'Wipe', 0.0 [RPM], 67.5 [mm/s]
G1 F15000
G1 X146.97 Y108.63 E38.2121
G1 F4050
G1 X146.97 Y108.64 E38.2121
G1 X147.17 Y108.99 E38.2121
G1 X147.13 Y109.34 E38.2121
G1 X147.33 Y109.69 E38.2121
G1 X146.97 Y110.05 E38.2121
G1 X147.17 Y110.4 E38.2121
G1 X147.13 Y110.76 E38.2121
G1 X147.33 Y111.11 E38.2121
G1 X146.97 Y111.47 E38.2121
G1 X147.17 Y111.82 E38.2121
G1 X147.13 Y112.17 E38.2121
G1 X147.33 Y112.52 E38.2121
G1 X146.97 Y112.88 E38.2121
;
; 'Sparse Infill', 180.0 [RPM], 60.1 [mm/s]
G1 F15000
G1 X148.03 Y110.4 E38.2121
G1 F3607.9
G1 X147.67 Y110.76 E38.2439
G1 X147.83 Y111.23 E38.2747
G1 X147.68 Y111.7 E38.3053
G1 X147.68 Y112.17 E38.3346
G1 X147.67 Y112.18 E38.3352
;
; 'Stacked Sparse Infill', 180.0 [RPM], 60.1 [mm/s]
G1 F15000
G1 X150.51 Y111.46 E38.3352
G1 F3607.9
G1 X150.51 Y113.59 E38.4675
G1 X149.09 Y115 E38.5922
G1 X147.67 Y115 E38.6809
G1 X147.43 Y115.2 E38.7002
G1 X146.87 Y115.52 E38.7409
G1 X146.46 Y115.6 E38.7666
G1 X146.11 Y115.86 E38.7936
G1 X145.81 Y116.16 E38.8202
G1 X145.26 Y116.57 E38.8633
G1 X144.85 Y116.41 E38.8904
G1 X144.85 Y116.41 E38.8907
G1 X144.85 Y117.12 E38.9349
;
; 'Wipe', 0.0 [RPM], 67.5 [mm/s]
G1 F15000
G1 X144.85 Y117.12 E38.9349
G1 F4050
G1 X144.85 Y116.41 E38.9349
G1 X144.85 Y116.41 E38.9349
G1 X145.26 Y116.57 E38.9349
G1 X145.81 Y116.16 E38.9349
G1 X146.11 Y115.86 E38.9349
G1 X146.46 Y115.6 E38.9349
G1 X146.87 Y115.52 E38.9349
G1 X147.43 Y115.2 E38.9349
G1 X147.67 Y115 E38.9349
G1 X149.09 Y115 E38.9349
;
; 'Stacked Sparse Infill', 180.0 [RPM], 60.1 [mm/s]
G1 F15000
G1 X145.55 Y121.37 E38.9349
G1 F3607.9
G1 X152.98 Y113.94 E39.59
G1 X148.38 Y109.34 E39.9954
G1 X148.38 Y109.34 E39.9958
;
; 'Wipe', 0.0 [RPM], 67.5 [mm/s]
G1 F15000
G1 X148.38 Y109.34 E39.9958
G1 F4050
G1 X148.38 Y109.34 E39.9958
G1 X152 Y112.95 E39.9958
;
; 'Loop', 180.0 [RPM], 60.1 [mm/s]
G1 F15000
G1 X138.9 Y113.47 E39.9958
G1 F3607.9
G1 X138.25 Y113.47 E40.0361
G1 X138.56 Y113.13 E40.0646
G1 X138.56 Y108.56 E40.3495
G1 X138.17 Y108.14 E40.3855
G1 X138.97 Y108.15 E40.436
G1 X138.97 Y113.37 E40.7616
G1 X138.9 Y113.47 E40.7695
;
; 'Wipe', 0.0 [RPM], 67.5 [mm/s]
G1 F15000
G1 X138.9 Y113.47 E40.7695
G1 F4050
G1 X138.97 Y113.37 E40.7695
G1 X138.97 Y108.42 E40.7695
;
; 'Perimeter', 180.0 [RPM], 60.1 [mm/s]
G1 F15000
G1 X139.37 Y113.65 E40.7695
G1 F3607.9
G1 X139.4 Y113.97 E40.7897
G1 X137.92 Y113.97 E40.8816
G1 X137.95 Y113.94 E40.8843
G1 X137.94 Y113.74 E40.8963
G1 X138.54 Y113.11 E40.9509
G1 X138.54 Y108.58 E41.2333
G1 X137.85 Y107.86 E41.2957
G1 X137.86 Y107.67 E41.3078
G1 X137.84 Y107.64 E41.3102
G1 X139.48 Y107.64 E41.4124
G1 X139.48 Y113.87 E41.8008
G1 X139.4 Y113.97 E41.8086
G1 X139.17 Y113.74 E41.8289
;
; 'Wipe', 0.0 [RPM], 67.5 [mm/s]
G1 F15000
G1 X139.17 Y113.74 E41.8289
G1 F4050
G1 X139.4 Y113.97 E41.8289
G1 X139.48 Y113.87 E41.8289
G1 X139.48 Y109.28 E41.8289
;
; 'Loop', 180.0 [RPM], 60.1 [mm/s]
G1 F15000
G1 X135.45 Y112.85 E41.8289
G1 F3607.9
G1 X136.58 Y111.78 E41.9258
G1 X136.58 Y113.98 E42.0629
G1 X136.51 Y114.32 E42.0849
G1 X136.46 Y114.38 E42.09
G1 X135.77 Y114.4 E42.133
G1 X135.68 Y114.49 E42.1408
G1 X135.33 Y114.5 E42.1626
;
; 'Wipe', 0.0 [RPM], 67.5 [mm/s]
G1 F15000
G1 X135.33 Y114.5 E42.1626
G1 F4050
G1 X135.68 Y114.49 E42.1626
G1 X135.77 Y114.4 E42.1626
G1 X136.46 Y114.38 E42.1626
G1 X136.51 Y114.32 E42.1626
G1 X136.58 Y113.98 E42.1626
G1 X136.58 Y111.78 E42.1626
G1 X135.63 Y112.68 E42.1626
;
; 'Perimeter', 180.0 [RPM], 60.1 [mm/s]
G1 F15000
G1 X135.44 Y112.84 E42.1626
G1 F3607.9
G1 X136.6 Y111.7 E42.2639
G1 X137.05 Y111.31 E42.3014
G1 X137.08 Y111.45 E42.3106
G1 X137.08 Y114.1 E42.476
G1 X137.02 Y114.25 E42.4857
G1 X136.91 Y114.31 E42.4939
G1 X136.74 Y114.32 E42.5043
G1 X136.66 Y114.41 E42.5121
G1 X136.61 Y114.41 E42.5153
G1 X135.78 Y114.42 E42.5666
G1 X135.69 Y114.51 E42.5744
G1 X135.34 Y114.51 E42.5964
;
; 'Wipe', 0.0 [RPM], 67.5 [mm/s]
G1 F15000
G1 X135.34 Y114.51 E42.5964
G1 F4050
G1 X135.69 Y114.51 E42.5964
G1 X135.78 Y114.42 E42.5964
G1 X136.61 Y114.41 E42.5964
G1 X136.66 Y114.41 E42.5964
G1 X136.74 Y114.32 E42.5964
G1 X136.91 Y114.31 E42.5964
G1 X137.02 Y114.25 E42.5964
G1 X137.08 Y114.1 E42.5964
G1 X137.08 Y111.45 E42.5964
G1 X137.05 Y111.31 E42.5964
G1 X136.79 Y111.53 E42.5964
;
; 'Stacked Sparse Infill', 180.0 [RPM], 60.1 [mm/s]
G1 F15000
G1 X134.95 Y115 E42.5964
G1 F3607.9
G1 X134.95 Y115 E42.5964
G1 X133.54 Y116.41 E42.7212
G1 X133.54 Y116.42 E42.7216
G1 X133.54 Y113.58 E42.8989
G1 X133.54 Y113.59 E42.8993
G1 X132.12 Y115 E43.024
G1 X129.29 Y115 E43.2004
G1 X128.23 Y116.06 E43.2943
;
; 'Wipe', 0.0 [RPM], 67.5 [mm/s]
G1 F15000
G1 X128.23 Y116.06 E43.2943
G1 F4050
G1 X129.29 Y115 E43.2943
G1 X132.12 Y115 E43.2943
G1 X132.83 Y114.29 E43.2943
; fan off
M107
G1 F210
G1 X132.83 Y114.29 Z1.2 E43.2943
; END_LAYER_OBJECT z=0.90
; Reset extruder pos
G92 E0
; BEGIN_LAYER_OBJECT z=1.20
; fan on
M106
;
; 'Perimeter', 180.0 [RPM], 60.1 [mm/s]
G1 F15000
G1 X114.53 Y108.01 E0
G1 F3607.9
G1 X114.53 Y107.66 E0.022
G1 X114.68 Y107.64 E0.0317
G1 X137.01 Y107.64 E1.4241
G1 X137.08 Y107.74 E1.432
G1 X137.08 Y110.59 E1.6098
G1 X126.1 Y110.59 E2.2944
G1 X125.78 Y110.6 E2.3147
G1 X125.67 Y110.67 E2.3227
G1 X125.59 Y110.92 E2.3394
G1 X125.59 Y111.1 E2.3507
G1 X125.59 Y113.77 E2.5169
G1 X125.56 Y113.92 E2.5265
G1 X125.43 Y113.91 E2.5348
G1 X125.39 Y113.78 E2.5435
G1 X125.39 Y113.6 E2.5546
G1 X125.2 Y113.43 E2.5702
G1 X125.02 Y113.44 E2.5816
G1 X124.75 Y113.18 E2.605
G1 X124.57 Y113.18 E2.6162
G1 X124.4 Y113 E2.6317
G1 X124.22 Y113 E2.6429
G1 X124.13 Y112.91 E2.6507
G1 X123.95 Y112.92 E2.6618
G1 X123.86 Y112.83 E2.6696
;
; 'Loop', 180.0 [RPM], 60.1 [mm/s]
G1 F15000
G1 X115.04 Y108.22 E2.6696
G1 F3607.9
G1 X115.04 Y121.83 E3.5184
G1 X116.24 Y120.68 E3.622
;
; 'Loop', 180.0 [RPM], 60.1 [mm/s]
G1 F15000
G1 X115.04 Y108.17 E3.622
G1 F3607.9
G1 X115.18 Y108.14 E3.6313
G1 X136.51 Y108.14 E4.9611
G1 X136.58 Y108.24 E4.969
G1 X136.57 Y110.08 E5.0837
G1 X126.08 Y110.08 E5.7381
G1 X125.71 Y110.1 E5.7614
G1 X125.41 Y110.23 E5.7817
G1 X125.23 Y110.41 E5.7973
G1 X125.12 Y110.65 E5.8138
G1 X125.08 Y111.08 E5.841
G1 X125.08 Y113.38 E5.9843
G1 X125.05 Y113.41 E5.9871
G1 X124.77 Y113.16 E6.0105
G1 X124.59 Y113.16 E6.0218
G1 X124.41 Y112.99 E6.0374
G1 X124.23 Y112.99 E6.0486
G1 X124.14 Y112.9 E6.0564
G1 X123.96 Y112.9 E6.0676
G1 X123.87 Y112.82 E6.0754
;
; 'Wipe', 0.0 [RPM], 67.5 [mm/s]
G1 F15000
G1 X123.87 Y112.82 E6.0754
G1 F4050
G1 X123.96 Y112.9 E6.0754
G1 X124.14 Y112.9 E6.0754
G1 X124.23 Y112.99 E6.0754
G1 X124.41 Y112.99 E6.0754
G1 X124.59 Y113.16 E6.0754
G1 X124.77 Y113.16 E6.0754
G1 X125.05 Y113.41 E6.0754
G1 X125.08 Y113.38 E6.0754
G1 X125.08 Y110.97 E6.0754
G1 X125.12 Y110.65 E6.0754
G1 X125.23 Y110.41 E6.0754
G1 X125.41 Y110.23 E6.0754
G1 X125.71 Y110.1 E6.0754
;
; 'Perimeter', 180.0 [RPM], 60.1 [mm/s]
G1 F15000
G1 X114.53 Y108.02 E6.0754
G1 F3607.9
G1 X114.53 Y122.16 E6.9573
G1 X114.64 Y122.23 E6.9653
G1 X115 Y121.92 E6.9952
G1 X116.25 Y120.7 E7.1043
;
; 'Wipe', 0.0 [RPM], 67.5 [mm/s]
G1 F4050
G1 X115 Y121.92 E7.1043
G1 X114.64 Y122.23 E7.1043
G1 X114.53 Y122.16 E7.1043
G1 X114.53 Y119.51 E7.1043
;
; 'Loop', 180.0 [RPM], 60.1 [mm/s]
G1 F15000
G1 X113.81 Y123.74 E7.1043
G1 F3607.9
G1 X113.91 Y123.65 E7.1121
G1 X113.93 Y123.5 E7.1216
G1 X114.11 Y123.51 E7.133
G1 X114.52 Y123.41 E7.159
G1 X114.54 Y123.41 E7.1606
G1 X140.53 Y123.41 E8.7811
G1 X140.94 Y123.5 E8.8075
G1 X141.16 Y123.51 E8.8211
G1 X141.3 Y123.5 E8.8297
G1 X141.33 Y123.83 E8.85
G1 X141.42 Y123.91 E8.8578
G1 X141.42 Y124.26 E8.8794
G1 X141.51 Y124.35 E8.8872
G1 X141.52 Y124.52 E8.8981
G1 X141.61 Y124.61 E8.9059
;
; 'Wipe', 0.0 [RPM], 67.5 [mm/s]
G1 F15000
G1 X141.61 Y124.61 E8.9059
G1 F4050
G1 X141.52 Y124.52 E8.9059
G1 X141.51 Y124.35 E8.9059
G1 X141.42 Y124.26 E8.9059
G1 X141.42 Y123.91 E8.9059
G1 X141.33 Y123.83 E8.9059
G1 X141.3 Y123.5 E8.9059
G1 X140.94 Y123.5 E8.9059
G1 X140.53 Y123.41 E8.9059
G1 X140.18 Y123.41 E8.9059
G1 X137.53 Y123.41 E8.9059
;
; 'Perimeter', 180.0 [RPM], 60.1 [mm/s]
G1 F15000
G1 X114 Y123.05 E8.9059
G1 F3607.9
G1 X113.98 Y123.2 E8.9155
G1 X113.89 Y123.28 E8.9233
G1 X113.88 Y123.63 E8.9448
G1 X113.79 Y123.72 E8.9526
G1 X113.79 Y123.89 E8.9636
G1 X113.7 Y123.98 E8.9714
G1 X113.7 Y124.33 E8.9933
G1 X113.61 Y124.42 E9.0011
G1 X113.61 Y124.6 E9.0121
;
; 'Wipe', 0.0 [RPM], 67.5 [mm/s]
G1 F15000
G1 X113.61 Y124.6 E9.0121
G1 F4050
G1 X113.61 Y124.42 E9.0121
G1 X113.7 Y124.33 E9.0121
G1 X113.7 Y123.98 E9.0121
G1 X113.79 Y123.89 E9.0121
G1 X113.79 Y123.72 E9.0121
G1 X113.88 Y123.63 E9.0121
G1 X113.89 Y123.28 E9.0121
G1 X113.98 Y123.2 E9.0121
G1 X114 Y123.05 E9.0121
;
; 'Loop', 180.0 [RPM], 60.1 [mm/s]
G1 F15000
G1 X123.87 Y117.18 E9.0121
G1 F3607.9
G1 X123.96 Y117.1 E9.0199
G1 X124.14 Y117.1 E9.031
G1 X124.23 Y117.01 E9.0388
G1 X124.41 Y117.01 E9.05
G1 X124.59 Y116.84 E9.0656
G1 X124.77 Y116.84 E9.077
G1 X125.05 Y116.59 E9.1004
G1 X125.08 Y116.62 E9.1032
G1 X125.08 Y119.03 E9.2537
G1 X125.12 Y119.35 E9.2733
G1 X125.24 Y119.58 E9.2898
G1 X125.42 Y119.76 E9.3054
G1 X125.65 Y119.88 E9.3219
G1 X125.97 Y119.91 E9.3421
G1 X137.29 Y119.91 E10.0476
G1 X137.66 Y119.83 E10.0712
G1 X137.86 Y119.68 E10.087
G1 X138.01 Y119.48 E10.1028
G1 X138.11 Y119.22 E10.12
G1 X138.14 Y119.06 E10.1299
G1 X138.14 Y116.59 E10.2838
G1 X138.24 Y116.52 E10.2917
G1 X139.79 Y116.52 E10.3883
G1 X139.93 Y116.56 E10.3975
G1 X139.93 Y121.57 E10.7104
G1 X139.81 Y121.46 E10.7212
G1 X139.62 Y121.46 E10.7326
G1 X138.72 Y120.6 E10.8106
G1 X138.6 Y120.59 E10.8184
G1 X138.51 Y120.68 E10.8262
G1 X138.33 Y120.68 E10.8373
G1 X138.25 Y120.77 E10.8451
G1 X137.89 Y120.77 E10.8673
G1 X137.8 Y120.86 E10.8751
G1 X125.38 Y120.86 E11.6499
G1 X125.29 Y120.77 E11.6577
G1 X124.94 Y120.77 E11.6799
G1 X124.85 Y120.68 E11.6877
G1 X124.67 Y120.68 E11.6988
G1 X124.58 Y120.59 E11.7066
;
; 'Perimeter', 180.0 [RPM], 60.1 [mm/s]
G1 F15000
G1 X123.86 Y117.17 E11.7066
G1 F3607.9
G1 X123.95 Y117.08 E11.7144
G1 X124.13 Y117.09 E11.7255
G1 X124.22 Y117 E11.7333
G1 X124.4 Y117 E11.7445
G1 X124.57 Y116.82 E11.76
G1 X124.75 Y116.82 E11.7712
G1 X125.02 Y116.56 E11.7946
G1 X125.2 Y116.57 E11.806
G1 X125.39 Y116.4 E11.8216
G1 X125.39 Y116.22 E11.8327
G1 X125.43 Y116.09 E11.8414
G1 X125.56 Y116.08 E11.8496
G1 X125.59 Y116.23 E11.8591
G1 X125.59 Y118.9 E12.0253
G1 X125.61 Y119.22 E12.0453
G1 X125.67 Y119.33 E12.0534
G1 X125.92 Y119.4 E12.0695
G1 X125.95 Y119.4 E12.0713
G1 X137.26 Y119.4 E12.7769
G1 X137.4 Y119.4 E12.7855
G1 X137.51 Y119.33 E12.7935
G1 X137.63 Y119.04 E12.8133
G1 X137.63 Y118.21 E12.8647
G1 X137.63 Y116.09 E12.997
G1 X137.74 Y116.02 E13.0049
G1 X140.29 Y116.02 E13.1641
G1 X140.44 Y116.05 E13.1735
G1 X140.44 Y122.26 E13.5605
G1 X140.29 Y122.21 E13.5702
G1 X140.03 Y122.2 E13.5865
G1 X139.98 Y122.17 E13.5904
G1 X139.96 Y121.83 E13.6112
G1 X139.87 Y121.75 E13.619
G1 X139.87 Y121.57 E13.6301
G1 X139.78 Y121.48 E13.6379
G1 X139.6 Y121.49 E13.6492
G1 X138.71 Y120.61 E13.7271
G1 X138.61 Y120.61 E13.7335
G1 X138.52 Y120.69 E13.7413
G1 X138.35 Y120.69 E13.7524
G1 X138.26 Y120.78 E13.7602
G1 X137.9 Y120.78 E13.7824
G1 X137.82 Y120.87 E13.7901
G1 X125.37 Y120.87 E14.5666
G1 X125.28 Y120.78 E14.5744
G1 X124.92 Y120.78 E14.5965
G1 X124.84 Y120.69 E14.6043
G1 X124.66 Y120.7 E14.6154
G1 X124.57 Y120.61 E14.6232
;
; 'Wipe', 0.0 [RPM], 67.5 [mm/s]
G1 F15000
G1 X124.57 Y120.61 E14.6232
G1 F4050
G1 X124.66 Y120.7 E14.6232
G1 X124.84 Y120.69 E14.6232
G1 X124.92 Y120.78 E14.6232
G1 X125.28 Y120.78 E14.6232
G1 X125.37 Y120.87 E14.6232
G1 X129.51 Y120.87 E14.6232
;
; 'Perimeter', 180.0 [RPM], 60.1 [mm/s]
G1 F15000
G1 X125.78 Y115.05 E14.6232
G1 F3607.9
G1 X125.79 Y115.38 E14.6443
G1 X125.74 Y115.37 E14.6475
G1 X125.64 Y115.12 E14.6645
G1 X125.64 Y114.94 E14.6755
G1 X125.82 Y114.71 E14.6939
G1 X125.86 Y114.72 E14.6962
G1 X125.86 Y114.89 E14.7071
G1 X125.96 Y114.98 E14.7149
G1 X125.96 Y115.02 E14.7177
G1 X125.86 Y115.11 E14.7255
G1 X125.86 Y115.28 E14.7363
G1 X125.79 Y115.38 E14.7443
G1 X125.58 Y115.12 E14.7653
;
; 'Wipe', 0.0 [RPM], 67.5 [mm/s]
G1 F15000
G1 X125.58 Y115.12 E14.7653
G1 F4050
G1 X125.79 Y115.38 E14.7653
G1 X125.86 Y115.28 E14.7653
G1 X125.86 Y115.11 E14.7653
G1 X125.96 Y115.02 E14.7653
G1 X125.96 Y114.98 E14.7653
G1 X125.86 Y114.89 E14.7653
G1 X125.86 Y114.72 E14.7653
G1 X125.82 Y114.71 E14.7653
G1 X125.64 Y114.94 E14.7653
G1 X125.64 Y115.12 E14.7653
G1 X125.74 Y115.37 E14.7653
G1 X125.79 Y115.38 E14.7653
G1 X125.78 Y115.05 E14.7653
;
; 'Perimeter', 180.0 [RPM], 60.1 [mm/s]
G1 F15000
G1 X114 Y123.04 E14.7653
G1 F3607.9
G1 X114.04 Y123.01 E14.7683
G1 X114.13 Y123 E14.7745
G1 X114.4 Y122.91 E14.7918
G1 X140.66 Y122.91 E16.4294
G1 X140.74 Y122.91 E16.4345
G1 X140.81 Y122.92 E16.4395
G1 X140.92 Y122.99 E16.4475
G1 X141.19 Y123.01 E16.464
G1 X141.23 Y123.04 E16.4673
G1 X141.25 Y123.37 E16.488
G1 X141.34 Y123.46 E16.4958
G1 X141.35 Y123.8 E16.5176
G1 X141.44 Y123.89 E16.5254
G1 X141.44 Y124.24 E16.5473
G1 X141.53 Y124.33 E16.5551
G1 X141.53 Y124.51 E16.566
G1 X141.62 Y124.6 E16.5738
;
; 'Wipe', 0.0 [RPM], 67.5 [mm/s]
G1 F15000
G1 X141.62 Y124.6 E16.5738
G1 F4050
G1 X141.53 Y124.51 E16.5738
G1 X141.53 Y124.33 E16.5738
G1 X141.44 Y124.24 E16.5738
G1 X141.44 Y123.89 E16.5738
G1 X141.35 Y123.8 E16.5738
G1 X141.34 Y123.46 E16.5738
G1 X141.25 Y123.37 E16.5738
G1 X141.23 Y123.04 E16.5738
G1 X141.19 Y123.01 E16.5738
G1 X140.92 Y122.99 E16.5738
G1 X140.74 Y122.91 E16.5738
G1 X140.66 Y122.91 E16.5738
G1 X137.91 Y122.91 E16.5738
;
; 'Solid', 180.0 [RPM], 60.1 [mm/s]
G1 F15000
G1 X137.77 Y120.65 E16.5738
G1 F3607.9
G1 X137.52 Y120.4 E16.5959
G1 X138.04 Y120.21 E16.6303
G1 X138.45 Y120.62 E16.667
G1 X139.39 Y120.86 E16.7275
G1 X138.39 Y119.85 E16.816
G1 X138.59 Y119.35 E16.8499
G1 X139.42 Y120.18 E16.9228
G1 X139.42 Y119.47 E16.9669
G1 X138.65 Y118.7 E17.035
G1 X138.65 Y117.99 E17.0791
G1 X139.42 Y118.76 E17.1472
G1 X139.42 Y118.06 E17.1913
G1 X138.63 Y117.26 E17.2612
G1 X139.09 Y117.02 E17.2938
G1 X139.46 Y117.39 E17.3266
;
; 'Wipe', 0.0 [RPM], 67.5 [mm/s]
G1 F15000
G1 X139.46 Y117.39 E17.3266
G1 F4050
G1 X139.09 Y117.02 E17.3266
G1 X138.63 Y117.26 E17.3266
G1 X139.42 Y118.06 E17.3266
G1 X139.42 Y118.76 E17.3266
G1 X138.65 Y117.99 E17.3266
G1 X138.65 Y118.7 E17.3266
G1 X139.42 Y119.47 E17.3266
;
; 'Solid', 180.0 [RPM], 60.1 [mm/s]
G1 F15000
G1 X115.48 Y120.98 E17.3266
G1 F3607.9
G1 X115.55 Y120.35 E17.3663
G1 X115.85 Y120.65 E17.3922
G1 X116.21 Y120.3 E17.4234
G1 X115.55 Y119.65 E17.4811
G1 X115.55 Y118.94 E17.5252
G1 X116.71 Y120.09 E17.627
G1 X116.71 Y119.39 E17.6711
G1 X115.55 Y118.23 E17.7729
G1 X115.55 Y117.52 E17.817
G1 X116.71 Y118.68 E17.9188
G1 X116.71 Y117.97 E17.9629
G1 X115.55 Y116.82 E18.0647
G1 X115.55 Y116.11 E18.1088
G1 X116.71 Y117.26 E18.2106
G1 X116.71 Y116.56 E18.2546
G1 X115.55 Y115.4 E18.3564
G1 X115.55 Y114.7 E18.4005
G1 X116.71 Y115.85 E18.5023
G1 X116.71 Y115.14 E18.5464
G1 X115.55 Y113.99 E18.6482
G1 X115.55 Y113.28 E18.6923
G1 X116.71 Y114.44 E18.7941
G1 X116.71 Y113.73 E18.8382
G1 X115.55 Y112.57 E18.94
G1 X115.55 Y111.87 E18.9841
G1 X116.71 Y113.02 E19.0859
G1 X116.71 Y112.31 E19.13
G1 X115.55 Y111.16 E19.2318
G1 X115.55 Y110.45 E19.2759
G1 X116.71 Y111.61 E19.3777
G1 X116.71 Y110.9 E19.4218
G1 X115.55 Y109.75 E19.5236
G1 X115.55 Y109.04 E19.5677
G1 X116.71 Y110.19 E19.6695
G1 X116.71 Y109.49 E19.7136
G1 X115.87 Y108.65 E19.7871
G1 X116.58 Y108.65 E19.8312
G1 X116.65 Y108.72 E19.837
;
; 'Sparse Infill', 180.0 [RPM], 60.1 [mm/s]
G1 F15000
G1 X122.93 Y108.63 E19.837
G1 F3607.9
G1 X124.7 Y110.41 E19.9935
G1 X125.41 Y109.7 E20.0559
G1 X124.34 Y108.63 E20.1501
G1 X124.81 Y108.79 E20.181
G1 X125.28 Y108.78 E20.2104
G1 X125.75 Y108.63 E20.2413
G1 X126.82 Y109.7 E20.3354
G1 X127.17 Y108.63 E20.4054
G1 X128.24 Y109.7 E20.4996
G1 X128.58 Y108.63 E20.5696
G1 X129.65 Y109.7 E20.6637
G1 X130 Y108.63 E20.7337
G1 X131.06 Y109.7 E20.8279
G1 X131.41 Y108.63 E20.8979
G1 X132.48 Y109.7 E20.9921
G1 X132.82 Y108.63 E21.0621
G1 X133.89 Y109.7 E21.1562
G1 X134.24 Y108.63 E21.2262
G1 X135.31 Y109.7 E21.3204
G1 X136.01 Y108.99 E21.3828
G1 X135.65 Y108.63 E21.4146
;
; 'Wipe', 0.0 [RPM], 67.5 [mm/s]
G1 F15000
G1 X135.65 Y108.63 E21.4146
G1 F4050
G1 X136.01 Y108.99 E21.4146
G1 X135.31 Y109.7 E21.4146
G1 X134.24 Y108.63 E21.4146
G1 X133.89 Y109.7 E21.4146
G1 X133.18 Y108.99 E21.4146
;
; 'Sparse Infill', 180.0 [RPM], 60.1 [mm/s]
G1 F15000
G1 X124.7 Y111.82 E21.4146
G1 F3607.9
G1 X123.28 Y110.4 E21.5399
G1 X123.44 Y110.75 E21.5642
G1 X123.16 Y111.23 E21.5985
G1 X122.93 Y111.46 E21.6193
G1 X124.34 Y112.88 E21.7444
;
; 'Sparse Infill', 180.0 [RPM], 60.1 [mm/s]
G1 F15000
G1 X123.28 Y113.23 E21.7444
G1 F3607.9
G1 X122.57 Y112.52 E21.8071
;
; 'Wipe', 0.0 [RPM], 67.5 [mm/s]
G1 F15000
G1 X122.57 Y112.52 E21.8071
G1 F4050
G1 X123.28 Y113.23 E21.8071
;
; 'Sparse Infill', 180.0 [RPM], 60.1 [mm/s]
G1 F15000
G1 X124.34 Y117.12 E21.8071
G1 F3607.9
G1 X124.7 Y117.48 E21.8386
G1 X123.28 Y117.47 E21.9273
G1 X124.7 Y118.89 E22.0526
G1 X122.93 Y118.53 E22.1655
G1 X125.05 Y120.66 E22.353
;
; 'Sparse Infill', 180.0 [RPM], 60.1 [mm/s]
G1 F15000
G1 X126.11 Y120.3 E22.353
G1 F3607.9
G1 X126.47 Y120.66 E22.3846
G1 X126.82 Y120.32 E22.415
G1 X127.17 Y120.5 E22.4398
G1 X127.52 Y120.3 E22.4651
G1 X127.88 Y120.66 E22.4966
G1 X128.23 Y120.32 E22.5271
G1 X128.58 Y120.5 E22.5519
G1 X128.94 Y120.3 E22.5772
G1 X129.29 Y120.66 E22.6087
G1 X129.65 Y120.32 E22.6392
G1 X130 Y120.5 E22.6639
G1 X130.35 Y120.3 E22.6892
G1 X130.71 Y120.66 E22.7208
G1 X131.06 Y120.32 E22.7513
G1 X131.41 Y120.5 E22.776
G1 X131.76 Y120.3 E22.8013
G1 X132.12 Y120.66 E22.8329
G1 X132.47 Y120.32 E22.8634
G1 X132.83 Y120.5 E22.8881
G1 X133.18 Y120.3 E22.9134
G1 X133.54 Y120.66 E22.9449
G1 X133.89 Y120.32 E22.9754
G1 X134.24 Y120.5 E23.0002
G1 X134.59 Y120.3 E23.0255
G1 X134.95 Y120.66 E23.057
G1 X135.3 Y120.32 E23.0875
G1 X135.65 Y120.5 E23.1123
G1 X136.01 Y120.3 E23.1376
G1 X136.36 Y120.66 E23.1691
;
; 'Wipe', 0.0 [RPM], 67.5 [mm/s]
G1 F15000
G1 X136.36 Y120.66 E23.1691
G1 F4050
G1 X136.01 Y120.3 E23.1691
G1 X135.65 Y120.5 E23.1691
G1 X135.3 Y120.32 E23.1691
G1 X134.95 Y120.66 E23.1691
G1 X134.59 Y120.3 E23.1691
G1 X134.24 Y120.5 E23.1691
G1 X133.89 Y120.32 E23.1691
G1 X133.54 Y120.66 E23.1691
G1 X133.18 Y120.3 E23.1691
G1 X132.83 Y120.5 E23.1691
G1 X132.47 Y120.32 E23.1691
G1 X132.12 Y120.66 E23.1691
;
; 'Sparse Infill', 180.0 [RPM], 60.1 [mm/s]
G1 F15000
G1 X123.29 Y116.06 E23.1691
G1 F3607.9
G1 X120.8 Y113.58 E23.388
G1 X120.33 Y113.73 E23.4189
G1 X119.86 Y113.74 E23.4483
G1 X119.39 Y113.58 E23.4792
G1 X122.23 Y116.42 E23.7293
G1 X121.75 Y116.26 E23.7602
G1 X121.28 Y116.27 E23.7896
G1 X120.81 Y116.42 E23.8204
G1 X117.98 Y113.58 E24.0705
G1 X117.62 Y113.78 E24.0959
G1 X117.27 Y113.82 E24.118
G1 X116.92 Y113.94 E24.1413
G1 X119.4 Y116.42 E24.3602
G1 X118.93 Y116.26 E24.3911
G1 X118.45 Y116.27 E24.4205
G1 X117.98 Y116.42 E24.4513
G1 X116.92 Y115.35 E24.5455
;
; 'Sparse Infill', 180.0 [RPM], 60.1 [mm/s]
G1 F15000
G1 X122.22 Y113.58 E24.5455
G1 F3607.9
G1 X123.29 Y114.65 E24.6397
;
; 'Stacked Sparse Infill', 180.0 [RPM], 60.1 [mm/s]
G1 F15000
G1 X122.22 Y112.89 E24.6397
G1 F3607.9
G1 X122.22 Y110.76 E24.7724
G1 X120.81 Y109.34 E24.8971
G1 X117.98 Y109.34 E25.0735
G1 X117.27 Y108.63 E25.1362
;
; 'Stacked Sparse Infill', 180.0 [RPM], 60.1 [mm/s]
G1 F15000
G1 X122.22 Y117.11 E25.1362
G1 F3607.9
G1 X122.22 Y119.24 E25.2689
G1 X122.23 Y119.25 E25.2692
G1 X118.55 Y120.09 E25.5047
G1 X118.09 Y119.9 E25.5357
G1 X117.63 Y120.3 E25.5739
G1 X116.92 Y119.59 E25.6366
;
; 'Wipe', 0.0 [RPM], 67.5 [mm/s]
G1 F15000
G1 X116.92 Y119.59 E25.6366
G1 F4050
G1 X117.63 Y120.3 E25.6366
G1 X118.09 Y119.9 E25.6366
G1 X118.55 Y120.09 E25.6366
G1 X121.77 Y119.35 E25.6366
;
; 'Stacked Sparse Infill', 180.0 [RPM], 60.1 [mm/s]
G1 F15000
G1 X116.56 Y124.19 E25.6366
G1 F3607.9
G1 X116.56 Y124.9 E25.6811
G1 X117.98 Y126.31 E25.8059
G1 X120.81 Y126.31 E25.9823
G1 X122.22 Y127.73 E26.107
G1 X122.22 Y130.56 E26.2834
G1 X123.64 Y131.97 E26.4081
G1 X126.46 Y131.97 E26.5845
G1 X127.88 Y133.38 E26.7092
G1 X127.88 Y136.21 E26.8856
G1 X129.29 Y137.63 E27.0103
G1 X127.88 Y139.04 E27.1351
G1 X126.46 Y137.63 E27.2598
G1 X126.46 Y137.63 E27.2598
G1 X122.22 Y133.39 E27.6339
G1 X122.22 Y133.38 E27.634
G1 X120.81 Y131.97 E27.7588
G1 X116.56 Y127.73 E28.1328
G1 X116.56 Y127.73 E28.1329
G1 X115.15 Y126.31 E28.2577
G1 X122.22 Y124.19 E28.7183
G1 X122.22 Y124.9 E28.7628
G1 X123.64 Y126.31 E28.8875
G1 X126.46 Y126.31 E29.0639
G1 X127.88 Y127.73 E29.1886
G1 X127.88 Y130.56 E29.365
G1 X129.29 Y131.97 E29.4898
G1 X132.12 Y131.97 E29.6662
G1 X133.54 Y133.38 E29.7909
G1 X134.95 Y131.97 E29.9156
G1 X133.54 Y130.56 E30.0403
G1 X133.54 Y127.73 E30.2167
G1 X132.12 Y126.31 E30.3414
G1 X129.29 Y126.31 E30.5178
G1 X127.88 Y124.9 E30.6426
G1 X127.88 Y124.19 E30.6871
G1 X133.54 Y124.19 E31.0399
G1 X133.54 Y124.9 E31.0844
G1 X134.95 Y126.31 E31.2091
G1 X137.78 Y126.31 E31.3855
G1 X139.19 Y127.73 E31.5102
G1 X140.61 Y126.31 E31.635
G1 X139.19 Y124.9 E31.7597
G1 X139.19 Y124.19 E31.8042
;
; 'Wipe', 0.0 [RPM], 67.5 [mm/s]
G1 F15000
G1 X139.19 Y124.19 E31.8042
G1 F4050
G1 X139.19 Y124.9 E31.8042
G1 X140.61 Y126.31 E31.8042
G1 X139.19 Y127.73 E31.8042
G1 X138.84 Y127.37 E31.8042
;
; 'Sparse Infill', 180.0 [RPM], 60.1 [mm/s]
G1 F15000
G1 X148.03 Y111.11 E31.8042
G1 F3607.9
G1 X147.67 Y110.75 E31.836
G1 X147.83 Y110.28 E31.8668
G1 X147.68 Y109.82 E31.8974
G1 X147.68 Y109.35 E31.9267
G1 X147.67 Y109.34 E31.9273
;
; 'Wipe', 0.0 [RPM], 67.5 [mm/s]
G1 F15000
G1 X147.67 Y109.34 E31.9273
G1 F4050
G1 X147.68 Y109.35 E31.9273
G1 X147.68 Y109.82 E31.9273
G1 X147.83 Y110.28 E31.9273
G1 X147.67 Y110.75 E31.9273
G1 X148.03 Y111.11 E31.9273
;
; 'Stacked Sparse Infill', 180.0 [RPM], 60.1 [mm/s]
G1 F15000
G1 X144.49 Y116.06 E31.9273
G1 F3607.9
G1 X144.85 Y116.41 E31.9588
G1 X144.85 Y117.83 E32.0471
;
; 'Wipe', 0.0 [RPM], 67.5 [mm/s]
G1 F15000
G1 X144.85 Y117.83 E32.0471
G1 F4050
G1 X144.85 Y116.41 E32.0471
G1 X144.49 Y116.06 E32.0471
;
; 'Stacked Sparse Infill', 180.0 [RPM], 60.1 [mm/s]
G1 F15000
G1 X145.2 Y119.6 E32.0471
G1 F3607.9
G1 X146.26 Y120.66 E32.1407
G1 X147.67 Y115 E32.5042
G1 X149.09 Y115 E32.5928
G1 X150.51 Y116.41 E32.7176
G1 X151.92 Y115 E32.8423
G1 X150.51 Y113.59 E32.967
G1 X150.51 Y110.76 E33.1434
G1 X149.09 Y109.34 E33.2681
G1 X148.38 Y109.34 E33.3127
;
; 'Wipe', 0.0 [RPM], 67.5 [mm/s]
G1 F15000
G1 X148.38 Y109.34 E33.3127
G1 F4050
G1 X149.09 Y109.34 E33.3127
G1 X150.51 Y110.76 E33.3127
G1 X150.51 Y113.59 E33.3127
;
; 'Loop', 180.0 [RPM], 60.1 [mm/s]
G1 F15000
G1 X139.93 Y113.44 E33.3127
G1 F3607.9
G1 X139.78 Y113.47 E33.3223
G1 X138.25 Y113.47 E33.4177
G1 X139.08 Y112.59 E33.493
G1 X139.08 Y109.1 E33.7107
G1 X138.17 Y108.14 E33.7935
G1 X139.87 Y108.14 E33.8996
G1 X139.93 Y108.25 E33.9076
G1 X139.93 Y113.44 E34.2315
;
; 'Perimeter', 180.0 [RPM], 60.1 [mm/s]
G1 F15000
G1 X140.25 Y113.66 E34.2315
G1 F3607.9
G1 X140.44 Y113.95 E34.253
G1 X140.28 Y113.97 E34.2628
G1 X137.92 Y113.97 E34.4099
G1 X137.95 Y113.94 E34.4126
G1 X137.94 Y113.74 E34.4245
G1 X139.07 Y112.58 E34.5259
G1 X139.07 Y109.11 E34.7419
G1 X137.85 Y107.86 E34.851
G1 X137.86 Y107.67 E34.8631
G1 X137.84 Y107.64 E34.8655
G1 X140.37 Y107.64 E35.0233
G1 X140.44 Y107.74 E35.0312
G1 X140.44 Y113.95 E35.4183
G1 X140.13 Y113.81 E35.4398
;
; 'Solid', 180.0 [RPM], 60.1 [mm/s]
G1 F15000
G1 X139.44 Y112.42 E35.4398
G1 F3607.9
G1 X139.16 Y112.14 E35.465
G1 X139.5 Y111.77 E35.4962
G1 X139.21 Y111.48 E35.5215
G1 X139.44 Y111.01 E35.5544
G1 X139.16 Y110.72 E35.5797
G1 X139.5 Y110.35 E35.6109
G1 X139.21 Y110.07 E35.6361
G1 X139.44 Y109.59 E35.6691
G1 X139.16 Y109.31 E35.6943
G1 X139.38 Y108.83 E35.7275
G1 X139.19 Y108.63 E35.7448
;
; 'Wipe', 0.0 [RPM], 67.5 [mm/s]
G1 F15000
G1 X139.19 Y108.63 E35.7448
G1 F4050
G1 X139.38 Y108.83 E35.7448
G1 X139.16 Y109.31 E35.7448
G1 X139.44 Y109.59 E35.7448
G1 X139.21 Y110.07 E35.7448
G1 X139.5 Y110.35 E35.7448
G1 X139.16 Y110.72 E35.7448
G1 X139.44 Y111.01 E35.7448
G1 X139.21 Y111.48 E35.7448
G1 X139.5 Y111.77 E35.7448
G1 X139.16 Y112.14 E35.7448
G1 X139.44 Y112.42 E35.7448
;
; 'Loop', 180.0 [RPM], 60.1 [mm/s]
G1 F15000
G1 X135.45 Y112.85 E35.7448
G1 F3607.9
G1 X136.58 Y111.78 E35.8418
G1 X136.58 Y113.98 E35.9789
G1 X136.51 Y114.32 E36.0009
G1 X136.46 Y114.38 E36.006
G1 X135.77 Y114.4 E36.0489
G1 X135.68 Y114.49 E36.0567
G1 X135.33 Y114.5 E36.0785
;
; 'Wipe', 0.0 [RPM], 67.5 [mm/s]
G1 F15000
G1 X135.33 Y114.5 E36.0785
G1 F4050
G1 X135.68 Y114.49 E36.0785
G1 X135.77 Y114.4 E36.0785
G1 X136.46 Y114.38 E36.0785
G1 X136.51 Y114.32 E36.0785
G1 X136.58 Y113.98 E36.0785
G1 X136.58 Y111.78 E36.0785
G1 X135.63 Y112.68 E36.0785
;
; 'Perimeter', 180.0 [RPM], 60.1 [mm/s]
G1 F15000
G1 X135.44 Y112.84 E36.0785
G1 F3607.9
G1 X136.6 Y111.7 E36.1799
G1 X137.05 Y111.31 E36.2173
G1 X137.08 Y111.45 E36.2266
G1 X137.08 Y114.1 E36.392
G1 X137.02 Y114.25 E36.4017
G1 X136.91 Y114.31 E36.4098
G1 X136.74 Y114.32 E36.4203
G1 X136.66 Y114.41 E36.4281
G1 X136.61 Y114.41 E36.4312
G1 X135.78 Y114.42 E36.4826
G1 X135.69 Y114.51 E36.4904
G1 X135.34 Y114.51 E36.5123
;
; 'Wipe', 0.0 [RPM], 67.5 [mm/s]
G1 F15000
G1 X135.34 Y114.51 E36.5123
G1 F4050
G1 X135.69 Y114.51 E36.5123
G1 X135.78 Y114.42 E36.5123
G1 X136.61 Y114.41 E36.5123
G1 X136.66 Y114.41 E36.5123
G1 X136.74 Y114.32 E36.5123
G1 X136.91 Y114.31 E36.5123
G1 X137.02 Y114.25 E36.5123
G1 X137.08 Y114.1 E36.5123
G1 X137.08 Y111.45 E36.5123
G1 X137.05 Y111.31 E36.5123
G1 X136.79 Y111.53 E36.5123
;
; 'Stacked Sparse Infill', 180.0 [RPM], 60.1 [mm/s]
G1 F15000
G1 X134.95 Y115 E36.5123
G1 F3607.9
G1 X134.95 Y115 E36.5124
G1 X133.54 Y113.59 E36.6371
G1 X133.54 Y113.58 E36.6376
G1 X133.54 Y116.42 E36.8148
G1 X133.54 Y116.41 E36.8153
G1 X132.12 Y115 E36.94
G1 X129.29 Y115 E37.1164
G1 X128.23 Y113.94 E37.2102
;
; 'Wipe', 0.0 [RPM], 67.5 [mm/s]
G1 F15000
G1 X128.23 Y113.94 E37.2102
G1 F4050
G1 X129.29 Y115 E37.2102
G1 X132.12 Y115 E37.2102
G1 X132.83 Y115.71 E37.2102
; fan off
M107
G1 F210
G1 X132.83 Y115.71 Z1.5 E37.2102
; END_LAYER_OBJECT z=1.20
; Reset extruder pos
G92 E0
; BEGIN_LAYER_OBJECT z=1.50
; fan on
M106
;
; 'Perimeter', 180.0 [RPM], 60.1 [mm/s]
G1 F15000
G1 X114.2 Y107.68 E0
G1 F3607.9
G1 X114.33 Y107.64 E0.0086
G1 X137.01 Y107.64 E1.4231
G1 X137.08 Y107.74 E1.431
G1 X137.08 Y110.59 E1.6087
G1 X126.1 Y110.59 E2.2933
G1 X125.78 Y110.6 E2.3137
G1 X125.67 Y110.67 E2.3217
G1 X125.59 Y110.92 E2.3384
G1 X125.59 Y111.1 E2.3497
G1 X125.59 Y113.77 E2.5159
G1 X125.56 Y113.92 E2.5255
G1 X125.43 Y113.91 E2.5337
G1 X125.39 Y113.78 E2.5425
G1 X125.39 Y113.6 E2.5535
G1 X125.2 Y113.43 E2.5691
G1 X125.02 Y113.44 E2.5805
G1 X124.75 Y113.18 E2.6039
G1 X124.57 Y113.18 E2.6151
G1 X124.4 Y113 E2.6307
G1 X124.22 Y113 E2.6418
G1 X124.13 Y112.91 E2.6496
G1 X123.95 Y112.92 E2.6607
G1 X123.86 Y112.83 E2.6685
;
; 'Wipe', 0.0 [RPM], 67.5 [mm/s]
G1 F15000
G1 X123.86 Y112.83 E2.6685
G1 F4050
G1 X123.95 Y112.92 E2.6685
G1 X124.13 Y112.91 E2.6685
G1 X124.22 Y113 E2.6685
G1 X124.4 Y113 E2.6685
G1 X124.57 Y113.18 E2.6685
G1 X124.75 Y113.18 E2.6685
G1 X125.02 Y113.44 E2.6685
G1 X125.2 Y113.43 E2.6685
G1 X125.39 Y113.6 E2.6685
G1 X125.39 Y113.78 E2.6685
G1 X125.43 Y113.91 E2.6685
G1 X125.56 Y113.92 E2.6685
G1 X125.59 Y113.77 E2.6685
G1 X125.59 Y111.12 E2.6685
;
; 'Loop', 180.0 [RPM], 60.1 [mm/s]
G1 F15000
G1 X113.82 Y123.58 E2.6685
G1 F3607.9
G1 X113.8 Y124.66 E2.7361
;
; 'Loop', 180.0 [RPM], 60.1 [mm/s]
G1 F15000
G1 X113.82 Y123.57 E2.7361
G1 F3607.9
G1 X113.9 Y123.5 E2.7423
G1 X114.21 Y123.43 E2.7623
G1 X114.34 Y123.41 E2.7709
G1 X141.58 Y123.4 E4.4695
G1 X141.95 Y123.42 E4.4928
G1 X142.12 Y123.41 E4.5031
G1 X142.26 Y123.37 E4.5121
G1 X142.48 Y123.24 E4.5282
G1 X143.37 Y124.08 E4.6045
;
; 'Wipe', 0.0 [RPM], 67.5 [mm/s]
G1 F15000
G1 X143.37 Y124.08 E4.6045
G1 F4050
G1 X142.48 Y123.24 E4.6045
G1 X142.26 Y123.37 E4.6045
G1 X141.95 Y123.42 E4.6045
G1 X141.58 Y123.4 E4.6045
G1 X141.39 Y123.41 E4.6045
G1 X138.74 Y123.41 E4.6045
;
; 'Perimeter', 180.0 [RPM], 60.1 [mm/s]
G1 F15000
G1 X113.9 Y123.14 E4.6045
G1 F3607.9
G1 X113.88 Y123.46 E4.624
G1 X113.79 Y123.54 E4.6318
G1 X113.8 Y123.6 E4.6355
G1 X113.79 Y124.67 E4.7022
;
; 'Wipe', 0.0 [RPM], 67.5 [mm/s]
G1 F15000
G1 X113.79 Y124.67 E4.7022
G1 F4050
G1 X113.8 Y123.6 E4.7022
G1 X113.79 Y123.54 E4.7022
G1 X113.88 Y123.46 E4.7022
G1 X113.9 Y123.14 E4.7022
;
; 'Loop', 180.0 [RPM], 60.1 [mm/s]
G1 F15000
G1 X124.58 Y120.59 E4.7022
G1 F3607.9
G1 X124.67 Y120.68 E4.71
G1 X124.85 Y120.68 E4.7211
G1 X124.94 Y120.77 E4.7289
G1 X125.29 Y120.77 E4.7511
G1 X125.38 Y120.86 E4.7589
G1 X137.8 Y120.86 E5.5337
G1 X137.89 Y120.77 E5.5415
G1 X138.25 Y120.77 E5.5637
G1 X138.33 Y120.68 E5.5715
G1 X138.51 Y120.68 E5.5827
G1 X138.6 Y120.59 E5.5904
;
; 'Perimeter', 180.0 [RPM], 60.1 [mm/s]
G1 F15000
G1 X124.57 Y120.61 E5.5904
G1 F3607.9
G1 X124.66 Y120.7 E5.5982
G1 X124.84 Y120.69 E5.6094
G1 X124.92 Y120.78 E5.6172
G1 X125.28 Y120.78 E5.6393
G1 X125.37 Y120.87 E5.6471
G1 X137.82 Y120.87 E6.4235
G1 X137.9 Y120.78 E6.4313
G1 X138.26 Y120.78 E6.4535
G1 X138.35 Y120.69 E6.4613
G1 X138.52 Y120.69 E6.4724
G1 X138.61 Y120.61 E6.4802
;
; 'Wipe', 0.0 [RPM], 67.5 [mm/s]
G1 F15000
G1 X138.61 Y120.61 E6.4802
G1 F4050
G1 X138.52 Y120.69 E6.4802
G1 X138.35 Y120.69 E6.4802
G1 X138.26 Y120.78 E6.4802
G1 X137.9 Y120.78 E6.4802
G1 X137.82 Y120.87 E6.4802
G1 X133.68 Y120.87 E6.4802
;
; 'Loop', 180.0 [RPM], 60.1 [mm/s]
G1 F15000
G1 X123.87 Y117.18 E6.4802
G1 F3607.9
G1 X123.96 Y117.1 E6.488
G1 X124.14 Y117.1 E6.4992
G1 X124.23 Y117.01 E6.507
G1 X124.41 Y117.01 E6.5182
G1 X124.59 Y116.84 E6.5338
G1 X124.77 Y116.84 E6.5451
G1 X125.05 Y116.59 E6.5685
G1 X125.08 Y116.62 E6.5713
G1 X125.08 Y119.03 E6.7218
G1 X125.12 Y119.35 E6.7415
G1 X125.24 Y119.58 E6.758
G1 X125.42 Y119.76 E6.7736
G1 X125.65 Y119.88 E6.7901
G1 X125.97 Y119.91 E6.8102
G1 X137.29 Y119.91 E7.5158
G1 X137.66 Y119.83 E7.5394
G1 X137.86 Y119.68 E7.5552
G1 X138.01 Y119.48 E7.571
G1 X138.11 Y119.22 E7.5882
G1 X138.14 Y119.06 E7.598
G1 X138.14 Y116.59 E7.7519
G1 X138.24 Y116.52 E7.7599
G1 X140.85 Y116.52 E7.9226
G1 X140.89 Y116.66 E7.9313
G1 X140.89 Y121.65 E8.2427
G1 X140.81 Y121.75 E8.2505
G1 X140.69 Y121.8 E8.2588
G1 X140.6 Y121.72 E8.2663
G1 X140.59 Y121.55 E8.2769
G1 X139.7 Y120.68 E8.3549
;
; 'Wipe', 0.0 [RPM], 67.5 [mm/s]
G1 F15000
G1 X139.7 Y120.68 E8.3549
G1 F4050
G1 X140.59 Y121.55 E8.3549
G1 X140.6 Y121.72 E8.3549
G1 X140.69 Y121.8 E8.3549
G1 X140.81 Y121.75 E8.3549
G1 X140.89 Y121.65 E8.3549
G1 X140.89 Y118.43 E8.3549
;
; 'Perimeter', 180.0 [RPM], 60.1 [mm/s]
G1 F15000
G1 X123.86 Y117.17 E8.3549
G1 F3607.9
G1 X123.95 Y117.08 E8.3627
G1 X124.13 Y117.09 E8.3738
G1 X124.22 Y117 E8.3816
G1 X124.4 Y117 E8.3927
G1 X124.57 Y116.82 E8.4083
G1 X124.75 Y116.82 E8.4195
G1 X125.02 Y116.56 E8.4429
G1 X125.2 Y116.57 E8.4543
G1 X125.39 Y116.4 E8.4699
G1 X125.39 Y116.22 E8.4809
G1 X125.43 Y116.09 E8.4897
G1 X125.56 Y116.08 E8.4978
G1 X125.59 Y116.23 E8.5074
G1 X125.59 Y118.9 E8.6736
G1 X125.61 Y119.22 E8.6936
G1 X125.67 Y119.33 E8.7017
G1 X125.92 Y119.4 E8.7177
G1 X125.95 Y119.4 E8.7196
G1 X137.26 Y119.4 E9.4251
G1 X137.4 Y119.4 E9.4338
G1 X137.51 Y119.33 E9.4418
G1 X137.63 Y119.04 E9.4616
G1 X137.63 Y118.21 E9.5129
G1 X137.63 Y116.09 E9.6452
G1 X137.74 Y116.02 E9.6532
G1 X141.28 Y116.02 E9.8737
G1 X141.4 Y116.15 E9.885
G1 X141.4 Y122.16 E10.2597
G1 X141.09 Y122.2 E10.2795
G1 X140.95 Y122.23 E10.2886
G1 X140.76 Y122.09 E10.303
G1 X140.76 Y121.92 E10.3137
G1 X140.57 Y121.75 E10.3293
G1 X140.57 Y121.57 E10.3403
G1 X139.68 Y120.7 E10.4182
;
; 'Wipe', 0.0 [RPM], 67.5 [mm/s]
G1 F15000
G1 X139.68 Y120.7 E10.4182
G1 F4050
G1 X140.57 Y121.57 E10.4182
G1 X140.57 Y121.75 E10.4182
G1 X140.76 Y121.92 E10.4182
G1 X140.76 Y122.09 E10.4182
G1 X140.95 Y122.23 E10.4182
G1 X141.09 Y122.2 E10.4182
G1 X141.4 Y122.16 E10.4182
G1 X141.4 Y119.69 E10.4182
;
; 'Perimeter', 180.0 [RPM], 60.1 [mm/s]
G1 F15000
G1 X125.78 Y115.05 E10.4182
G1 F3607.9
G1 X125.79 Y115.38 E10.4393
G1 X125.74 Y115.37 E10.4425
G1 X125.64 Y115.12 E10.4594
G1 X125.64 Y114.94 E10.4705
G1 X125.82 Y114.71 E10.4888
G1 X125.86 Y114.72 E10.4912
G1 X125.86 Y114.89 E10.5021
G1 X125.96 Y114.98 E10.5099
G1 X125.96 Y115.02 E10.5127
G1 X125.86 Y115.11 E10.5205
G1 X125.86 Y115.28 E10.5313
G1 X125.79 Y115.38 E10.5392
G1 X125.58 Y115.12 E10.5603
;
; 'Wipe', 0.0 [RPM], 67.5 [mm/s]
G1 F15000
G1 X125.58 Y115.12 E10.5603
G1 F4050
G1 X125.79 Y115.38 E10.5603
G1 X125.86 Y115.28 E10.5603
G1 X125.86 Y115.11 E10.5603
G1 X125.96 Y115.02 E10.5603
G1 X125.96 Y114.98 E10.5603
G1 X125.86 Y114.89 E10.5603
G1 X125.86 Y114.72 E10.5603
G1 X125.82 Y114.71 E10.5603
G1 X125.64 Y114.94 E10.5603
G1 X125.64 Y115.12 E10.5603
G1 X125.74 Y115.37 E10.5603
G1 X125.79 Y115.38 E10.5603
G1 X125.78 Y115.05 E10.5603
;
; 'Perimeter', 180.0 [RPM], 60.1 [mm/s]
G1 F15000
G1 X141.87 Y115.22 E10.5603
G1 F3607.9
G1 X142.11 Y115.45 E10.581
G1 X142.07 Y115.48 E10.5842
G1 X141.8 Y115.49 E10.6009
G1 X141.65 Y115.37 E10.6131
G1 X141.66 Y115.34 E10.6148
G1 X141.82 Y115.16 E10.6304
G1 X141.81 Y114.97 E10.6419
G1 X142.22 Y114.97 E10.6674
G1 X142.23 Y115.03 E10.6709
G1 X142.14 Y115.12 E10.6787
G1 X142.11 Y115.45 E10.6994
G1 X141.78 Y115.42 E10.7201
;
; 'Wipe', 0.0 [RPM], 67.5 [mm/s]
G1 F15000
G1 X141.78 Y115.42 E10.7201
G1 F4050
G1 X142.11 Y115.45 E10.7201
G1 X142.14 Y115.12 E10.7201
G1 X142.23 Y115.03 E10.7201
G1 X142.22 Y114.97 E10.7201
G1 X141.81 Y114.97 E10.7201
G1 X141.82 Y115.16 E10.7201
G1 X141.66 Y115.34 E10.7201
G1 X141.65 Y115.37 E10.7201
G1 X141.8 Y115.49 E10.7201
G1 X142.07 Y115.48 E10.7201
G1 X142.11 Y115.45 E10.7201
G1 X141.87 Y115.22 E10.7201
;
; 'Perimeter', 180.0 [RPM], 60.1 [mm/s]
G1 F15000
G1 X113.9 Y123.12 E10.7201
G1 F3607.9
G1 X113.95 Y122.99 E10.7286
G1 X114.14 Y122.91 E10.7416
G1 X138.79 Y122.91 E12.2789
G1 X141.36 Y122.91 E12.4393
G1 X141.44 Y122.9 E12.4441
G1 X141.5 Y122.94 E12.4487
G1 X141.65 Y122.94 E12.4583
G1 X141.72 Y122.9 E12.4634
G1 X141.98 Y122.92 E12.4796
G1 X142.12 Y122.88 E12.4887
G1 X142.49 Y123.19 E12.5187
G1 X143.38 Y124.07 E12.5966
;
; 'Wipe', 0.0 [RPM], 67.5 [mm/s]
G1 F15000
G1 X143.38 Y124.07 E12.5966
G1 F4050
G1 X142.49 Y123.19 E12.5966
G1 X142.12 Y122.88 E12.5966
G1 X141.98 Y122.92 E12.5966
G1 X141.72 Y122.9 E12.5966
G1 X141.65 Y122.94 E12.5966
G1 X141.5 Y122.94 E12.5966
G1 X141.44 Y122.9 E12.5966
G1 X138.79 Y122.91 E12.5966
;
; 'Loop', 180.0 [RPM], 60.1 [mm/s]
G1 F15000
G1 X114.7 Y108.2 E12.5966
G1 F3607.9
G1 X114.7 Y121.81 E13.4455
G1 X115.97 Y120.6 E13.5551
;
; 'Loop', 180.0 [RPM], 60.1 [mm/s]
G1 F15000
G1 X114.7 Y108.19 E13.5551
G1 F3607.9
G1 X114.83 Y108.14 E13.5636
G1 X136.51 Y108.14 E14.9154
G1 X136.58 Y108.24 E14.9233
G1 X136.57 Y110.08 E15.038
G1 X126.08 Y110.08 E15.6925
G1 X125.71 Y110.1 E15.7158
G1 X125.41 Y110.23 E15.736
G1 X125.23 Y110.41 E15.7516
G1 X125.12 Y110.65 E15.7681
G1 X125.08 Y111.08 E15.7953
G1 X125.08 Y113.38 E15.9386
G1 X125.05 Y113.41 E15.9414
G1 X124.77 Y113.16 E15.9648
G1 X124.59 Y113.16 E15.9762
G1 X124.41 Y112.99 E15.9918
G1 X124.23 Y112.99 E16.003
G1 X124.14 Y112.9 E16.0108
G1 X123.96 Y112.9 E16.0219
G1 X123.87 Y112.82 E16.0297
;
; 'Wipe', 0.0 [RPM], 67.5 [mm/s]
G1 F15000
G1 X123.87 Y112.82 E16.0297
G1 F4050
G1 X123.96 Y112.9 E16.0297
G1 X124.14 Y112.9 E16.0297
G1 X124.23 Y112.99 E16.0297
G1 X124.41 Y112.99 E16.0297
G1 X124.59 Y113.16 E16.0297
G1 X124.77 Y113.16 E16.0297
G1 X125.05 Y113.41 E16.0297
G1 X125.08 Y113.38 E16.0297
G1 X125.08 Y110.97 E16.0297
G1 X125.12 Y110.65 E16.0297
G1 X125.23 Y110.41 E16.0297
G1 X125.41 Y110.23 E16.0297
G1 X125.71 Y110.1 E16.0297
;
; 'Perimeter', 180.0 [RPM], 60.1 [mm/s]
G1 F15000
G1 X114.2 Y107.82 E16.0297
G1 F3607.9
G1 X114.2 Y122.14 E16.9227
G1 X114.28 Y122.23 E16.9305
G1 X114.74 Y121.84 E16.9681
G1 X115.98 Y120.61 E17.0773
;
; 'Solid', 180.0 [RPM], 60.1 [mm/s]
G1 F15000
G1 X115.72 Y120.79 E17.0773
G1 F3607.9
G1 X115.22 Y121.3 E17.1215
G1 X115.22 Y120.59 E17.1656
G1 X115.65 Y120.16 E17.2033
G1 X115.65 Y119.45 E17.2474
G1 X115.22 Y119.88 E17.2851
G1 X115.22 Y119.17 E17.3292
G1 X115.65 Y118.75 E17.3669
G1 X115.65 Y118.04 E17.411
G1 X115.22 Y118.47 E17.4486
G1 X115.22 Y117.76 E17.4927
G1 X115.65 Y117.33 E17.5304
G1 X115.65 Y116.63 E17.5745
G1 X115.22 Y117.05 E17.6122
G1 X115.22 Y116.35 E17.6563
G1 X115.65 Y115.92 E17.6939
G1 X115.65 Y115.21 E17.738
G1 X115.22 Y115.64 E17.7757
G1 X115.22 Y114.93 E17.8198
G1 X115.65 Y114.5 E17.8575
G1 X115.65 Y113.8 E17.9016
G1 X115.22 Y114.22 E17.9393
G1 X115.22 Y113.52 E17.9833
G1 X115.65 Y113.09 E18.021
G1 X115.65 Y112.38 E18.0651
G1 X115.22 Y112.81 E18.1028
G1 X115.22 Y112.1 E18.1469
G1 X115.65 Y111.68 E18.1846
G1 X115.65 Y110.97 E18.2287
G1 X115.22 Y111.4 E18.2663
G1 X115.22 Y110.69 E18.3104
G1 X115.65 Y110.26 E18.3481
G1 X115.65 Y109.55 E18.3922
G1 X115.22 Y109.98 E18.4299
G1 X115.22 Y109.27 E18.474
G1 X115.66 Y108.83 E18.5128
G1 X115.16 Y108.63 E18.5466
;
; 'Wipe', 0.0 [RPM], 67.5 [mm/s]
G1 F15000
G1 X115.16 Y108.63 E18.5466
G1 F4050
G1 X115.66 Y108.83 E18.5466
G1 X115.22 Y109.27 E18.5466
G1 X115.22 Y109.98 E18.5466
G1 X115.65 Y109.55 E18.5466
G1 X115.65 Y110.26 E18.5466
G1 X115.22 Y110.69 E18.5466
G1 X115.22 Y111.4 E18.5466
G1 X115.65 Y110.97 E18.5466
;
; 'Solid', 180.0 [RPM], 60.1 [mm/s]
G1 F15000
G1 X138.63 Y117.69 E18.5466
G1 F3607.9
G1 X139.28 Y117.04 E18.6039
G1 X139.98 Y117.04 E18.648
G1 X138.65 Y118.37 E18.7656
G1 X138.63 Y119.1 E18.8109
G1 X140.38 Y117.35 E18.9648
G1 X140.38 Y118.06 E19.0089
G1 X138.36 Y120.07 E19.1868
G1 X138.51 Y120.63 E19.2227
G1 X140.38 Y118.77 E19.3872
G1 X140.38 Y119.47 E19.4313
G1 X139.53 Y120.32 E19.5063
G1 X139.89 Y120.66 E19.5375
G1 X140.38 Y120.18 E19.58
G1 X140.38 Y120.89 E19.6241
G1 X140.23 Y121.04 E19.6373
;
; 'Wipe', 0.0 [RPM], 67.5 [mm/s]
G1 F15000
G1 X140.23 Y121.04 E19.6373
G1 F4050
G1 X140.38 Y120.89 E19.6373
G1 X140.38 Y120.18 E19.6373
G1 X139.89 Y120.66 E19.6373
G1 X139.53 Y120.32 E19.6373
G1 X140.38 Y119.47 E19.6373
G1 X140.38 Y118.77 E19.6373
G1 X138.51 Y120.63 E19.6373
;
; 'Sparse Infill', 180.0 [RPM], 60.1 [mm/s]
G1 F15000
G1 X136.01 Y109.69 E19.6373
G1 F3607.9
G1 X136.01 Y109.7 E19.6379
G1 X135.81 Y109.34 E19.6633
G1 X135.78 Y108.99 E19.6856
G1 X135.66 Y108.63 E19.7089
G1 X134.59 Y109.7 E19.8031
G1 X134.25 Y108.63 E19.8731
G1 X133.18 Y109.7 E19.9672
G1 X132.83 Y108.63 E20.0372
G1 X131.76 Y109.7 E20.1314
G1 X131.42 Y108.63 E20.2014
G1 X130.35 Y109.7 E20.2956
G1 X130 Y108.63 E20.3656
G1 X128.94 Y109.7 E20.4597
G1 X128.59 Y108.63 E20.5297
G1 X127.52 Y109.7 E20.6239
G1 X127.18 Y108.63 E20.6939
G1 X126.11 Y109.7 E20.788
G1 X125.76 Y108.63 E20.858
G1 X122.93 Y111.47 E21.1081
G1 X123.19 Y111.2 E21.1315
G1 X123.4 Y110.58 E21.1721
G1 X123.43 Y110.14 E21.1997
G1 X123.28 Y109.7 E21.2289
G1 X124.35 Y108.63 E21.323
G1 X123.88 Y108.79 E21.354
G1 X123.4 Y108.78 E21.3834
G1 X122.93 Y108.63 E21.4142
G1 X122.57 Y108.99 E21.446
;
; 'Sparse Infill', 180.0 [RPM], 60.1 [mm/s]
G1 F15000
G1 X124.7 Y111.11 E21.446
G1 F3607.9
G1 X122.93 Y112.88 E21.6026
G1 X124.7 Y112.52 E21.7155
G1 X124.34 Y112.88 E21.747
;
; 'Wipe', 0.0 [RPM], 67.5 [mm/s]
G1 F15000
G1 X124.34 Y112.88 E21.747
G1 F4050
G1 X124.7 Y112.52 E21.747
G1 X122.93 Y112.88 E21.747
G1 X124.7 Y111.11 E21.747
;
; 'Sparse Infill', 180.0 [RPM], 60.1 [mm/s]
G1 F15000
G1 X124.34 Y117.12 E21.747
G1 F3607.9
G1 X122.57 Y118.89 E21.9033
G1 X122.81 Y119.13 E21.9241
G1 X123.09 Y119.6 E21.9584
G1 X122.93 Y119.95 E21.9827
G1 X124.7 Y118.18 E22.1392
G1 X124.55 Y118.65 E22.1701
G1 X124.55 Y119.12 E22.1995
G1 X124.7 Y119.59 E22.2304
G1 X123.99 Y120.3 E22.2931
;
; 'Wipe', 0.0 [RPM], 67.5 [mm/s]
G1 F15000
G1 X123.99 Y120.3 E22.2931
G1 F4050
G1 X124.7 Y119.59 E22.2931
G1 X124.55 Y119.12 E22.2931
G1 X124.55 Y118.65 E22.2931
G1 X124.7 Y118.18 E22.2931
G1 X122.93 Y119.95 E22.2931
G1 X123.09 Y119.6 E22.2931
;
; 'Sparse Infill', 180.0 [RPM], 60.1 [mm/s]
G1 F15000
G1 X125.05 Y120.66 E22.2931
G1 F3607.9
G1 X125.41 Y120.3 E22.3247
G1 X125.76 Y120.5 E22.35
G1 X126.11 Y120.32 E22.3747
G1 X126.46 Y120.66 E22.4052
G1 X126.82 Y120.3 E22.4367
G1 X127.17 Y120.5 E22.462
G1 X127.53 Y120.32 E22.4868
G1 X127.88 Y120.66 E22.5173
G1 X128.24 Y120.3 E22.5488
G1 X128.59 Y120.5 E22.5741
G1 X128.94 Y120.32 E22.5989
G1 X129.29 Y120.66 E22.6294
G1 X129.65 Y120.3 E22.6609
G1 X130 Y120.5 E22.6862
G1 X130.35 Y120.32 E22.7109
G1 X130.71 Y120.66 E22.7414
G1 X131.06 Y120.3 E22.773
G1 X131.42 Y120.5 E22.7983
G1 X131.77 Y120.32 E22.823
G1 X132.12 Y120.66 E22.8535
G1 X132.48 Y120.3 E22.8851
G1 X132.83 Y120.5 E22.9104
G1 X133.18 Y120.32 E22.9351
G1 X133.53 Y120.66 E22.9656
G1 X133.89 Y120.3 E22.9971
G1 X134.24 Y120.5 E23.0224
G1 X134.6 Y120.32 E23.0472
G1 X134.95 Y120.66 E23.0777
G1 X135.31 Y120.3 E23.1092
G1 X135.66 Y120.5 E23.1345
G1 X136.01 Y120.32 E23.1593
G1 X136.36 Y120.66 E23.1898
G1 X136.72 Y120.3 E23.2213
;
; 'Wipe', 0.0 [RPM], 67.5 [mm/s]
G1 F15000
G1 X136.72 Y120.3 E23.2213
G1 F4050
G1 X136.36 Y120.66 E23.2213
G1 X136.01 Y120.32 E23.2213
G1 X135.66 Y120.5 E23.2213
G1 X135.31 Y120.3 E23.2213
G1 X134.95 Y120.66 E23.2213
G1 X134.6 Y120.32 E23.2213
G1 X134.24 Y120.5 E23.2213
G1 X133.89 Y120.3 E23.2213
G1 X133.53 Y120.66 E23.2213
G1 X133.18 Y120.32 E23.2213
G1 X132.83 Y120.5 E23.2213
G1 X132.48 Y120.3 E23.2213
;
; 'Sparse Infill', 180.0 [RPM], 60.1 [mm/s]
G1 F15000
G1 X123.29 Y113.94 E23.2213
G1 F3607.9
G1 X120.8 Y116.42 E23.4402
G1 X120.33 Y116.27 E23.4711
G1 X119.86 Y116.26 E23.5005
G1 X119.39 Y116.42 E23.5314
G1 X122.23 Y113.58 E23.7815
G1 X121.75 Y113.74 E23.8124
G1 X121.28 Y113.73 E23.8418
G1 X120.81 Y113.58 E23.8726
G1 X117.98 Y116.42 E24.1227
G1 X117.5 Y116.27 E24.1536
G1 X117.03 Y116.26 E24.183
G1 X116.56 Y116.42 E24.2139
G1 X119.4 Y113.58 E24.464
G1 X118.93 Y113.74 E24.4949
G1 X118.45 Y113.73 E24.5243
G1 X117.98 Y113.58 E24.5552
G1 X115.85 Y115.71 E24.7429
G1 X116.01 Y115.24 E24.7738
G1 X116.01 Y114.77 E24.8032
G1 X115.85 Y114.3 E24.8341
G1 X116.57 Y113.58 E24.897
;
; 'Sparse Infill', 180.0 [RPM], 60.1 [mm/s]
G1 F15000
G1 X122.22 Y116.42 E24.897
G1 F3607.9
G1 X123.29 Y115.35 E24.9912
;
; 'Sparse Infill', 180.0 [RPM], 60.1 [mm/s]
G1 F15000
G1 X121.87 Y116.76 E24.9912
G1 F3607.9
G1 X121.86 Y116.77 E24.9918
G1 X120.46 Y116.76 E25.0796
G1 X120.45 Y116.77 E25.0802
G1 X119.04 Y116.76 E25.168
G1 X119.04 Y116.77 E25.1686
G1 X117.63 Y116.76 E25.2563
G1 X117.62 Y116.77 E25.257
G1 X116.21 Y116.76 E25.3447
G1 X116.21 Y116.77 E25.3453
;
; 'Sparse Infill', 180.0 [RPM], 60.1 [mm/s]
G1 F15000
G1 X116.92 Y113.24 E25.3453
G1 F3607.9
G1 X116.92 Y113.23 E25.3459
G1 X118.33 Y113.24 E25.4337
G1 X118.34 Y113.23 E25.4343
G1 X119.74 Y113.24 E25.5221
G1 X119.75 Y113.23 E25.5227
G1 X121.16 Y113.24 E25.6105
G1 X121.16 Y113.23 E25.6111
G1 X122.57 Y113.24 E25.6988
G1 X122.58 Y113.23 E25.6995
;
; 'Stacked Sparse Infill', 180.0 [RPM], 60.1 [mm/s]
G1 F15000
G1 X122.22 Y112.89 E25.6995
G1 F3607.9
G1 X122.22 Y110.76 E25.8322
G1 X122.23 Y110.75 E25.8325
G1 X122.03 Y110.33 E25.8617
G1 X121.94 Y109.91 E25.8887
G1 X121.52 Y108.63 E25.9724
G1 X120.81 Y109.34 E26.035
G1 X117.98 Y109.34 E26.2114
G1 X116.56 Y110.76 E26.3361
G1 X116.56 Y112.89 E26.4689
G1 X116.09 Y110.05 E26.6479
G1 X116.02 Y109.11 E26.7069
G1 X115.85 Y108.64 E26.7381
G1 X115.86 Y108.63 E26.7387
;
; 'Stacked Sparse Infill', 180.0 [RPM], 60.1 [mm/s]
G1 F15000
G1 X116.56 Y117.11 E26.7387
G1 F3607.9
G1 X116.56 Y119.24 E26.8714
G1 X115.85 Y119.95 E26.9341
;
; 'Wipe', 0.0 [RPM], 67.5 [mm/s]
G1 F15000
G1 X115.85 Y119.95 E26.9341
G1 F4050
G1 X116.56 Y119.24 E26.9341
G1 X116.56 Y117.11 E26.9341
;
; 'Stacked Sparse Infill', 180.0 [RPM], 60.1 [mm/s]
G1 F15000
G1 X116.56 Y124.19 E26.9341
G1 F3607.9
G1 X116.56 Y124.9 E26.9786
G1 X115.15 Y126.31 E27.1033
G1 X114.44 Y126.31 E27.1474
G1 X116.56 Y128.44 E27.3345
G1 X116.56 Y127.73 E27.3786
G1 X117.98 Y126.31 E27.5033
G1 X120.81 Y126.31 E27.6797
G1 X122.22 Y124.9 E27.8045
G1 X122.22 Y124.19 E27.849
G1 X127.88 Y124.19 E28.2018
G1 X127.88 Y124.9 E28.2463
G1 X126.46 Y126.31 E28.371
G1 X123.64 Y126.31 E28.5474
G1 X122.22 Y127.73 E28.6721
G1 X122.22 Y130.56 E28.8485
G1 X120.81 Y131.97 E28.9732
G1 X120.1 Y131.97 E29.0173
G1 X122.22 Y134.09 E29.2044
G1 X122.22 Y133.38 E29.2485
G1 X123.64 Y131.97 E29.3733
G1 X126.46 Y131.97 E29.5496
G1 X127.88 Y130.56 E29.6744
G1 X127.88 Y127.73 E29.8508
G1 X129.29 Y126.31 E29.9755
G1 X132.12 Y126.31 E30.1519
G1 X133.54 Y124.9 E30.2766
G1 X133.54 Y124.19 E30.3211
G1 X139.19 Y124.19 E30.6739
G1 X139.19 Y124.9 E30.7184
G1 X137.78 Y126.31 E30.8432
G1 X134.95 Y126.31 E31.0196
G1 X133.54 Y127.73 E31.1443
G1 X133.54 Y130.56 E31.3207
G1 X132.12 Y131.97 E31.4454
G1 X129.29 Y131.97 E31.6218
G1 X127.88 Y133.38 E31.7465
G1 X127.88 Y136.21 E31.9229
G1 X126.46 Y137.63 E32.0476
G1 X125.76 Y137.63 E32.0917
G1 X127.88 Y139.75 E32.2788
G1 X127.88 Y139.04 E32.3229
G1 X129.29 Y137.63 E32.4476
G1 X130 Y137.63 E32.4917
G1 X133.54 Y134.09 E32.8035
G1 X133.54 Y133.38 E32.8476
G1 X134.95 Y131.97 E32.9724
G1 X135.66 Y131.97 E33.0165
G1 X139.19 Y128.44 E33.3283
G1 X139.19 Y127.73 E33.3724
G1 X140.61 Y126.31 E33.4971
G1 X141.31 Y126.31 E33.5412
G1 X143.44 Y124.19 E33.7286
;
; 'Wipe', 0.0 [RPM], 67.5 [mm/s]
G1 F15000
G1 X143.44 Y124.19 E33.7286
G1 F4050
G1 X141.31 Y126.31 E33.7286
G1 X140.61 Y126.31 E33.7286
G1 X139.55 Y127.37 E33.7286
;
; 'Stacked Sparse Infill', 180.0 [RPM], 60.1 [mm/s]
G1 F15000
G1 X145.56 Y121.36 E33.7286
G1 F3607.9
G1 X146.26 Y120.66 E33.791
G1 X146.97 Y120.66 E33.8351
G1 X150.51 Y117.12 E34.1469
G1 X150.51 Y116.41 E34.191
G1 X151.92 Y115 E34.3157
G1 X152.63 Y115 E34.3598
G1 X153.69 Y113.94 E34.4534
G1 X150.51 Y110.76 E34.734
G1 X150.51 Y113.59 E34.9104
G1 X149.09 Y115 E35.0351
G1 X147.67 Y115 E35.1238
G1 X146.76 Y115.91 E35.2037
G1 X146.06 Y116.16 E35.2504
G1 X145.81 Y116.16 E35.2662
G1 X145.26 Y116.57 E35.3093
G1 X144.85 Y116.41 E35.3363
G1 X144.85 Y116.41 E35.3366
G1 X144.85 Y119.24 E35.513
G1 X144.85 Y119.25 E35.5133
;
; 'Wipe', 0.0 [RPM], 67.5 [mm/s]
G1 F15000
G1 X144.85 Y119.25 E35.5133
G1 F4050
G1 X144.85 Y119.24 E35.5133
G1 X144.85 Y116.41 E35.5133
G1 X144.85 Y116.41 E35.5133
G1 X145.26 Y116.57 E35.5133
G1 X145.81 Y116.16 E35.5133
G1 X146.06 Y116.16 E35.5133
G1 X146.76 Y115.91 E35.5133
G1 X147.07 Y115.6 E35.5133
;
; 'Stacked Sparse Infill', 180.0 [RPM], 60.1 [mm/s]
G1 F15000
G1 X122.22 Y117.11 E35.5133
G1 F3607.9
G1 X122.22 Y119.24 E35.6461
G1 X121.16 Y120.3 E35.7397
;
; 'Wipe', 0.0 [RPM], 67.5 [mm/s]
G1 F15000
G1 X121.16 Y120.3 E35.7397
G1 F4050
G1 X122.22 Y119.24 E35.7397
G1 X122.22 Y117.11 E35.7397
;
; 'Loop', 180.0 [RPM], 60.1 [mm/s]
G1 F15000
G1 X138.22 Y108.2 E35.7397
G1 F3607.9
G1 X139.34 Y109.37 E35.841
;
; 'Wipe', 0.0 [RPM], 67.5 [mm/s]
G1 F15000
G1 X139.34 Y109.37 E35.841
G1 F4050
G1 X138.22 Y108.2 E35.841
;
; 'Loop', 180.0 [RPM], 60.1 [mm/s]
G1 F15000
G1 X138.17 Y108.14 E35.841
G1 F3607.9
G1 X140.75 Y108.14 E36.0022
G1 X140.89 Y108.17 E36.0114
G1 X140.89 Y113.34 E36.3338
G1 X140.84 Y113.47 E36.3422
G1 X138.25 Y113.47 E36.5038
G1 X139.43 Y112.23 E36.6102
;
; 'Wipe', 0.0 [RPM], 67.5 [mm/s]
G1 F15000
G1 X139.43 Y112.23 E36.6102
G1 F4050
G1 X138.25 Y113.47 E36.6102
G1 X140.84 Y113.47 E36.6102
G1 X140.89 Y113.34 E36.6102
G1 X140.89 Y112.77 E36.6102
;
; 'Perimeter', 180.0 [RPM], 60.1 [mm/s]
G1 F15000
G1 X137.86 Y107.67 E36.6102
G1 F3607.9
G1 X137.85 Y107.86 E36.6223
G1 X139.33 Y109.38 E36.7548
;
; 'Wipe', 0.0 [RPM], 67.5 [mm/s]
G1 F15000
G1 X139.33 Y109.38 E36.7548
G1 F4050
G1 X137.85 Y107.86 E36.7548
G1 X137.86 Y107.67 E36.7548
;
; 'Perimeter', 180.0 [RPM], 60.1 [mm/s]
G1 F15000
G1 X137.84 Y107.64 E36.7548
G1 F3607.9
G1 X141.25 Y107.64 E36.9677
G1 X141.4 Y107.66 E36.9772
G1 X141.4 Y113.85 E37.3632
G1 X141.34 Y113.97 E37.3714
G1 X137.92 Y113.97 E37.5846
G1 X137.95 Y113.94 E37.5873
G1 X137.94 Y113.74 E37.5992
G1 X139.42 Y112.22 E37.7318
;
; 'Solid', 180.0 [RPM], 60.1 [mm/s]
G1 F15000
G1 X139.75 Y113.03 E37.7318
G1 F3607.9
G1 X140.38 Y112.4 E37.7872
G1 X140.38 Y111.69 E37.8313
G1 X139.17 Y112.9 E37.9377
G1 X139.6 Y111.76 E38.0135
G1 X140.38 Y110.99 E38.0819
G1 X140.38 Y110.28 E38.126
G1 X139.55 Y111.11 E38.1993
G1 X139.55 Y110.4 E38.2434
G1 X140.38 Y109.57 E38.3166
G1 X140.38 Y108.87 E38.3607
G1 X139.55 Y109.69 E38.4337
G1 X139.58 Y108.95 E38.4798
G1 X139.88 Y108.65 E38.5064
G1 X139.24 Y108.59 E38.5468
;
; 'Wipe', 0.0 [RPM], 67.5 [mm/s]
G1 F15000
G1 X139.24 Y108.59 E38.5468
G1 F4050
G1 X139.88 Y108.65 E38.5468
G1 X139.58 Y108.95 E38.5468
G1 X139.55 Y109.69 E38.5468
G1 X140.38 Y108.87 E38.5468
G1 X140.38 Y109.57 E38.5468
G1 X139.55 Y110.4 E38.5468
G1 X139.55 Y111.11 E38.5468
;
; 'Loop', 180.0 [RPM], 60.1 [mm/s]
G1 F15000
G1 X135.45 Y112.85 E38.5468
G1 F3607.9
G1 X136.58 Y111.78 E38.6438
G1 X136.58 Y113.98 E38.7809
G1 X136.51 Y114.32 E38.8029
G1 X136.46 Y114.38 E38.808
G1 X135.77 Y114.4 E38.8509
G1 X135.68 Y114.49 E38.8587
G1 X135.33 Y114.5 E38.8805
;
; 'Wipe', 0.0 [RPM], 67.5 [mm/s]
G1 F15000
G1 X135.33 Y114.5 E38.8805
G1 F4050
G1 X135.68 Y114.49 E38.8805
G1 X135.77 Y114.4 E38.8805
G1 X136.46 Y114.38 E38.8805
G1 X136.51 Y114.32 E38.8805
G1 X136.58 Y113.98 E38.8805
G1 X136.58 Y111.78 E38.8805
G1 X135.63 Y112.68 E38.8805
;
; 'Perimeter', 180.0 [RPM], 60.1 [mm/s]
G1 F15000
G1 X135.44 Y112.84 E38.8805
G1 F3607.9
G1 X136.6 Y111.7 E38.9818
G1 X137.05 Y111.31 E39.0193
G1 X137.08 Y111.45 E39.0285
G1 X137.08 Y114.1 E39.1939
G1 X137.02 Y114.25 E39.2036
G1 X136.91 Y114.31 E39.2118
G1 X136.74 Y114.32 E39.2222
G1 X136.66 Y114.41 E39.23
G1 X136.61 Y114.41 E39.2332
G1 X135.78 Y114.42 E39.2845
G1 X135.69 Y114.51 E39.2923
G1 X135.34 Y114.51 E39.3143
;
; 'Wipe', 0.0 [RPM], 67.5 [mm/s]
G1 F15000
G1 X135.34 Y114.51 E39.3143
G1 F4050
G1 X135.69 Y114.51 E39.3143
G1 X135.78 Y114.42 E39.3143
G1 X136.61 Y114.41 E39.3143
G1 X136.66 Y114.41 E39.3143
G1 X136.74 Y114.32 E39.3143
G1 X136.91 Y114.31 E39.3143
G1 X137.02 Y114.25 E39.3143
G1 X137.08 Y114.1 E39.3143
G1 X137.08 Y111.45 E39.3143
G1 X137.05 Y111.31 E39.3143
G1 X136.79 Y111.53 E39.3143
;
; 'Stacked Sparse Infill', 180.0 [RPM], 60.1 [mm/s]
G1 F15000
G1 X134.95 Y115 E39.3143
G1 F3607.9
G1 X134.95 Y115 E39.3144
G1 X133.54 Y116.41 E39.4391
G1 X133.54 Y116.42 E39.4395
G1 X133.54 Y113.58 E39.6168
G1 X133.54 Y113.59 E39.6172
G1 X132.12 Y115 E39.7419
G1 X129.29 Y115 E39.9183
G1 X128.23 Y116.06 E40.0122
;
; 'Wipe', 0.0 [RPM], 67.5 [mm/s]
G1 F15000
G1 X128.23 Y116.06 E40.0122
G1 F4050
G1 X129.29 Y115 E40.0122
G1 X132.12 Y115 E40.0122
G1 X132.83 Y114.29 E40.0122
; fan off
M107
G1 F210
G1 X132.83 Y114.29 Z1.8 E40.0122
; END_LAYER_OBJECT z=1.50
; Reset extruder pos
G92 E0
