; generated by Slic3r 0.9.3 on 2012-11-18 at 00:21:37

; layer_height = 0.25
; perimeters = 2
; solid_layers = 2
; fill_density = 0.15
; perimeter_speed = 85
; infill_speed = 60
; travel_speed = 250
; scale = 1
; nozzle_diameter = 0.35
; filament_diameter = 1.7
; extrusion_multiplier = 1.0
; single wall width = 0.39mm

M104 S185 ; set temperature
;Standard Profile for Series 1. Single Extruder
M104 S185
M301 P24.72 I0.88 D231.1
G28
G1 X120 Y115 Z15 F10000
G92 E0
G1 Y5 Z15 F5000
M109 S185
G1 F100 E50
G92 E0
G1 X50 Z0.3 F10000
; do a little dance on a toothbrush to remove extrusions..  
G90 ; use absolute coordinates
G21 ; set units to millimeters
G92 E0
M82 ; use absolute distances for extrusion
M106 S255
G1 F2400.000 E-3.00000
G92 E0
G1 Z0.250 F15000.000
G1 X110.078 Y107.345
G1 F2400.000 E4.80000
G1 X110.088 Y107.075 F2040.000 E4.81145
G1 X110.158 Y106.555 E4.83369
G1 X110.268 Y106.035 E4.85622
G1 X110.418 Y105.535 E4.87835
G1 X110.608 Y105.035 E4.90102
G1 X110.838 Y104.565 E4.92320
G1 X111.108 Y104.115 E4.94545
G1 X111.258 Y103.895 E4.95673
G1 X111.578 Y103.475 E4.97911
G1 X111.938 Y103.085 E5.00161
G1 X112.328 Y102.725 E5.02411
G1 X112.748 Y102.405 E5.04649
G1 X113.188 Y102.115 E5.06883
G1 X113.648 Y101.865 E5.09102
G1 X114.138 Y101.655 E5.11362
G1 X114.638 Y101.485 E5.13600
G1 X115.148 Y101.355 E5.15831
G1 X115.668 Y101.265 E5.18068
G1 X115.928 Y101.235 E5.19177
G1 X116.458 Y101.215 E5.21425
G1 X138.018 Y101.235 E6.12813
G1 X138.798 Y101.345 E6.16152
G1 X139.308 Y101.475 E6.18383
G1 X139.798 Y101.645 E6.20581
G1 X140.518 Y101.975 E6.23938
G1 X140.968 Y102.235 E6.26141
G1 X141.388 Y102.535 E6.28329
G1 X141.798 Y102.875 E6.30587
G1 X141.988 Y103.055 E6.31696
G1 X142.508 Y103.635 E6.34998
G1 X142.668 Y103.845 E6.36117
G1 X143.088 Y104.505 E6.39433
G1 X143.428 Y105.215 E6.42770
G1 X143.598 Y105.705 E6.44968
G1 X143.738 Y106.215 E6.47210
G1 X143.828 Y106.735 E6.49447
G1 X143.878 Y107.255 E6.51661
G1 X143.878 Y122.735 E7.17277
G1 X143.828 Y123.255 E7.19492
G1 X143.738 Y123.775 E7.21729
G1 X143.598 Y124.285 E7.23970
G1 X143.428 Y124.775 E7.26169
G1 X143.088 Y125.485 E7.29506
G1 X142.668 Y126.145 E7.32822
G1 X142.508 Y126.355 E7.33941
G1 X141.988 Y126.935 E7.37242
G1 X141.798 Y127.115 E7.38352
G1 X141.388 Y127.455 E7.40610
G1 X140.968 Y127.755 E7.42797
G1 X140.518 Y128.015 E7.45000
G1 X139.798 Y128.345 E7.48357
G1 X139.308 Y128.515 E7.50556
G1 X138.798 Y128.645 E7.52787
G1 X138.018 Y128.755 E7.56126
G1 X137.498 Y128.775 E7.58332
G1 X115.928 Y128.755 E8.49761
G1 X115.408 Y128.685 E8.51986
G1 X114.888 Y128.575 E8.54238
G1 X114.388 Y128.425 E8.56451
G1 X113.888 Y128.235 E8.58718
G1 X113.418 Y128.005 E8.60936
G1 X112.968 Y127.735 E8.63161
G1 X112.748 Y127.585 E8.64289
G1 X112.328 Y127.265 E8.66528
G1 X111.938 Y126.905 E8.68777
G1 X111.578 Y126.515 E8.71027
G1 X111.258 Y126.095 E8.73265
G1 X110.968 Y125.655 E8.75499
G1 X110.718 Y125.195 E8.77718
G1 X110.508 Y124.705 E8.79978
G1 X110.338 Y124.205 E8.82216
G1 X110.208 Y123.695 E8.84447
G1 X110.118 Y123.175 E8.86684
G1 X110.088 Y122.915 E8.87793
G1 X110.068 Y107.739 E9.52120
G1 F2400.000 E6.52120
G92 E0
G1 X116.948 Y121.901 F15000.000
G1 F2400.000 E4.80000
G1 X116.948 Y108.099 F2040.000 E5.51119
G1 X137.023 Y108.099 E6.54556
G1 X137.023 Y110.131 E6.65027
G1 X125.124 Y110.131 E7.26339
G1 X125.124 Y113.788 E7.45185
G1 X124.892 Y114.056 E7.47010
G1 X124.737 Y114.357 E7.48755
G1 X124.650 Y114.675 E7.50453
G1 X124.621 Y114.997 E7.52121
G1 X124.650 Y115.325 E7.53814
G1 X124.737 Y115.643 E7.55512
G1 X124.892 Y115.944 E7.57258
G1 X125.124 Y116.212 E7.59083
G1 X125.124 Y119.869 E7.77929
G1 X137.023 Y119.869 E8.39240
G1 X137.023 Y121.901 E8.49711
G1 X117.343 Y121.901 E9.51116
G1 X116.464 Y122.385 F15000.000
G1 X116.464 Y107.615 F2040.000 E10.27222
G1 X137.507 Y107.615 E11.35646
G1 X137.507 Y110.615 E11.51104
G1 X125.608 Y110.615 E12.12415
G1 X125.608 Y114.056 E12.30147
G1 X125.444 Y114.158 E12.31142
G1 X125.296 Y114.329 E12.32307
G1 X125.191 Y114.534 E12.33494
G1 X125.128 Y114.761 E12.34710
G1 X125.107 Y114.999 E12.35939
G1 X125.128 Y115.239 E12.37179
G1 X125.191 Y115.466 E12.38395
G1 X125.296 Y115.671 E12.39582
G1 X125.444 Y115.842 E12.40747
G1 X125.608 Y115.944 E12.41742
G1 X125.608 Y119.385 E12.59474
G1 X137.507 Y119.385 E13.20785
G1 X137.507 Y122.385 E13.36243
G1 X116.859 Y122.385 E14.42635
G1 F2400.000 E11.42635
G92 E0
G1 X137.558 Y117.322 F15000.000
G1 F2400.000 E4.80000
G1 X137.558 Y115.953 F2040.000 E4.87051
G1 X137.558 Y117.322 F15000.000
G1 X137.558 Y118.531 F2040.000 E4.93280
G1 X137.558 Y118.773 E4.94526
G1 X137.558 Y118.932 E4.95348
G1 F2400.000 E1.95348
G92 E0
G1 X137.558 Y114.047 F15000.000
G1 F2400.000 E4.80000
G1 X137.558 Y113.645 F2040.000 E4.82067
G1 X137.558 Y112.436 E4.88297
G1 X137.558 Y111.068 E4.95348
G1 X136.494 Y109.926 F15000.000
G1 X134.872 Y108.304 F1440.000 E5.07327
G1 X134.177 Y108.304 F15000.000
G1 X135.800 Y109.926 F1440.000 E5.19307
G1 X135.105 Y109.926 F15000.000
G1 X133.483 Y108.304 F1440.000 E5.31287
G1 X132.789 Y108.304 F15000.000
G1 X134.411 Y109.926 F1440.000 E5.43266
G1 X133.716 Y109.926 F15000.000
G1 X132.094 Y108.304 F1440.000 E5.55245
G1 X131.400 Y108.304 F15000.000
G1 X133.022 Y109.926 F1440.000 E5.67224
G1 X132.328 Y109.926 F15000.000
G1 X130.705 Y108.304 F1440.000 E5.79204
G1 X130.011 Y108.304 F15000.000
G1 X131.633 Y109.926 F1440.000 E5.91184
G1 X130.939 Y109.926 F15000.000
G1 X129.317 Y108.304 F1440.000 E6.03163
G1 X128.622 Y108.304 F15000.000
G1 X130.245 Y109.926 F1440.000 E6.15143
G1 X129.550 Y109.926 F15000.000
G1 X127.928 Y108.304 F1440.000 E6.27123
G1 X127.233 Y108.304 F15000.000
G1 X128.856 Y109.926 F1440.000 E6.39102
G1 X128.161 Y109.926 F15000.000
G1 X126.539 Y108.304 F1440.000 E6.51081
G1 X125.845 Y108.304 F15000.000
G1 X127.467 Y109.926 F1440.000 E6.63061
G1 X126.772 Y109.926 F15000.000
G1 X125.150 Y108.304 F1440.000 E6.75040
G1 X124.456 Y108.304 F15000.000
G1 X126.078 Y109.926 F1440.000 E6.87020
G1 X125.384 Y109.926 F15000.000
G1 X123.761 Y108.304 F1440.000 E6.99000
G1 X123.067 Y108.304 F15000.000
G1 X124.919 Y110.156 F1440.000 E7.12676
G1 X124.919 Y110.850 F15000.000
G1 X122.373 Y108.304 F1440.000 E7.31480
G1 X121.678 Y108.304 F15000.000
G1 X124.919 Y111.544 F1440.000 E7.55412
G1 X124.919 Y112.239 F15000.000
G1 X120.984 Y108.304 F1440.000 E7.84471
G1 X120.289 Y108.304 F15000.000
G1 X124.919 Y112.933 F1440.000 E8.18657
G1 X124.919 Y113.628 F15000.000
G1 X119.595 Y108.304 F1440.000 E8.57971
G1 X118.901 Y108.304 F15000.000
G1 X124.730 Y114.133 F1440.000 E9.01018
G1 X124.520 Y114.617 F15000.000
G1 X118.206 Y108.304 F1440.000 E9.47638
G1 X117.512 Y108.304 F15000.000
G1 X124.420 Y115.212 F1440.000 E9.98652
G1 X124.545 Y116.031 F15000.000
G1 X117.153 Y108.639 F1440.000 E10.53231
G1 X117.153 Y109.334 F15000.000
G1 X124.919 Y117.100 F1440.000 E11.10576
G1 X124.919 Y117.794 F15000.000
G1 X117.153 Y110.028 F1440.000 E11.67921
G1 X117.153 Y110.723 F15000.000
G1 X124.919 Y118.488 F1440.000 E12.25266
G1 X124.919 Y119.183 F15000.000
G1 X117.153 Y111.417 F1440.000 E12.82610
G1 X117.153 Y112.111 F15000.000
G1 X124.919 Y119.877 F1440.000 E13.39955
G1 X125.116 Y120.074 F15000.000
G1 X126.738 Y121.696 F1440.000 E13.51935
G1 X126.044 Y121.696 F15000.000
G1 X124.422 Y120.074 F1440.000 E13.63915
G1 X124.919 Y120.572 F15000.000
G1 X117.153 Y112.806 F1440.000 E14.21260
G1 X117.153 Y113.500 F15000.000
G1 X125.349 Y121.696 F1440.000 E14.81783
G1 X124.655 Y121.696 F15000.000
G1 X117.153 Y114.195 F1440.000 E15.37178
G1 X117.153 Y114.889 F15000.000
G1 X123.961 Y121.696 F1440.000 E15.87445
G1 X123.266 Y121.696 F15000.000
G1 X117.153 Y115.583 F1440.000 E16.32586
G1 X117.153 Y116.278 F15000.000
G1 X122.572 Y121.696 F1440.000 E16.72599
G1 X121.877 Y121.696 F15000.000
G1 X117.153 Y116.972 F1440.000 E17.07484
G1 X117.153 Y117.667 F15000.000
G1 X121.183 Y121.696 F1440.000 E17.37241
G1 X120.489 Y121.696 F15000.000
G1 X117.153 Y118.361 F1440.000 E17.61871
G1 X117.153 Y119.055 F15000.000
G1 X119.794 Y121.696 F1440.000 E17.81374
G1 X119.100 Y121.696 F15000.000
G1 X117.153 Y119.750 F1440.000 E17.95749
G1 X117.153 Y120.444 F15000.000
G1 X118.406 Y121.696 F1440.000 E18.04996
G1 X117.711 Y121.696 F15000.000
G1 X117.153 Y121.138 F1440.000 E18.09116
G1 F2400.000 E15.09116
G92 E0
G1 X125.810 Y120.074 F15000.000
G1 F2400.000 E4.80000
G1 X127.433 Y121.696 F1440.000 E4.91979
G1 X128.127 Y121.696 F15000.000
G1 X126.505 Y120.074 F1440.000 E5.03958
G1 X127.199 Y120.074 F15000.000
G1 X128.822 Y121.696 F1440.000 E5.15938
G1 X129.516 Y121.696 F15000.000
G1 X127.894 Y120.074 F1440.000 E5.27918
G1 X128.588 Y120.074 F15000.000
G1 X130.210 Y121.696 F1440.000 E5.39897
G1 X130.905 Y121.696 F15000.000
G1 X129.282 Y120.074 F1440.000 E5.51877
G1 X129.977 Y120.074 F15000.000
G1 X131.599 Y121.696 F1440.000 E5.63857
G1 X132.293 Y121.696 F15000.000
G1 X130.671 Y120.074 F1440.000 E5.75836
G1 X131.366 Y120.074 F15000.000
G1 X132.988 Y121.696 F1440.000 E5.87815
G1 X133.682 Y121.696 F15000.000
G1 X132.060 Y120.074 F1440.000 E5.99794
G1 X132.754 Y120.074 F15000.000
G1 X134.377 Y121.696 F1440.000 E6.11774
G1 X135.071 Y121.696 F15000.000
G1 X133.449 Y120.074 F1440.000 E6.23754
G1 X134.143 Y120.074 F15000.000
G1 X135.765 Y121.696 F1440.000 E6.35733
G1 X136.460 Y121.696 F15000.000
G1 X134.837 Y120.074 F1440.000 E6.47713
G1 X135.532 Y120.074 F15000.000
G1 X136.818 Y121.361 F1440.000 E6.57213
G1 X136.818 Y120.666 F15000.000
G1 X136.226 Y120.074 F1440.000 E6.61585
G1 F2400.000 E3.61585
G92 E0
G1 X136.818 Y109.556 F15000.000
G1 F2400.000 E4.80000
G1 X135.566 Y108.304 F1440.000 E4.89247
G1 X136.260 Y108.304 F15000.000
G1 X136.818 Y108.861 F1440.000 E4.93366
G1 F2400.000 E1.93366
G92 E0
G1 Z0.500 F15000.000
G1 X115.935 Y107.952
G1 F2400.000 E4.80000
G1 X137.969 Y107.952 F3646.749 E5.73397
G1 X137.969 Y110.278 E5.83258
G1 X125.271 Y110.278 E6.37081
G1 X125.271 Y113.843 E6.52194
G1 X125.015 Y114.139 E6.53852
G1 X124.875 Y114.411 E6.55149
G1 X124.664 Y115.176 E6.58512
G1 X124.875 Y115.589 E6.60479
G1 X124.931 Y115.793 E6.61374
G1 X124.955 Y115.793 E6.61473
G1 X125.151 Y116.018 E6.62740
G1 X125.151 Y116.018 E6.62740
G1 X125.271 Y116.157 E6.63517
G1 X125.271 Y119.722 E6.78630
G1 X137.969 Y119.722 E7.32453
G1 X137.969 Y122.048 E7.42314
G1 X115.935 Y122.048 E8.35711
G1 X115.935 Y108.346 E8.93793
G1 X115.545 Y107.562 F15000.000
G1 X138.359 Y107.562 F3646.749 E9.90492
G1 X138.359 Y114.053 E10.18006
G1 X137.555 Y114.053 E10.21411
G1 X137.555 Y110.668 E10.35760
G1 X125.661 Y110.668 E10.86178
G1 X125.661 Y114.086 E11.00665
G1 X125.479 Y114.199 E11.01574
G1 X125.340 Y114.358 E11.02472
G1 X125.240 Y114.553 E11.03398
G1 X125.228 Y114.597 E11.03592
G1 X125.228 Y114.597 E11.03592
G1 X125.180 Y114.771 E11.04355
G1 X125.160 Y115.000 E11.05331
G1 X125.180 Y115.229 E11.06306
G1 X125.228 Y115.403 E11.07070
G1 X125.228 Y115.403 E11.07070
G1 X125.240 Y115.447 E11.07263
G1 X125.318 Y115.599 E11.07988
G1 X125.318 Y115.599 E11.07988
G1 X125.340 Y115.642 E11.08190
G1 X125.479 Y115.801 E11.09087
G1 X125.661 Y115.914 E11.09996
G1 X125.661 Y119.332 E11.24484
G1 X137.555 Y119.332 E11.74901
G1 X137.555 Y115.947 E11.89251
G1 X138.359 Y115.947 E11.92656
G1 X138.359 Y122.438 E12.20169
G1 X115.545 Y122.438 E13.16869
G1 X115.545 Y107.956 E13.78254
G1 X116.185 Y108.620 F15000.000
G1 X116.743 Y108.062 F2574.176 E13.81615
G1 X117.298 Y108.062 F15000.000
G1 X116.185 Y109.174 F2574.176 E13.88316
G1 X116.186 Y109.729 F15000.000
G1 X117.852 Y108.062 F2574.176 E13.98357
G1 X118.406 Y108.062 F15000.000
G1 X116.186 Y110.283 F2574.176 E14.11737
G1 X116.186 Y110.837 F15000.000
G1 X118.960 Y108.063 F2574.176 E14.28456
G1 X119.514 Y108.062 F15000.000
G1 X116.185 Y111.391 F2574.176 E14.48515
G1 X116.185 Y111.945 F15000.000
G1 X120.068 Y108.062 F2574.176 E14.71913
G1 X120.623 Y108.062 F15000.000
G1 X116.185 Y112.499 F2574.176 E14.98651
G1 X116.185 Y113.054 F15000.000
G1 X121.177 Y108.062 F2574.176 E15.28729
G1 X121.731 Y108.062 F15000.000
G1 X116.185 Y113.608 F2574.176 E15.62145
G1 X116.186 Y114.162 F15000.000
G1 X122.285 Y108.062 F2574.176 E15.98901
G1 X122.840 Y108.062 F15000.000
G1 X116.186 Y114.716 F2574.176 E16.38997
G1 X116.186 Y115.271 F15000.000
G1 X123.394 Y108.062 F2574.176 E16.82432
G1 X123.948 Y108.062 F15000.000
G1 X116.185 Y115.824 F2574.176 E17.29207
G1 X116.185 Y116.379 F15000.000
G1 X124.502 Y108.062 F2574.176 E17.79321
G1 X125.056 Y108.062 F15000.000
G1 X116.185 Y116.933 F2574.176 E18.32774
G1 X116.185 Y117.487 F15000.000
G1 X125.610 Y108.062 F2574.176 E18.89567
G1 X126.165 Y108.062 F15000.000
G1 X116.185 Y118.042 F2574.176 E19.49700
G1 X116.185 Y118.596 F15000.000
G1 X125.161 Y109.621 F2574.176 E20.03781
G1 X125.168 Y110.168 F15000.000
G1 X127.273 Y108.062 F2574.176 E20.16466
G1 X126.719 Y108.062 F15000.000
G1 X124.614 Y110.167 F2574.176 E20.29152
G1 X125.161 Y110.175 F15000.000
G1 X116.186 Y119.150 F2574.176 E20.83234
G1 X116.186 Y119.704 F15000.000
G1 X125.161 Y110.729 F2574.176 E21.37315
G1 X125.161 Y111.284 F15000.000
G1 X116.186 Y120.259 F2574.176 E21.91396
G1 X116.185 Y120.812 F15000.000
G1 X125.160 Y111.837 F2574.176 E22.45478
G1 X125.160 Y112.391 F15000.000
G1 X116.185 Y121.367 F2574.176 E22.99559
G1 X116.185 Y121.921 F15000.000
G1 X125.160 Y112.946 F2574.176 E23.53641
G1 X124.914 Y113.747 F15000.000
G1 X116.723 Y121.938 F2574.176 E24.02998
G1 X117.277 Y121.938 F15000.000
G1 X124.623 Y114.592 F2574.176 E24.47265
G1 X124.630 Y115.140 F15000.000
G1 X117.831 Y121.938 F2574.176 E24.88229
G1 X118.385 Y121.938 F15000.000
G1 X124.807 Y115.516 F2574.176 E25.26924
G1 X124.974 Y115.903 F15000.000
G1 X118.940 Y121.938 F2574.176 E25.63287
G1 X119.494 Y121.938 F15000.000
G1 X125.161 Y116.271 F2574.176 E25.97434
G1 X125.161 Y116.825 F15000.000
G1 X120.048 Y121.938 F2574.176 E26.28241
G1 X120.602 Y121.938 F15000.000
G1 X125.161 Y117.379 F2574.176 E26.55709
G1 X125.161 Y117.934 F15000.000
G1 X121.156 Y121.938 F2574.176 E26.79837
G1 X121.711 Y121.938 F15000.000
G1 X125.161 Y118.488 F2574.176 E27.00626
G1 X125.161 Y119.042 F15000.000
G1 X122.265 Y121.938 F2574.176 E27.18075
G1 X122.819 Y121.938 F15000.000
G1 X125.161 Y119.596 F2574.176 E27.32185
G1 X125.478 Y119.833 F15000.000
G1 X123.373 Y121.938 F2574.176 E27.44870
G1 X123.927 Y121.938 F15000.000
G1 X126.033 Y119.833 F2574.176 E27.57555
G1 X126.587 Y119.833 F15000.000
G1 X124.482 Y121.938 F2574.176 E27.70240
G1 X125.036 Y121.938 F15000.000
G1 X127.141 Y119.833 F2574.176 E27.82926
G1 X127.695 Y119.833 F15000.000
G1 X125.590 Y121.938 F2574.176 E27.95611
G1 X126.144 Y121.938 F15000.000
G1 X128.249 Y119.833 F2574.176 E28.08296
G1 X128.804 Y119.833 F15000.000
G1 X126.698 Y121.938 F2574.176 E28.20981
G1 X127.253 Y121.938 F15000.000
G1 X129.358 Y119.833 F2574.176 E28.33666
G1 X129.912 Y119.833 F15000.000
G1 X127.807 Y121.938 F2574.176 E28.46351
G1 X128.361 Y121.938 F15000.000
G1 X130.466 Y119.833 F2574.176 E28.59036
G1 X131.020 Y119.833 F15000.000
G1 X128.915 Y121.938 F2574.176 E28.71721
G1 X129.469 Y121.938 F15000.000
G1 X131.575 Y119.833 F2574.176 E28.84406
G1 X132.129 Y119.833 F15000.000
G1 X130.024 Y121.938 F2574.176 E28.97091
G1 X130.578 Y121.938 F15000.000
G1 X132.683 Y119.833 F2574.176 E29.09777
G1 X133.237 Y119.833 F15000.000
G1 X131.132 Y121.938 F2574.176 E29.22462
G1 X131.686 Y121.938 F15000.000
G1 X133.791 Y119.833 F2574.176 E29.35147
G1 X134.346 Y119.833 F15000.000
G1 X132.240 Y121.938 F2574.176 E29.47832
G1 X132.795 Y121.938 F15000.000
G1 X134.900 Y119.833 F2574.176 E29.60517
G1 X135.454 Y119.833 F15000.000
G1 X133.349 Y121.938 F2574.176 E29.73202
G1 X133.903 Y121.938 F15000.000
G1 X136.008 Y119.833 F2574.176 E29.85887
G1 X136.562 Y119.833 F15000.000
G1 X134.457 Y121.938 F2574.176 E29.98572
G1 X135.011 Y121.938 F15000.000
G1 X137.117 Y119.833 F2574.176 E30.11257
G1 X137.671 Y119.833 F15000.000
G1 X135.566 Y121.938 F2574.176 E30.23942
G1 X136.120 Y121.938 F15000.000
G1 X137.786 Y120.271 F2574.176 E30.33983
G1 X137.786 Y120.826 F15000.000
G1 X136.674 Y121.938 F2574.176 E30.40685
G1 X137.228 Y121.938 F15000.000
G1 X137.786 Y121.380 F2574.176 E30.44047
G1 F2400.000 E27.44047
G92 E0
G1 X136.806 Y110.167 F15000.000
G1 F2400.000 E4.80000
G1 X137.786 Y109.187 F2574.176 E4.85905
