; KISSlicer - FREE
; Linux
; version 1.0.9.7
; Built: Jun 12 2012, 22:45:36
;
; Saved: Sat Nov 17 20:45:56 2012
; 'helmetpart_batwing.gco'
;
; *** Printer Settings ***
;
; printer_name = Series
; extension = gco
; cost_per_hour = 0
; g_code_prefix = 4D333031205032342E37322049302E383820443233312E310A473238200A473020583132302059313135205A3135204631303030300A4739322045300A4731205935205A31352046353030300A4D31303920533138350A47312046313030204535300A4739322045300A473120583530205A302E3320463130303030
; g_code_postfix = 47312059323330204631303030300A4739322045300A473120452D31300A4D3130370A4D3130342053300A4731205A323330204631303030300A4D3834204520582059
; g_code_ext_change = NULL
; post_process = NULL
; num_extruders = 1
; firmware_type = 2
; M104_M109 = 0
; add_comments = 1
; z_speed_mm_per_s = 3.5
; z_settle_mm = 0
; bed_size_x_mm = 260
; bed_size_y_mm = 230
; bed_size_z_mm = 230
; bed_offset_x_mm = 130
; bed_offset_y_mm = 115
; bed_offset_z_mm = 0
; bed_roughness_mm = 0
; travel_speed_mm_per_s = 250
; first_layer_speed_mm_per_s = 25
; lo_speed_perim_mm_per_s = 45
; lo_speed_solid_mm_per_s = 45
; lo_speed_sparse_mm_per_s = 90
; hi_speed_perim_mm_per_s = 180
; hi_speed_solid_mm_per_s = 90
; hi_speed_sparse_mm_per_s = 180
; ext_mm_per_rev_1 = 1.25
; ext_material_1 = 2
; ext_axis_1 = 0
; ext_mm_per_rev_2 = 1.25
; ext_material_2 = 0
; ext_axis_2 = 0
; ext_mm_per_rev_3 = 1.25
; ext_material_3 = 0
; ext_axis_3 = 0
; model_ext = 0
; support_ext = 0
; support_body_ext = 0
; raft_ext = 0
; solid_loop_overlap_fraction = 0.25
;
; *** Material Settings for Extruder 1 ***
;
; material_name = PLA
; fan_off_ISOs_all = 2
; temperature_C = 160
; keep_warm_C = 159
; first_layer_C = 185
; bed_C = 81
; sec_per_C_per_C = 0
; RPM_min = 3
; RPM_max = 180
; destring_suck = 1
; destring_prime = 1
; destring_min_mm = 0
; destring_speed_mm_per_s = 15
; min_layer_time_s = 12
; wipe_mm = 5
; cost_per_cm3 = 0
; flowrate_tweak = 1
; fiber_dia_mm = 1.75
; color = 0
;
; *** Style Settings ***
;
; style_name = Fine
; layer_thickness_mm = 0.2
; extrusion_width_mm = 0.5
; num_loops = 2
; skin_thickness_mm = 1
; infill_extrusion_width = 0.5
; infill_density_denominator = 4
; stacked_layers = 1
; use_destring = 0
; loops_insideout = 0
; round_infill = 1
;
; *** Actual Slicing Settings As Used ***
;
; layer_thickness_mm = 0.2
; extrusion_width = 0.5
; num_ISOs = 2
; wall_thickness = 1
; infill_style = 5
; support_style = 0
; support_angle = 90
; destring_min_mm = 0
; stacked_infill_layers = 1
; ISO_wipe_mm = 10
; raft_style = 0
; extra_raft_depth = 0
; oversample_res_mm = 0.125
; crowning_threshold_mm = 1
; loops_insideout = 0
; sheathed_support = 0
; solid_loop_overlap_fraction = 0.25
; inflate_raft_mm = 0
; inflate_support_mm = 2
; model_support_gap_mm = 0.5
; round_infill = 1
; Speed vs Quality = 0.50
;
; *** Header ***
;
; fan off
M107
; [mm] mode
G21
; absolute mode
G90
; *** User-Supplied G-code Prefix ***
;
M301 P24.72 I0.88 D231.1
G28 
G0 X120 Y115 Z15 F10000
G92 E0
G1 Y5 Z15 F5000
M109 S185
G1 F100 E50
G92 E0
G1 X50 Z0.3 F10000
;
; *** Main G-code ***
;
; Reset extruder pos
G92 E0
; BEGIN_LAYER_OBJECT z=0.20
;
; *** Warming Extruder 1 to 185 C ***
M104 S185
G92 E0
;
;
; 'Perimeter', 49.9 [RPM], 25.0 [mm/s]
G1 F15000
G1 X105.48 Y106.18 Z0.2 E0
G1 F1500
G1 X105.22 Y106.1 E0.0111
G1 X104.22 Y106.88 E0.0636
G1 X104 Y107.01 E0.0744
G1 X102.87 Y107.48 E0.1253
G1 X101.59 Y107.66 E0.1789
G1 X101.26 Y107.64 E0.1929
G1 X100.17 Y107.5 E0.2382
G1 X99.94 Y107.43 E0.2485
G1 X98.92 Y107 E0.2944
G1 X98.7 Y106.87 E0.3051
G1 X97.8 Y106.18 E0.3522
G1 X97.48 Y105.79 E0.3731
G1 X96.88 Y104.97 E0.4152
G1 X96.41 Y103.84 E0.4662
G1 X96.29 Y103.07 E0.4987
G1 X96.23 Y102.59 E0.5187
G1 X96.22 Y102.25 E0.5328
G1 X96.39 Y101.02 E0.5845
G1 X96.85 Y99.9 E0.6348
G1 X96.98 Y99.68 E0.6456
G1 X97.75 Y98.68 E0.6979
G1 X98.75 Y97.91 E0.7504
G1 X98.98 Y97.78 E0.7613
G1 X100.11 Y97.32 E0.8123
G1 X101.38 Y97.15 E0.8654
G1 X101.55 Y97.15 E0.8727
G1 X102.75 Y97.31 E0.923
G1 X102.9 Y97.34 E0.929
G1 X104.02 Y97.8 E0.9794
G1 X104.23 Y97.94 E0.99
G1 X105.22 Y98.71 E1.0423
G1 X105.99 Y99.71 E1.0948
G1 X106.06 Y99.82 E1.1002
G1 X106.53 Y100.96 E1.1511
G1 X106.58 Y101.15 E1.1594
G1 X106.73 Y102.37 E1.2104
G1 X106.72 Y102.55 E1.2182
G1 X106.56 Y103.75 E1.2684
G1 X106.05 Y104.99 E1.3243
G1 X105.98 Y105.11 E1.3297
G1 X105.22 Y106.1 E1.382
G1 X105.31 Y106.36 E1.3931
;
; 'Loop', 49.9 [RPM], 25.0 [mm/s]
G1 F15000
G1 X105.58 Y106.45 E1.3931
G1 F1500
G1 X104.49 Y107.31 E1.4508
G1 X104.27 Y107.44 E1.4616
G1 X103.01 Y107.96 E1.5182
G1 X101.6 Y108.16 E1.5774
G1 X101.28 Y108.15 E1.5904
G1 X100.05 Y107.99 E1.642
G1 X99.78 Y107.9 E1.6537
G1 X98.67 Y107.44 E1.704
G1 X98.45 Y107.3 E1.7146
G1 X97.55 Y106.61 E1.7617
G1 X97.28 Y106.35 E1.7773
G1 X96.52 Y105.35 E1.8299
G1 X96.46 Y105.22 E1.8355
G1 X96.05 Y104.22 E1.8808
G1 X95.93 Y103.98 E1.8918
G1 X95.87 Y103.69 E1.9043
G1 X95.72 Y102.58 E1.9507
G1 X95.71 Y102.28 E1.9632
G1 X95.91 Y100.9 E2.0212
G1 X96.41 Y99.65 E2.0772
G1 X96.54 Y99.42 E2.0879
G1 X97.39 Y98.33 E2.1455
G1 X98.48 Y97.48 E2.2032
G1 X98.71 Y97.35 E2.2141
G1 X99.98 Y96.84 E2.2708
G1 X101.3 Y96.65 E2.3262
G1 X101.65 Y96.65 E2.3407
G1 X102.82 Y96.81 E2.3899
G1 X103.15 Y96.9 E2.4041
G1 X104.27 Y97.36 E2.4545
G1 X104.48 Y97.5 E2.4651
G1 X105.48 Y98.27 E2.5174
G1 X105.65 Y98.45 E2.5278
G1 X106.42 Y99.45 E2.5803
G1 X106.49 Y99.56 E2.5857
G1 X107.01 Y100.82 E2.6423
G1 X107.08 Y101.11 E2.6547
G1 X107.23 Y102.38 E2.7081
G1 X107.22 Y102.57 E2.716
G1 X107.05 Y103.87 E2.7705
G1 X106.54 Y105.13 E2.8267
G1 X106.42 Y105.36 E2.8375
G1 X105.58 Y106.45 E2.8951
;
; 'Wipe', 0.0 [RPM], 25.0 [mm/s]
G1 F15000
G1 X105.58 Y106.45 E2.8951
G1 F1500
G1 X106.42 Y105.36 E2.8951
G1 X106.54 Y105.13 E2.8951
G1 X107.05 Y103.87 E2.8951
G1 X107.23 Y102.49 E2.8951
G1 X107.22 Y102.21 E2.8951
G1 X107.05 Y100.96 E2.8951
G1 X106.96 Y100.69 E2.8951
G1 X106.49 Y99.56 E2.8951
G1 X106.27 Y99.25 E2.8951
G1 X105.57 Y98.35 E2.8951
G1 X105.38 Y98.19 E2.8951
G1 X104.68 Y97.65 E2.8951
;
; 'Perimeter', 49.9 [RPM], 25.0 [mm/s]
G1 F15000
G1 X145.49 Y106.16 E2.8951
G1 F1500
G1 X145.23 Y106.09 E2.9063
G1 X144.24 Y106.87 E2.9587
G1 X144.02 Y107.01 E2.9694
G1 X142.89 Y107.48 E3.0204
G1 X141.63 Y107.65 E3.0731
G1 X141.31 Y107.65 E3.0864
G1 X140.08 Y107.48 E3.1379
G1 X138.96 Y107.02 E3.1883
G1 X138.74 Y106.89 E3.199
G1 X137.74 Y106.13 E3.2514
G1 X136.97 Y105.12 E3.3039
G1 X136.85 Y104.89 E3.3148
G1 X136.38 Y103.76 E3.3658
G1 X136.21 Y102.39 E3.4231
G1 X136.37 Y101.15 E3.475
G1 X136.4 Y101 E3.4813
G1 X136.86 Y99.88 E3.5316
G1 X136.99 Y99.66 E3.5423
G1 X137.76 Y98.67 E3.5946
G1 X138.76 Y97.9 E3.6471
G1 X139.09 Y97.73 E3.6625
G1 X140.13 Y97.31 E3.7092
G1 X141.4 Y97.15 E3.7623
G1 X141.58 Y97.15 E3.7697
G1 X142.81 Y97.31 E3.8213
G1 X144.06 Y97.82 E3.8773
G1 X144.17 Y97.89 E3.8827
G1 X145.17 Y98.65 E3.935
G1 X145.94 Y99.65 E3.9875
G1 X146.08 Y99.87 E3.9982
G1 X146.54 Y101 E4.0492
G1 X146.73 Y102.32 E4.1045
G1 X146.71 Y102.65 E4.1182
G1 X146.57 Y103.73 E4.1635
G1 X146.11 Y104.86 E4.214
G1 X145.99 Y105.09 E4.2249
G1 X145.23 Y106.09 E4.2772
G1 X145.32 Y106.34 E4.2885
;
; 'Loop', 49.9 [RPM], 25.0 [mm/s]
G1 F15000
G1 X145.59 Y106.44 E4.2885
G1 F1500
G1 X145.4 Y106.61 E4.2989
G1 X144.39 Y107.37 E4.3515
G1 X144.28 Y107.44 E4.3568
G1 X143.02 Y107.96 E4.4135
G1 X142.73 Y108.02 E4.4261
G1 X141.62 Y108.16 E4.4725
G1 X141.34 Y108.16 E4.4841
G1 X139.96 Y107.97 E4.542
G1 X138.71 Y107.46 E4.5981
G1 X138.49 Y107.33 E4.6088
G1 X137.39 Y106.48 E4.6663
G1 X136.54 Y105.39 E4.7241
G1 X136.02 Y104.13 E4.7807
G1 X135.95 Y104.02 E4.786
G1 X135.85 Y103.61 E4.8035
G1 X135.73 Y102.64 E4.8443
G1 X135.72 Y102.26 E4.8601
G1 X135.91 Y100.88 E4.918
G1 X136.42 Y99.63 E4.974
G1 X136.55 Y99.41 E4.9847
G1 X137.4 Y98.32 E5.0422
G1 X138.5 Y97.47 E5.1
G1 X138.73 Y97.34 E5.1109
G1 X140 Y96.83 E5.1677
G1 X141.37 Y96.65 E5.2251
G1 X141.6 Y96.65 E5.2349
G1 X142.93 Y96.83 E5.2908
G1 X144.19 Y97.33 E5.3469
G1 X144.42 Y97.45 E5.3578
G1 X145.52 Y98.29 E5.4154
G1 X145.68 Y98.48 E5.4258
G1 X146.37 Y99.38 E5.4731
G1 X146.51 Y99.6 E5.4838
G1 X147.03 Y100.86 E5.5404
G1 X147.23 Y102.27 E5.5995
G1 X147.22 Y102.62 E5.6141
G1 X147.05 Y103.85 E5.6657
G1 X146.96 Y104.11 E5.6772
G1 X146.5 Y105.23 E5.7275
G1 X146.36 Y105.44 E5.7381
G1 X145.59 Y106.44 E5.7904
;
; 'Perimeter', 49.9 [RPM], 25.0 [mm/s]
G1 F15000
G1 X155.33 Y116.07 E5.7904
G1 F1500
G1 X155.43 Y116.34 E5.8025
G1 X155.34 Y116.42 E5.8077
G1 X155.29 Y116.4 E5.8098
G1 X155.15 Y116.42 E5.8157
G1 X154.79 Y116.77 E5.8365
G1 X154.74 Y116.88 E5.842
G1 X154.64 Y116.96 E5.8472
G1 X154.6 Y116.94 E5.8491
G1 X154.45 Y116.96 E5.8552
G1 X154.09 Y117.31 E5.876
G1 X154.03 Y117.42 E5.8814
G1 X153.33 Y117.96 E5.9182
G1 X153.28 Y117.93 E5.9206
G1 X153.14 Y117.95 E5.9263
G1 X152.79 Y118.3 E5.9471
G1 X152.73 Y118.42 E5.9526
G1 X152.63 Y118.5 E5.9578
G1 X152.58 Y118.47 E5.9601
G1 X152.44 Y118.49 E5.9659
G1 X152.09 Y118.84 E5.9867
G1 X152.03 Y118.96 E5.9922
G1 X151.93 Y119.04 E5.9974
G1 X151.88 Y119.01 E5.9995
G1 X151.74 Y119.03 E6.0054
G1 X151.39 Y119.38 E6.0262
G1 X151.33 Y119.5 E6.0317
G1 X151.19 Y119.55 E6.0378
G1 X147.18 Y121.22 E6.2185
G1 X146.54 Y121.47 E6.247
G1 X142.9 Y121.95 E6.3995
G1 X141.55 Y122.13 E6.4563
G1 X141.38 Y122.12 E6.4635
G1 X136.74 Y121.51 E6.6577
G1 X136.3 Y121.43 E6.6765
G1 X134.93 Y120.87 E6.7381
G1 X134.68 Y120.76 E6.7492
G1 X134.31 Y120.61 E6.7661
G1 X131.82 Y119.58 E6.8779
G1 X131.36 Y119.16 E6.9039
G1 X131.22 Y119.15 E6.9097
G1 X131.18 Y119.17 E6.9115
G1 X130.68 Y118.78 E6.9377
G1 X130.55 Y118.74 E6.9434
G1 X130.48 Y118.63 E6.9488
G1 X130.08 Y118.32 E6.9697
G1 X130.03 Y118.2 E6.9753
G1 X129.66 Y117.86 E6.9961
G1 X129.52 Y117.84 E7.0021
G1 X129.49 Y117.86 E7.0037
G1 X129.19 Y117.63 E7.0194
G1 X129.13 Y117.51 E7.0251
G1 X128.77 Y117.17 E7.0459
G1 X128.63 Y117.15 E7.0517
G1 X128.59 Y117.17 E7.0536
G1 X128.39 Y117.02 E7.0641
G1 X128.33 Y116.9 E7.0697
G1 X127.97 Y116.56 E7.0905
G1 X127.82 Y116.54 E7.0965
G1 X127.79 Y116.56 E7.098
G1 X127.5 Y116.32 E7.1137
G1 X127.42 Y116.22 E7.1189
G1 X127.44 Y116.18 E7.1211
G1 X127.43 Y116.04 E7.127
G1 X127.08 Y115.68 E7.1478
G1 X126.96 Y115.62 E7.1532
G1 X126.88 Y115.52 E7.1585
G1 X126.9 Y115.48 E7.1605
G1 X126.89 Y115.34 E7.1665
G1 X126.54 Y114.98 E7.1873
G1 X126.42 Y114.92 E7.1927
G1 X126.34 Y114.82 E7.198
G1 X126.36 Y114.78 E7.1999
G1 X126.35 Y114.64 E7.2059
G1 X126 Y114.28 E7.2267
G1 X125.88 Y114.22 E7.2322
G1 X125.91 Y114.16 E7.2347
G1 X125.89 Y114.03 E7.2404
G1 X125.54 Y113.67 E7.2612
G1 X125.42 Y113.62 E7.2667
G1 X125.34 Y113.52 E7.272
G1 X125.37 Y113.47 E7.2744
G1 X125.35 Y113.33 E7.2801
G1 X125 Y112.97 E7.3008
G1 X124.88 Y112.92 E7.3064
G1 X124.8 Y112.82 E7.3116
G1 X124.83 Y112.77 E7.3139
G1 X124.81 Y112.63 E7.3197
G1 X124.46 Y112.27 E7.3404
G1 X124.34 Y112.21 E7.3459
G1 X123.93 Y111.74 E7.372
G1 X123.82 Y111.68 E7.3774
G1 X123.69 Y111.45 E7.3882
G1 X123.52 Y111.27 E7.3986
G1 X123.14 Y110.94 E7.4194
G1 X122.84 Y110.89 E7.4322
G1 X122.84 Y110.72 E7.4396
G1 X122.77 Y110.61 E7.445
G1 X122.47 Y110.38 E7.4607
G1 X122.4 Y110.27 E7.4661
G1 X122.03 Y109.93 E7.4869
G1 X121.89 Y109.92 E7.4926
G1 X121.83 Y109.96 E7.4955
G1 X121.62 Y109.81 E7.5061
G1 X120.51 Y109.27 E7.5575
G1 X120.21 Y109.15 E7.571
G1 X119.25 Y108.85 E7.6129
G1 X118.06 Y108.64 E7.6631
G1 X116.71 Y108.59 E7.7192
G1 X115.46 Y108.72 E7.7715
G1 X114.17 Y109.04 E7.8266
G1 X113.03 Y109.51 E7.8776
G1 X112.02 Y110.09 E7.9263
G1 X111.97 Y110.06 E7.9286
G1 X111.83 Y110.08 E7.9346
G1 X111.47 Y110.43 E7.9554
G1 X111.41 Y110.55 E7.9609
G1 X111.31 Y110.62 E7.9661
G1 X111.27 Y110.6 E7.9679
G1 X111.13 Y110.62 E7.974
G1 X110.77 Y110.97 E7.9947
G1 X110.72 Y111.1 E8.0004
G1 X110.44 Y111.34 E8.016
G1 X110.2 Y111.46 E8.0271
G1 X110.12 Y111.55 E8.0323
G1 X110.04 Y111.52 E8.0359
G1 X109.92 Y111.54 E8.0409
G1 X109.54 Y111.87 E8.0618
G1 X109.48 Y111.98 E8.0672
G1 X109.07 Y112.46 E8.0932
G1 X108.94 Y112.51 E8.0989
G1 X108.79 Y112.62 E8.1067
G1 X108.71 Y112.63 E8.1101
G1 X108.6 Y112.7 E8.1154
G1 X108.35 Y112.98 E8.131
G1 X108.29 Y113.09 E8.1364
G1 X108.2 Y113.18 E8.1416
G1 X107.72 Y113.41 E8.1637
G1 X105.43 Y114.5 E8.2691
G1 X105.29 Y114.53 E8.2752
G1 X102.2 Y115.11 E8.406
G1 X101.86 Y115.1 E8.42
G1 X98.94 Y114.87 E8.5416
G1 X98.67 Y114.8 E8.5535
G1 X95.81 Y113.79 E8.6794
G1 X95.69 Y113.74 E8.685
G1 X92.97 Y111.88 E8.8221
G1 X90.85 Y109.4 E8.9578
G1 X90.72 Y109.17 E8.9686
G1 X89.45 Y106.53 E9.0905
G1 X89.35 Y106.27 E9.1019
G1 X88.79 Y103.26 E9.2293
G1 X88.77 Y102.92 E9.2433
G1 X88.83 Y102.22 E9.2728
G1 X89.01 Y99.78 E9.3742
G1 X89.84 Y97.45 E9.4772
G1 X90.11 Y96.67 E9.5115
G1 X90.18 Y96.56 E9.5168
G1 X91.97 Y93.94 E9.6486
G1 X92.15 Y93.77 E9.659
G1 X94.54 Y91.73 E9.7895
G1 X97.21 Y90.45 E9.9129
G1 X97.54 Y90.29 E9.9279
G1 X97.75 Y90.26 E9.9367
G1 X100.71 Y89.71 E10.062
G1 X100.91 Y89.7 E10.0703
G1 X103.82 Y89.92 E10.1918
G1 X104.13 Y89.96 E10.2049
G1 X106.78 Y90.9 E10.3215
G1 X107.12 Y91.01 E10.3366
G1 X107.58 Y91.44 E10.3626
G1 X107.71 Y91.45 E10.3681
G1 X107.77 Y91.42 E10.371
G1 X108.92 Y92.21 E10.429
G1 X108.99 Y92.32 E10.4344
G1 X109.36 Y92.65 E10.4552
G1 X109.5 Y92.67 E10.4611
G1 X109.55 Y92.64 E10.4634
G1 X109.61 Y92.75 E10.4688
G1 X109.98 Y93.09 E10.4896
G1 X110.13 Y93.1 E10.4956
G1 X110.16 Y93.08 E10.4974
G1 X110.86 Y93.62 E10.534
G1 X110.95 Y93.71 E10.5392
G1 X111.06 Y93.77 E10.5446
G1 X111.13 Y93.88 E10.5499
G1 X111.51 Y94.21 E10.5707
G1 X111.64 Y94.22 E10.5762
G1 X111.72 Y94.17 E10.5799
G1 X112.28 Y94.49 E10.6068
G1 X113.37 Y94.98 E10.6567
G1 X114.59 Y95.34 E10.7093
G1 X115.89 Y95.55 E10.764
G1 X117.2 Y95.61 E10.8188
G1 X118.52 Y95.5 E10.8739
G1 X119.85 Y95.22 E10.9302
G1 X121.03 Y94.8 E10.9825
G1 X122.1 Y94.27 E11.032
G1 X122.33 Y94.14 E11.0429
G1 X122.65 Y93.93 E11.0588
G1 X122.72 Y93.97 E11.0622
G1 X122.85 Y93.95 E11.0678
G1 X123.21 Y93.61 E11.0886
G1 X123.28 Y93.5 E11.0939
G1 X123.48 Y93.35 E11.1044
G1 X123.55 Y93.23 E11.1098
G1 X123.77 Y93.1 E11.1205
G1 X124.33 Y92.6 E11.1518
G1 X124.56 Y92.31 E11.1675
G1 X124.69 Y92.25 E11.1731
G1 X125.03 Y91.89 E11.1939
G1 X125.05 Y91.75 E11.1997
G1 X125.02 Y91.71 E11.2016
G1 X125.18 Y91.51 E11.2121
G1 X125.3 Y91.45 E11.2177
G1 X125.64 Y91.09 E11.2384
G1 X125.65 Y90.94 E11.2445
G1 X125.64 Y90.91 E11.246
G1 X125.87 Y90.61 E11.2617
G1 X125.99 Y90.56 E11.2673
G1 X126.33 Y90.19 E11.2881
G1 X126.35 Y90.05 E11.294
G1 X126.33 Y90.01 E11.2957
G1 X126.71 Y89.51 E11.3219
G1 X126.75 Y89.38 E11.3277
G1 X126.86 Y89.31 E11.3331
G1 X127.39 Y88.6 E11.3698
G1 X127.56 Y88.42 E11.3802
G1 X128.06 Y88.04 E11.4064
G1 X128.1 Y88.06 E11.4083
G1 X128.25 Y88.04 E11.4143
G1 X128.6 Y87.69 E11.4351
G1 X128.66 Y87.58 E11.4406
G1 X128.72 Y87.6 E11.4431
G1 X128.85 Y87.58 E11.4488
G1 X129.21 Y87.24 E11.4696
G1 X129.27 Y87.11 E11.4751
G1 X129.37 Y87.04 E11.4804
G1 X129.42 Y87.06 E11.4828
G1 X129.55 Y87.04 E11.4884
G1 X129.91 Y86.7 E11.5092
G1 X129.97 Y86.58 E11.5148
G1 X130.07 Y86.5 E11.52
G1 X130.11 Y86.52 E11.5222
G1 X130.25 Y86.5 E11.528
G1 X130.61 Y86.16 E11.5488
G1 X130.67 Y86.04 E11.5543
G1 X130.77 Y85.96 E11.5596
G1 X130.81 Y85.98 E11.5616
G1 X130.95 Y85.97 E11.5676
G1 X131.31 Y85.62 E11.5884
G1 X131.37 Y85.5 E11.5938
G1 X131.69 Y85.28 E11.6098
G1 X134.85 Y83.98 E11.7521
G1 X135.08 Y83.87 E11.7625
G1 X136.34 Y83.36 E11.8193
G1 X136.49 Y83.33 E11.8255
G1 X139.18 Y82.98 E11.9383
G1 X141.39 Y82.68 E12.031
G1 X141.67 Y82.7 E12.0424
G1 X144.44 Y83.07 E12.1589
G1 X146.45 Y83.33 E12.2432
G1 X146.6 Y83.36 E12.2494
G1 X151.07 Y85.21 E12.4507
G1 X151.32 Y85.31 E12.4618
G1 X151.62 Y85.54 E12.4776
G1 X151.68 Y85.66 E12.4832
G1 X152.05 Y86 E12.504
G1 X152.19 Y86.02 E12.5099
G1 X152.22 Y86 E12.5116
G1 X152.52 Y86.23 E12.5273
G1 X152.57 Y86.35 E12.5329
G1 X152.94 Y86.69 E12.5537
G1 X153.08 Y86.71 E12.5595
G1 X153.12 Y86.69 E12.5615
G1 X153.32 Y86.84 E12.572
G1 X153.38 Y86.96 E12.5776
G1 X153.74 Y87.3 E12.5984
G1 X153.89 Y87.32 E12.6044
G1 X153.92 Y87.3 E12.6059
G1 X154.22 Y87.53 E12.6216
G1 X154.27 Y87.66 E12.6273
G1 X154.64 Y88 E12.6481
G1 X154.78 Y88.01 E12.6539
G1 X154.82 Y87.99 E12.6558
G1 X155.42 Y88.45 E12.6872
G1 X155.73 Y88.85 E12.7082
G1 X155.7 Y88.9 E12.7107
G1 X155.72 Y89.04 E12.7164
G1 X156.07 Y89.4 E12.7372
G1 X156.19 Y89.45 E12.7427
G1 X156.27 Y89.55 E12.748
G1 X156.24 Y89.6 E12.7504
G1 X156.26 Y89.74 E12.7561
G1 X156.61 Y90.1 E12.7769
G1 X156.73 Y90.15 E12.7824
G1 X156.8 Y90.25 E12.7876
G1 X156.78 Y90.3 E12.7899
G1 X156.8 Y90.44 E12.7957
G1 X157.15 Y90.8 E12.8165
G1 X157.27 Y90.85 E12.822
G1 X157.34 Y90.95 E12.8272
G1 X157.32 Y91 E12.8293
G1 X157.34 Y91.14 E12.8352
G1 X157.69 Y91.5 E12.856
G1 X157.8 Y91.56 E12.8615
G1 X157.88 Y91.66 E12.8667
G1 X157.86 Y91.7 E12.8687
G1 X157.88 Y91.84 E12.8747
G1 X158.23 Y92.2 E12.8955
G1 X158.34 Y92.26 E12.9009
G1 X158.57 Y92.56 E12.9167
G1 X159.09 Y93.82 E12.9733
G1 X159.16 Y93.93 E12.9787
G1 X159.19 Y94.07 E12.9848
G1 X159.52 Y94.81 E13.0184
G1 X159.56 Y94.95 E13.0245
G1 X159.82 Y95.58 E13.0528
G1 X159.89 Y95.69 E13.0581
G1 X159.92 Y95.83 E13.0642
G1 X160.25 Y96.57 E13.0978
G1 X160.29 Y96.71 E13.1039
G1 X160.49 Y97.22 E13.1266
G1 X160.54 Y97.35 E13.1324
G1 X161.12 Y101.78 E13.3179
G1 X161.18 Y102.25 E13.3379
G1 X161.2 Y102.43 E13.3453
G1 X160.59 Y107.06 E13.5396
G1 X160.52 Y107.52 E13.5589
G1 X160.32 Y108.02 E13.5813
G1 X160.21 Y108.28 E13.5931
G1 X158.62 Y112.12 E13.7657
G1 X158.53 Y112.2 E13.771
G1 X158.19 Y112.57 E13.7918
G1 X158.17 Y112.71 E13.7977
G1 X158.19 Y112.75 E13.7993
G1 X157.96 Y113.05 E13.815
G1 X157.84 Y113.1 E13.8207
G1 X157.5 Y113.47 E13.8415
G1 X157.48 Y113.61 E13.8473
G1 X157.5 Y113.65 E13.8492
G1 X157.35 Y113.85 E13.8597
G1 X157.23 Y113.9 E13.8652
G1 X156.89 Y114.27 E13.886
G1 X156.87 Y114.41 E13.8921
G1 X156.89 Y114.44 E13.8936
G1 X156.66 Y114.74 E13.9093
G1 X156.54 Y114.8 E13.9149
G1 X156.2 Y115.17 E13.9357
G1 X156.18 Y115.31 E13.9416
G1 X156.2 Y115.34 E13.9433
G1 X155.82 Y115.84 E13.9695
G1 X155.77 Y115.97 E13.9753
G1 X155.66 Y116.04 E13.9806
G1 X155.43 Y116.34 E13.9963
G1 X155.16 Y116.25 E14.0085
;
; 'Loop', 49.9 [RPM], 25.0 [mm/s]
G1 F15000
G1 X155.07 Y115.99 E14.0085
G1 F1500
G1 X154.78 Y116.23 E14.0242
G1 X152.77 Y117.77 E14.1292
G1 X152.57 Y117.91 E14.1398
G1 X151.37 Y118.84 E14.2028
G1 X151.06 Y119.06 E14.2186
G1 X146.53 Y120.94 E14.4224
G1 X146.39 Y120.98 E14.4283
G1 X141.51 Y121.62 E14.633
G1 X141.35 Y121.61 E14.6399
G1 X136.56 Y120.98 E14.8407
G1 X136.42 Y120.94 E14.8465
G1 X131.95 Y119.09 E15.0478
G1 X131.73 Y118.96 E15.0585
G1 X130.24 Y117.81 E15.137
G1 X130.03 Y117.66 E15.1475
G1 X127.94 Y116.05 E15.2573
G1 X127.61 Y115.66 E15.2782
G1 X127.54 Y115.56 E15.2835
G1 X126.07 Y113.66 E15.3832
G1 X126 Y113.55 E15.3885
G1 X125 Y112.26 E15.4568
G1 X124.77 Y111.95 E15.4726
G1 X124.19 Y111.29 E15.5091
G1 X123.87 Y110.91 E15.53
G1 X123.49 Y110.58 E15.5508
G1 X123.27 Y110.45 E15.5615
G1 X123.12 Y110.25 E15.5721
G1 X122.83 Y110.01 E15.5877
G1 X121.87 Y109.38 E15.6353
G1 X120.69 Y108.8 E15.69
G1 X120.44 Y108.7 E15.7013
G1 X119.37 Y108.36 E15.7478
G1 X118.03 Y108.13 E15.8044
G1 X116.67 Y108.09 E15.8606
G1 X115.47 Y108.21 E15.9111
G1 X114.16 Y108.52 E15.9668
G1 X112.89 Y109.02 E16.0236
G1 X112.77 Y109.08 E16.0292
G1 X111.65 Y109.73 E16.0832
G1 X110.65 Y110.5 E16.1357
G1 X110.17 Y110.91 E16.1618
G1 X109.93 Y111.03 E16.1728
G1 X109.68 Y111.3 E16.1884
G1 X109.41 Y111.39 E16.2
G1 X109.21 Y111.54 E16.2105
G1 X108.71 Y112.11 E16.2418
G1 X108.45 Y112.2 E16.2533
G1 X108.24 Y112.35 E16.2639
G1 X107.91 Y112.73 E16.2847
G1 X107.82 Y112.81 E16.2899
G1 X105.29 Y114.01 E16.4063
G1 X105.15 Y114.05 E16.4123
G1 X102.14 Y114.61 E16.5398
G1 X99.02 Y114.37 E16.6698
G1 X98.79 Y114.31 E16.6795
G1 X95.94 Y113.3 E16.8053
G1 X93.32 Y111.51 E16.9371
G1 X93.24 Y111.42 E16.9423
G1 X91.28 Y109.13 E17.0676
G1 X91.2 Y109.03 E17.0729
G1 X89.88 Y106.26 E17.2004
G1 X89.84 Y106.13 E17.2061
G1 X89.28 Y103.12 E17.3336
G1 X89.27 Y102.94 E17.3409
G1 X89.51 Y99.92 E17.467
G1 X89.55 Y99.78 E17.473
G1 X90.55 Y96.92 E17.5988
G1 X90.61 Y96.81 E17.6042
G1 X92.34 Y94.3 E17.7308
G1 X92.41 Y94.2 E17.736
G1 X94.8 Y92.16 E17.8665
G1 X97.69 Y90.78 E17.9995
G1 X100.55 Y90.25 E18.1205
G1 X100.86 Y90.2 E18.1335
G1 X104.01 Y90.45 E18.2649
G1 X106.99 Y91.5 E18.3965
G1 X107.21 Y91.63 E18.4072
G1 X107.31 Y91.71 E18.4124
G1 X109.61 Y93.29 E18.5284
G1 X110.41 Y93.91 E18.5702
G1 X110.52 Y93.98 E18.5756
G1 X110.81 Y94.21 E18.5912
G1 X111.91 Y94.87 E18.6446
G1 X113.12 Y95.42 E18.6999
G1 X114.47 Y95.83 E18.7583
G1 X115.87 Y96.06 E18.8174
G1 X117.18 Y96.12 E18.8721
G1 X118.51 Y96.01 E18.9274
G1 X119.99 Y95.7 E18.9901
G1 X121.17 Y95.28 E19.0424
G1 X121.42 Y95.18 E19.0536
G1 X122.48 Y94.64 E19.1031
G1 X123.65 Y93.86 E19.1616
G1 X123.92 Y93.6 E19.1772
G1 X124.03 Y93.53 E19.1825
G1 X124.69 Y92.95 E19.219
G1 X125.08 Y92.46 E19.2451
G1 X127.14 Y89.76 E19.3864
G1 X127.83 Y88.86 E19.4335
G1 X127.92 Y88.77 E19.4387
G1 X129.22 Y87.77 E19.507
G1 X129.53 Y87.54 E19.5228
G1 X130.63 Y86.69 E19.5805
G1 X130.73 Y86.62 E19.5858
G1 X131.84 Y85.78 E19.6436
G1 X131.95 Y85.72 E19.6491
G1 X136.48 Y83.84 E19.8529
G1 X136.64 Y83.82 E19.8594
G1 X141.38 Y83.19 E20.0582
G1 X141.69 Y83.21 E20.0713
G1 X146.33 Y83.82 E20.2658
G1 X146.59 Y83.89 E20.2769
G1 X151.07 Y85.75 E20.4787
G1 X153.17 Y87.36 E20.5886
G1 X153.37 Y87.51 E20.599
G1 X155.07 Y88.81 E20.688
G1 X155.61 Y89.51 E20.7248
G1 X156.14 Y90.22 E20.7616
G1 X156.61 Y90.81 E20.793
G1 X156.68 Y90.92 E20.7983
G1 X156.92 Y91.21 E20.8141
G1 X157.53 Y92.02 E20.8561
G1 X158.15 Y92.82 E20.8981
G1 X158.2 Y92.94 E20.9037
G1 X158.73 Y94.2 E20.9603
G1 X158.76 Y94.34 E20.9664
G1 X158.83 Y94.45 E20.9717
G1 X159.13 Y95.22 E21.0061
G1 X159.19 Y95.33 E21.0114
G1 X159.46 Y95.96 E21.0397
G1 X159.49 Y96.1 E21.0458
G1 X159.56 Y96.21 E21.0512
G1 X159.86 Y96.98 E21.0855
G1 X159.92 Y97.09 E21.0909
G1 X160.03 Y97.34 E21.1022
G1 X160.1 Y97.8 E21.1217
G1 X160.13 Y98.08 E21.1331
G1 X160.6 Y101.6 E21.2808
G1 X160.69 Y102.46 E21.3167
G1 X160.08 Y107.09 E21.511
G1 X160.03 Y107.39 E21.5238
G1 X158.13 Y111.99 E21.7307
G1 X157.99 Y112.2 E21.7412
G1 X156.14 Y114.59 E21.8667
G1 X155.38 Y115.6 E21.9191
G1 X155.07 Y115.99 E21.94
;
; 'Wipe', 0.0 [RPM], 25.0 [mm/s]
G1 F15000
G1 X155.07 Y115.99 E21.94
G1 F1500
G1 X155.38 Y115.6 E21.94
G1 X155.45 Y115.49 E21.94
G1 X157.99 Y112.2 E21.94
G1 X158.13 Y111.99 E21.94
G1 X160.03 Y107.39 E21.94
;
; 'Perimeter', 49.9 [RPM], 25.0 [mm/s]
G1 F15000
G1 X167.59 Y152.68 E21.94
G1 F1500
G1 X167.72 Y153 E21.9542
G1 X167.6 Y152.9 E21.9606
G1 X166.41 Y150.89 E22.0575
G1 X166.26 Y150.68 E22.0681
G1 X165.1 Y149.37 E22.141
G1 X164.19 Y148.34 E22.1984
G1 X164.1 Y148.25 E22.2036
G1 X161.61 Y146.33 E22.3343
G1 X161.39 Y146.19 E22.3449
G1 X158.59 Y144.77 E22.4755
G1 X158.46 Y144.71 E22.4816
G1 X155.34 Y143.81 E22.6164
G1 X155.03 Y143.77 E22.6295
G1 X152.15 Y143.51 E22.7496
G1 X151.5 Y143.53 E22.7766
G1 X148.89 Y143.78 E22.8859
G1 X148.52 Y143.84 E22.9015
G1 X145.53 Y144.71 E23.0306
G1 X145.32 Y144.8 E23.0404
G1 X142.58 Y146.19 E23.1682
G1 X142.37 Y146.34 E23.1788
G1 X139.87 Y148.27 E23.3101
G1 X137.71 Y150.7 E23.4453
G1 X137.57 Y150.91 E23.4559
G1 X136.71 Y152.35 E23.5253
G1 X136.63 Y152.32 E23.5288
G1 X136.43 Y152.16 E23.5393
G1 X136.42 Y150.67 E23.6014
G1 X136.37 Y150.26 E23.6186
G1 X135.79 Y147.45 E23.738
G1 X135.7 Y147.18 E23.7497
G1 X134.58 Y144.53 E23.8692
G1 X134.4 Y144.21 E23.8847
G1 X132.69 Y141.66 E24.0121
G1 X130.48 Y139.45 E24.1421
G1 X130.39 Y139.37 E24.1473
G1 X127.74 Y137.61 E24.2794
G1 X127.51 Y137.49 E24.2903
G1 X124.78 Y136.35 E24.4133
G1 X124.65 Y136.31 E24.419
G1 X121.59 Y135.69 E24.5487
G1 X121.26 Y135.68 E24.5626
G1 X118.3 Y135.67 E24.6854
G1 X118.11 Y135.69 E24.6936
G1 X115.12 Y136.27 E24.82
G1 X114.83 Y136.37 E24.8327
G1 X112.08 Y137.5 E24.9564
G1 X110.47 Y138.55 E25.0364
G1 X110.34 Y138.49 E25.0422
G1 X110.24 Y138.32 E25.0503
G1 X110.57 Y137.43 E25.09
G1 X111.13 Y135.18 E25.1862
G1 X111.4 Y133 E25.2775
G1 X111.41 Y132.72 E25.2895
G1 X111.42 Y130.58 E25.3782
G1 X111.33 Y129.75 E25.413
G1 X111.13 Y128.16 E25.4797
G1 X110.61 Y126 E25.5719
G1 X109.79 Y123.79 E25.6698
G1 X108.77 Y121.8 E25.763
G1 X107.41 Y119.79 E25.8639
G1 X105.93 Y118.08 E25.9578
G1 X104.27 Y116.57 E26.0514
G1 X104.17 Y116.49 E26.0566
G1 X103.04 Y115.68 E26.1144
G1 X103.02 Y115.64 E26.1161
G1 X103.17 Y115.61 E26.1223
G1 X103.28 Y115.55 E26.1277
G1 X103.61 Y115.51 E26.1413
G1 X103.72 Y115.45 E26.1467
G1 X103.8 Y115.43 E26.1504
G1 X104.23 Y115.42 E26.1681
G1 X104.34 Y115.35 E26.1734
G1 X104.67 Y115.32 E26.1871
G1 X104.78 Y115.26 E26.1925
G1 X104.86 Y115.24 E26.1961
G1 X105.29 Y115.23 E26.2138
G1 X105.4 Y115.16 E26.2192
G1 X105.65 Y115.06 E26.2306
G1 X105.81 Y115.03 E26.237
G1 X105.92 Y114.97 E26.2425
G1 X106.08 Y114.95 E26.249
G1 X106.19 Y114.88 E26.2544
G1 X106.27 Y114.79 E26.2596
G1 X106.43 Y114.77 E26.2662
G1 X106.54 Y114.7 E26.2716
G1 X106.61 Y114.6 E26.2768
G1 X106.77 Y114.58 E26.2834
G1 X106.89 Y114.52 E26.2888
G1 X107.04 Y114.49 E26.2954
G1 X107.15 Y114.43 E26.3008
G1 X107.24 Y114.33 E26.306
G1 X107.39 Y114.31 E26.3126
G1 X107.5 Y114.24 E26.3179
G1 X107.58 Y114.15 E26.3232
G1 X107.74 Y114.12 E26.3298
G1 X107.85 Y114.06 E26.3351
G1 X107.93 Y113.96 E26.3403
G1 X108.09 Y113.94 E26.347
G1 X108.2 Y113.88 E26.3525
G1 X108.36 Y113.85 E26.359
G1 X108.47 Y113.79 E26.3644
G1 X108.55 Y113.69 E26.3696
G1 X108.71 Y113.67 E26.3762
G1 X108.82 Y113.6 E26.3816
G1 X108.88 Y113.49 E26.3869
G1 X108.92 Y113.35 E26.3929
G1 X108.94 Y113.36 E26.3942
G1 X109.09 Y113.34 E26.4002
G1 X109.44 Y112.99 E26.421
G1 X109.49 Y112.86 E26.4267
G1 X110.07 Y112.38 E26.458
G1 X110.26 Y112.19 E26.4693
G1 X110.55 Y111.98 E26.4842
G1 X110.71 Y111.96 E26.491
G1 X110.82 Y111.89 E26.4964
G1 X111.15 Y111.52 E26.5172
G1 X111.28 Y111.46 E26.5229
G1 X111.43 Y111.35 E26.5307
G1 X111.5 Y111.33 E26.534
G1 X111.62 Y111.27 E26.5394
G1 X111.86 Y110.98 E26.555
G1 X111.98 Y110.92 E26.5606
G1 X112.12 Y110.8 E26.5684
G1 X112.2 Y110.79 E26.5717
G1 X112.31 Y110.73 E26.5771
G1 X112.48 Y110.54 E26.5875
G1 X112.64 Y110.52 E26.5942
G1 X112.75 Y110.45 E26.5996
G1 X112.91 Y110.26 E26.61
G1 X113.07 Y110.24 E26.6168
G1 X113.18 Y110.18 E26.6222
G1 X113.27 Y110.08 E26.6274
G1 X113.43 Y110.06 E26.634
G1 X113.54 Y110 E26.6394
G1 X113.69 Y109.97 E26.6459
G1 X113.8 Y109.91 E26.6513
G1 X113.88 Y109.81 E26.6565
G1 X114.03 Y109.78 E26.663
G1 X114.15 Y109.72 E26.6684
G1 X114.3 Y109.69 E26.6749
G1 X114.41 Y109.63 E26.6803
G1 X114.56 Y109.6 E26.6867
G1 X114.67 Y109.53 E26.692
G1 X115.01 Y109.51 E26.706
G1 X115.12 Y109.44 E26.7114
G1 X115.45 Y109.42 E26.7253
G1 X115.56 Y109.35 E26.7307
G1 X115.64 Y109.33 E26.7341
G1 X116.07 Y109.32 E26.7518
G1 X116.32 Y109.22 E26.7632
G1 X116.79 Y109.22 E26.7828
G1 X117.7 Y109.19 E26.8204
G1 X117.95 Y109.29 E26.8316
G1 X118.28 Y109.31 E26.8454
G1 X118.39 Y109.37 E26.8507
G1 X118.72 Y109.39 E26.8645
G1 X118.83 Y109.45 E26.8698
G1 X119.17 Y109.46 E26.8839
G1 X119.29 Y109.53 E26.8893
G1 X119.44 Y109.55 E26.8957
G1 X119.55 Y109.61 E26.9011
G1 X119.71 Y109.63 E26.9075
G1 X119.82 Y109.69 E26.9129
G1 X119.97 Y109.72 E26.9193
G1 X120.09 Y109.78 E26.9247
G1 X120.24 Y109.8 E26.9313
G1 X120.33 Y109.89 E26.9365
G1 X120.44 Y109.96 E26.9419
G1 X120.6 Y109.97 E26.9486
G1 X120.68 Y110.06 E26.9538
G1 X120.79 Y110.13 E26.9592
G1 X120.95 Y110.14 E26.9658
G1 X121.04 Y110.24 E26.9711
G1 X121.15 Y110.3 E26.9764
G1 X121.32 Y110.31 E26.9834
G1 X121.57 Y110.58 E26.999
G1 X121.68 Y110.65 E27.0044
G1 X121.75 Y110.66 E27.0074
G1 X121.91 Y110.77 E27.0155
G1 X122.03 Y110.83 E27.0209
G1 X122.28 Y111.11 E27.0365
G1 X122.39 Y111.17 E27.0419
G1 X122.74 Y111.18 E27.0562
G1 X122.78 Y111.32 E27.0622
G1 X123.11 Y111.69 E27.0831
G1 X123.31 Y111.85 E27.0935
G1 X123.37 Y111.96 E27.0989
G1 X123.38 Y112.13 E27.1059
G1 X123.45 Y112.24 E27.1112
G1 X123.92 Y112.65 E27.1373
G1 X123.97 Y112.78 E27.1428
G1 X124.09 Y112.92 E27.1507
G1 X124.1 Y113 E27.1539
G1 X124.17 Y113.11 E27.1593
G1 X124.46 Y113.35 E27.1749
G1 X124.51 Y113.47 E27.1805
G1 X124.63 Y113.62 E27.1885
G1 X124.64 Y113.7 E27.1916
G1 X124.71 Y113.81 E27.1969
G1 X125 Y114.05 E27.2126
G1 X125.06 Y114.17 E27.2182
G1 X125.18 Y114.32 E27.2262
G1 X125.19 Y114.4 E27.2293
G1 X125.25 Y114.51 E27.2346
G1 X125.44 Y114.67 E27.245
G1 X125.5 Y114.79 E27.2506
G1 X125.62 Y114.93 E27.2584
G1 X125.63 Y115.01 E27.2617
G1 X125.7 Y115.12 E27.2671
G1 X125.99 Y115.37 E27.2827
G1 X126.04 Y115.49 E27.2882
G1 X126.16 Y115.63 E27.2961
G1 X126.18 Y115.71 E27.2994
G1 X126.24 Y115.82 E27.3047
G1 X126.53 Y116.06 E27.3204
G1 X126.59 Y116.18 E27.3259
G1 X126.71 Y116.33 E27.3339
G1 X126.72 Y116.41 E27.337
G1 X126.78 Y116.52 E27.3424
G1 X127.07 Y116.76 E27.358
G1 X127.5 Y117.22 E27.384
G1 X127.61 Y117.28 E27.3894
G1 X127.69 Y117.29 E27.3928
G1 X127.84 Y117.4 E27.4006
G1 X127.97 Y117.45 E27.4062
G1 X128.31 Y117.82 E27.427
G1 X128.42 Y117.89 E27.4324
G1 X128.5 Y117.89 E27.4356
G1 X128.65 Y118.01 E27.4435
G1 X128.78 Y118.05 E27.4492
G1 X129.2 Y118.52 E27.4752
G1 X129.31 Y118.58 E27.4806
G1 X129.39 Y118.59 E27.4839
G1 X129.54 Y118.7 E27.4917
G1 X129.67 Y118.75 E27.4974
G1 X130.01 Y119.12 E27.5182
G1 X130.12 Y119.19 E27.5236
G1 X130.29 Y119.19 E27.5305
G1 X130.4 Y119.26 E27.5359
G1 X130.9 Y119.82 E27.5671
G1 X131.01 Y119.88 E27.5725
G1 X131.09 Y119.89 E27.5758
G1 X131.24 Y120 E27.5836
G1 X131.46 Y120.13 E27.5944
G1 X131.62 Y120.15 E27.6009
G1 X131.7 Y120.25 E27.6062
G1 X131.81 Y120.31 E27.6115
G1 X131.97 Y120.33 E27.6181
G1 X132.09 Y120.39 E27.6235
G1 X132.25 Y120.4 E27.6301
G1 X132.33 Y120.5 E27.6353
G1 X132.44 Y120.56 E27.6407
G1 X132.59 Y120.58 E27.6472
G1 X132.71 Y120.64 E27.6527
G1 X132.87 Y120.66 E27.6592
G1 X132.95 Y120.76 E27.6645
G1 X133.06 Y120.82 E27.6698
G1 X133.22 Y120.84 E27.6764
G1 X133.33 Y120.9 E27.6818
G1 X133.49 Y120.91 E27.6884
G1 X133.57 Y121.01 E27.6936
G1 X133.68 Y121.08 E27.699
G1 X133.84 Y121.09 E27.7055
G1 X133.96 Y121.15 E27.711
G1 X134.12 Y121.17 E27.7176
G1 X134.2 Y121.27 E27.7228
G1 X134.31 Y121.33 E27.7282
G1 X134.46 Y121.35 E27.7347
G1 X134.58 Y121.41 E27.7402
G1 X134.74 Y121.42 E27.7467
G1 X134.82 Y121.52 E27.752
G1 X134.93 Y121.59 E27.7573
G1 X135.09 Y121.6 E27.7639
G1 X135.17 Y121.7 E27.7691
G1 X135.28 Y121.76 E27.7745
G1 X135.44 Y121.78 E27.781
G1 X135.55 Y121.84 E27.7864
G1 X135.71 Y121.86 E27.793
G1 X135.79 Y121.95 E27.7982
G1 X135.9 Y122.02 E27.8036
G1 X136.06 Y122.04 E27.8101
G1 X136.25 Y122.11 E27.8183
G1 X136.59 Y122.09 E27.8327
G1 X136.68 Y122.11 E27.8367
G1 X136.8 Y122.18 E27.842
G1 X137.04 Y122.18 E27.8523
G1 X137.23 Y122.26 E27.8609
G1 X137.66 Y122.26 E27.8787
G1 X137.74 Y122.28 E27.8821
G1 X137.85 Y122.34 E27.8875
G1 X138.28 Y122.34 E27.9052
G1 X138.36 Y122.36 E27.9087
G1 X138.47 Y122.42 E27.914
G1 X138.9 Y122.42 E27.9317
G1 X138.98 Y122.44 E27.9352
G1 X139.1 Y122.5 E27.9406
G1 X139.52 Y122.5 E27.9582
G1 X139.6 Y122.51 E27.9618
G1 X139.72 Y122.58 E27.9672
G1 X140.14 Y122.57 E27.9848
G1 X140.22 Y122.59 E27.9884
G1 X140.41 Y122.66 E27.9967
G1 X140.76 Y122.65 E28.0111
G1 X140.85 Y122.67 E28.0148
G1 X141.03 Y122.74 E28.0231
G1 X141.5 Y122.72 E28.0425
G1 X141.91 Y122.73 E28.0599
G1 X142.08 Y122.72 E28.0668
G1 X142.28 Y122.62 E28.0761
G1 X142.71 Y122.63 E28.0938
G1 X142.88 Y122.62 E28.1007
G1 X143.08 Y122.53 E28.1099
G1 X143.5 Y122.53 E28.1277
G1 X143.67 Y122.52 E28.1347
G1 X143.87 Y122.43 E28.1437
G1 X144.3 Y122.43 E28.1616
G1 X144.47 Y122.42 E28.1686
G1 X144.66 Y122.33 E28.1774
G1 X145.18 Y122.33 E28.1991
G1 X145.26 Y122.32 E28.2025
G1 X145.45 Y122.23 E28.2112
G1 X145.87 Y122.22 E28.2288
G1 X146.08 Y122.13 E28.238
G1 X146.5 Y122.13 E28.2557
G1 X146.67 Y122.12 E28.2627
G1 X146.78 Y122.05 E28.2681
G1 X146.93 Y122.02 E28.2744
G1 X147.04 Y121.96 E28.2798
G1 X147.2 Y121.93 E28.2863
G1 X147.31 Y121.87 E28.2917
G1 X147.38 Y121.77 E28.2969
G1 X147.54 Y121.74 E28.3034
G1 X147.65 Y121.68 E28.3089
G1 X147.81 Y121.66 E28.3154
G1 X147.92 Y121.59 E28.3208
G1 X148.07 Y121.57 E28.3273
G1 X148.19 Y121.5 E28.3327
G1 X148.34 Y121.48 E28.3392
G1 X148.45 Y121.41 E28.3446
G1 X148.53 Y121.31 E28.3498
G1 X148.68 Y121.29 E28.3563
G1 X148.8 Y121.22 E28.3617
G1 X148.95 Y121.2 E28.3682
G1 X149.07 Y121.14 E28.3736
G1 X149.22 Y121.11 E28.3801
G1 X149.33 Y121.04 E28.3855
G1 X149.41 Y120.94 E28.3907
G1 X149.56 Y120.92 E28.3972
G1 X149.68 Y120.86 E28.4027
G1 X149.83 Y120.83 E28.4092
G1 X149.94 Y120.77 E28.4146
G1 X150.1 Y120.74 E28.4211
G1 X150.21 Y120.68 E28.4265
G1 X150.28 Y120.58 E28.4317
G1 X150.44 Y120.55 E28.4382
G1 X150.55 Y120.49 E28.4436
G1 X150.71 Y120.46 E28.4501
G1 X150.82 Y120.4 E28.4555
G1 X150.98 Y120.38 E28.462
G1 X151.09 Y120.31 E28.4674
G1 X151.16 Y120.21 E28.4726
G1 X151.32 Y120.18 E28.4792
G1 X151.43 Y120.12 E28.4846
G1 X151.59 Y120.1 E28.4911
G1 X151.7 Y120.03 E28.4964
G1 X151.77 Y119.93 E28.5017
G1 X151.89 Y119.87 E28.5072
G1 X152.04 Y119.75 E28.5151
G1 X152.12 Y119.74 E28.5184
G1 X152.23 Y119.67 E28.5237
G1 X152.47 Y119.39 E28.5393
G1 X152.59 Y119.33 E28.5449
G1 X152.74 Y119.21 E28.5529
G1 X152.81 Y119.2 E28.556
G1 X152.92 Y119.13 E28.5614
G1 X153.17 Y118.84 E28.577
G1 X153.29 Y118.79 E28.5826
G1 X153.44 Y118.67 E28.5906
G1 X153.51 Y118.66 E28.5937
G1 X153.62 Y118.59 E28.599
G1 X153.86 Y118.3 E28.6147
G1 X153.96 Y118.22 E28.6199
G1 X154.13 Y118.21 E28.6269
G1 X154.24 Y118.14 E28.6322
G1 X154.48 Y117.86 E28.6479
G1 X154.6 Y117.8 E28.6534
G1 X154.75 Y117.68 E28.6612
G1 X154.83 Y117.67 E28.6645
G1 X154.94 Y117.6 E28.6699
G1 X155.18 Y117.32 E28.6855
G1 X155.3 Y117.26 E28.6911
G1 X155.45 Y117.14 E28.6989
G1 X155.52 Y117.13 E28.7022
G1 X155.63 Y117.06 E28.7076
G1 X155.88 Y116.78 E28.7232
G1 X156.16 Y116.52 E28.7388
G1 X156.22 Y116.41 E28.7442
G1 X156.23 Y116.24 E28.7511
G1 X156.29 Y116.13 E28.7565
G1 X156.85 Y115.63 E28.7877
G1 X156.91 Y115.51 E28.7931
G1 X156.92 Y115.44 E28.7964
G1 X157.04 Y115.28 E28.8043
G1 X157.09 Y115.16 E28.8099
G1 X157.55 Y114.73 E28.8359
G1 X157.61 Y114.62 E28.8413
G1 X157.62 Y114.54 E28.8447
G1 X157.73 Y114.39 E28.8525
G1 X157.78 Y114.27 E28.8581
G1 X158.15 Y113.93 E28.8789
G1 X158.21 Y113.82 E28.8843
G1 X158.22 Y113.74 E28.8875
G1 X158.34 Y113.58 E28.8954
G1 X158.38 Y113.46 E28.9011
G1 X158.85 Y113.03 E28.9271
G1 X158.91 Y112.92 E28.9324
G1 X158.92 Y112.84 E28.9358
G1 X159.09 Y112.58 E28.949
G1 X159.19 Y112.5 E28.9543
G1 X159.26 Y112.39 E28.9596
G1 X159.27 Y112.23 E28.9662
G1 X159.33 Y112.11 E28.9716
G1 X159.35 Y111.96 E28.9782
G1 X159.45 Y111.88 E28.9834
G1 X159.51 Y111.76 E28.9887
G1 X159.53 Y111.61 E28.9953
G1 X159.59 Y111.49 E29.0007
G1 X159.61 Y111.33 E29.0073
G1 X159.7 Y111.25 E29.0125
G1 X159.77 Y111.14 E29.0179
G1 X159.78 Y110.98 E29.0244
G1 X159.84 Y110.87 E29.0298
G1 X159.86 Y110.71 E29.0364
G1 X159.96 Y110.63 E29.0416
G1 X160.02 Y110.52 E29.047
G1 X160.04 Y110.36 E29.0535
G1 X160.1 Y110.24 E29.059
G1 X160.12 Y110.09 E29.0655
G1 X160.21 Y110.01 E29.0707
G1 X160.28 Y109.89 E29.0761
G1 X160.3 Y109.74 E29.0827
G1 X160.35 Y109.62 E29.0881
G1 X160.37 Y109.46 E29.0947
G1 X160.47 Y109.38 E29.0999
G1 X160.53 Y109.27 E29.1052
G1 X160.55 Y109.12 E29.1118
G1 X160.61 Y109 E29.1172
G1 X160.63 Y108.84 E29.1238
G1 X160.72 Y108.76 E29.129
G1 X160.79 Y108.65 E29.1344
G1 X160.81 Y108.49 E29.1409
G1 X160.87 Y108.38 E29.1464
G1 X160.88 Y108.22 E29.1529
G1 X160.98 Y108.14 E29.1582
G1 X161.04 Y108.03 E29.1635
G1 X161.06 Y107.87 E29.1701
G1 X161.15 Y107.61 E29.1816
G1 X161.22 Y107.5 E29.1869
G1 X161.21 Y107.07 E29.2047
G1 X161.23 Y106.99 E29.2082
G1 X161.29 Y106.87 E29.2135
G1 X161.29 Y106.45 E29.2312
G1 X161.31 Y106.37 E29.2347
G1 X161.37 Y106.25 E29.2401
G1 X161.37 Y105.83 E29.2577
G1 X161.39 Y105.75 E29.2613
G1 X161.45 Y105.63 E29.2667
G1 X161.45 Y105.21 E29.2842
G1 X161.47 Y105.12 E29.2879
G1 X161.54 Y104.94 E29.2962
G1 X161.53 Y104.59 E29.3106
G1 X161.54 Y104.5 E29.3143
G1 X161.62 Y104.32 E29.3226
G1 X161.6 Y103.97 E29.337
G1 X161.62 Y103.88 E29.3408
G1 X161.69 Y103.7 E29.349
G1 X161.68 Y103.35 E29.3634
G1 X161.7 Y103.26 E29.3673
G1 X161.77 Y103.08 E29.3754
G1 X161.76 Y102.74 E29.3898
G1 X161.78 Y102.64 E29.3937
G1 X161.84 Y102.53 E29.3991
G1 X161.85 Y102.28 E29.4095
G1 X161.84 Y102.11 E29.4165
G1 X161.75 Y101.92 E29.4254
G1 X161.75 Y101.4 E29.447
G1 X161.74 Y101.32 E29.4504
G1 X161.65 Y101.13 E29.4592
G1 X161.64 Y100.71 E29.4767
G1 X161.55 Y100.5 E29.486
G1 X161.55 Y100.08 E29.5037
G1 X161.54 Y99.91 E29.5106
G1 X161.45 Y99.71 E29.5198
G1 X161.45 Y99.28 E29.5376
G1 X161.44 Y99.11 E29.5445
G1 X161.35 Y98.92 E29.5536
G1 X161.35 Y98.49 E29.5715
G1 X161.34 Y98.32 E29.5784
G1 X161.25 Y98.13 E29.5873
G1 X161.25 Y97.6 E29.609
G1 X161.24 Y97.52 E29.6123
G1 X161.15 Y97.33 E29.6211
G1 X161.14 Y97.09 E29.6311
G1 X161.08 Y96.98 E29.6365
G1 X161.05 Y96.83 E29.643
G1 X160.99 Y96.71 E29.6484
G1 X160.96 Y96.56 E29.6549
G1 X160.89 Y96.45 E29.6603
G1 X160.79 Y96.37 E29.6655
G1 X160.77 Y96.22 E29.672
G1 X160.71 Y96.1 E29.6775
G1 X160.68 Y95.95 E29.684
G1 X160.62 Y95.83 E29.6894
G1 X160.59 Y95.68 E29.6959
G1 X160.53 Y95.57 E29.7012
G1 X160.43 Y95.49 E29.7065
G1 X160.4 Y95.34 E29.713
G1 X160.34 Y95.22 E29.7184
G1 X160.32 Y95.07 E29.7249
G1 X160.25 Y94.96 E29.7303
G1 X160.23 Y94.8 E29.7368
G1 X160.16 Y94.69 E29.7422
G1 X160.06 Y94.62 E29.7474
G1 X160.04 Y94.46 E29.7539
G1 X159.97 Y94.35 E29.7594
G1 X159.95 Y94.19 E29.7659
G1 X159.88 Y94.08 E29.7713
G1 X159.86 Y93.92 E29.7778
G1 X159.79 Y93.81 E29.7832
G1 X159.69 Y93.74 E29.7884
G1 X159.67 Y93.58 E29.7949
G1 X159.6 Y93.47 E29.8004
G1 X159.58 Y93.31 E29.8069
G1 X159.52 Y93.2 E29.8123
G1 X159.49 Y93.05 E29.8188
G1 X159.43 Y92.93 E29.8242
G1 X159.4 Y92.78 E29.8307
G1 X159.34 Y92.67 E29.8361
G1 X159.24 Y92.59 E29.8413
G1 X159.21 Y92.44 E29.8478
G1 X159.15 Y92.32 E29.8533
G1 X159.13 Y92.16 E29.8599
G1 X159.06 Y92.05 E29.8652
G1 X158.78 Y91.81 E29.8809
G1 X158.72 Y91.69 E29.8864
G1 X158.6 Y91.54 E29.8942
G1 X158.59 Y91.47 E29.8975
G1 X158.52 Y91.35 E29.9029
G1 X158.23 Y91.11 E29.9185
G1 X158.18 Y90.99 E29.9241
G1 X158.06 Y90.84 E29.932
G1 X158.05 Y90.77 E29.9352
G1 X157.98 Y90.66 E29.9406
G1 X157.69 Y90.41 E29.9562
G1 X157.64 Y90.29 E29.9617
G1 X157.52 Y90.14 E29.9697
G1 X157.5 Y90.07 E29.9729
G1 X157.44 Y89.96 E29.9782
G1 X157.15 Y89.72 E29.9939
G1 X157.09 Y89.6 E29.9994
G1 X156.97 Y89.44 E30.0074
G1 X156.96 Y89.37 E30.0105
G1 X156.9 Y89.26 E30.0159
G1 X156.61 Y89.02 E30.0315
G1 X156.55 Y88.9 E30.0371
G1 X156.43 Y88.74 E30.0452
G1 X156.42 Y88.67 E30.0482
G1 X156.35 Y88.56 E30.0536
G1 X156.06 Y88.32 E30.0692
G1 X155.99 Y88.22 E30.0744
G1 X155.97 Y88.06 E30.0814
G1 X155.91 Y87.95 E30.0868
G1 X155.8 Y87.88 E30.0921
G1 X155.63 Y87.87 E30.0991
G1 X155.52 Y87.8 E30.1044
G1 X155.1 Y87.34 E30.1304
G1 X154.99 Y87.28 E30.1358
G1 X154.91 Y87.27 E30.139
G1 X154.76 Y87.16 E30.1469
G1 X154.63 Y87.11 E30.1526
G1 X154.21 Y86.65 E30.1786
G1 X154.1 Y86.58 E30.184
G1 X154.02 Y86.57 E30.1873
G1 X153.86 Y86.46 E30.1951
G1 X153.74 Y86.41 E30.2008
G1 X153.4 Y86.04 E30.2216
G1 X153.29 Y85.98 E30.2269
G1 X153.21 Y85.97 E30.2301
G1 X153.06 Y85.86 E30.2381
G1 X152.93 Y85.81 E30.2438
G1 X152.51 Y85.35 E30.2698
G1 X152.4 Y85.28 E30.2752
G1 X152.32 Y85.27 E30.2784
G1 X152.16 Y85.16 E30.2863
G1 X152.04 Y85.11 E30.2919
G1 X151.7 Y84.74 E30.3128
G1 X151.59 Y84.67 E30.3181
G1 X151.44 Y84.66 E30.3247
G1 X151.32 Y84.6 E30.3301
G1 X151.16 Y84.58 E30.3367
G1 X151.08 Y84.48 E30.3419
G1 X150.97 Y84.42 E30.3472
G1 X150.81 Y84.4 E30.3538
G1 X150.7 Y84.34 E30.3592
G1 X150.54 Y84.32 E30.3658
G1 X150.46 Y84.23 E30.371
G1 X150.35 Y84.16 E30.3764
G1 X150.19 Y84.14 E30.3829
G1 X150.07 Y84.09 E30.3883
G1 X149.92 Y84.07 E30.3949
G1 X149.84 Y83.97 E30.4001
G1 X149.72 Y83.91 E30.4055
G1 X149.57 Y83.89 E30.412
G1 X149.45 Y83.83 E30.4174
G1 X149.29 Y83.81 E30.424
G1 X149.21 Y83.72 E30.4292
G1 X149.1 Y83.65 E30.4346
G1 X148.94 Y83.63 E30.4411
G1 X148.83 Y83.57 E30.4466
G1 X148.67 Y83.56 E30.4531
G1 X148.59 Y83.46 E30.4583
G1 X148.48 Y83.4 E30.4637
G1 X148.32 Y83.38 E30.4703
G1 X148.2 Y83.32 E30.4757
G1 X148.05 Y83.3 E30.4823
G1 X147.97 Y83.21 E30.4875
G1 X147.85 Y83.14 E30.4928
G1 X147.7 Y83.12 E30.4994
G1 X147.58 Y83.06 E30.5048
G1 X147.42 Y83.05 E30.5114
G1 X147.34 Y82.95 E30.5166
G1 X147.23 Y82.89 E30.522
G1 X147.07 Y82.87 E30.5285
G1 X146.96 Y82.81 E30.534
G1 X146.81 Y82.79 E30.5404
G1 X146.69 Y82.73 E30.5458
G1 X146.45 Y82.72 E30.5556
G1 X146.25 Y82.64 E30.5646
G1 X145.84 Y82.64 E30.582
G1 X145.75 Y82.62 E30.5858
G1 X145.56 Y82.55 E30.594
G1 X145.22 Y82.56 E30.6084
G1 X145.12 Y82.54 E30.6123
G1 X144.94 Y82.47 E30.6204
G1 X144.6 Y82.48 E30.6348
G1 X144.5 Y82.47 E30.6388
G1 X144.39 Y82.4 E30.6441
G1 X144.14 Y82.39 E30.6544
G1 X143.95 Y82.31 E30.663
G1 X143.53 Y82.31 E30.6808
G1 X143.45 Y82.3 E30.6842
G1 X143.33 Y82.23 E30.6896
G1 X142.91 Y82.24 E30.7074
G1 X142.83 Y82.22 E30.7108
G1 X142.71 Y82.16 E30.7161
G1 X142.29 Y82.16 E30.7339
G1 X142.21 Y82.14 E30.7373
G1 X142.02 Y82.07 E30.7458
G1 X141.51 Y82.1 E30.7669
G1 X140.96 Y82.09 E30.7898
G1 X140.79 Y82.1 E30.7968
G1 X140.59 Y82.19 E30.806
G1 X140.16 Y82.19 E30.8237
G1 X140 Y82.2 E30.8307
G1 X139.8 Y82.29 E30.8398
G1 X139.37 Y82.29 E30.8576
G1 X139.2 Y82.3 E30.8646
G1 X139 Y82.39 E30.8736
G1 X138.48 Y82.39 E30.8952
G1 X138.41 Y82.4 E30.8985
G1 X138.21 Y82.49 E30.9073
G1 X137.69 Y82.49 E30.929
G1 X137.61 Y82.5 E30.9324
G1 X137.42 Y82.59 E30.9411
G1 X137 Y82.6 E30.9587
G1 X136.8 Y82.69 E30.968
G1 X136.37 Y82.69 E30.9857
G1 X136.2 Y82.7 E30.9926
G1 X136.09 Y82.76 E30.998
G1 X135.94 Y82.79 E31.0045
G1 X135.83 Y82.86 E31.0098
G1 X135.75 Y82.96 E31.0151
G1 X135.6 Y82.98 E31.0216
G1 X135.48 Y83.04 E31.027
G1 X135.33 Y83.07 E31.0335
G1 X135.21 Y83.13 E31.0389
G1 X135.06 Y83.16 E31.0454
G1 X134.95 Y83.22 E31.0508
G1 X134.87 Y83.33 E31.056
G1 X134.72 Y83.35 E31.0626
G1 X134.6 Y83.41 E31.068
G1 X134.45 Y83.44 E31.0745
G1 X134.34 Y83.5 E31.0799
G1 X134.18 Y83.52 E31.0864
G1 X134.07 Y83.59 E31.0918
G1 X133.91 Y83.61 E31.0983
G1 X133.8 Y83.68 E31.1037
G1 X133.73 Y83.78 E31.1089
G1 X133.57 Y83.8 E31.1154
G1 X133.46 Y83.87 E31.1209
G1 X133.3 Y83.89 E31.1274
G1 X133.19 Y83.96 E31.1328
G1 X133.04 Y83.98 E31.1393
G1 X132.93 Y84.05 E31.1446
G1 X132.85 Y84.15 E31.1499
G1 X132.69 Y84.17 E31.1564
G1 X132.58 Y84.23 E31.1618
G1 X132.43 Y84.26 E31.1683
G1 X132.31 Y84.32 E31.1737
G1 X132.16 Y84.35 E31.1802
G1 X132.05 Y84.41 E31.1856
G1 X131.97 Y84.51 E31.1908
G1 X131.82 Y84.54 E31.1973
G1 X131.7 Y84.6 E31.2027
G1 X131.55 Y84.63 E31.2092
G1 X131.43 Y84.69 E31.2147
G1 X131.28 Y84.71 E31.2212
G1 X131.17 Y84.78 E31.2266
G1 X130.93 Y85.07 E31.2422
G1 X130.81 Y85.12 E31.2477
G1 X130.66 Y85.24 E31.2556
G1 X130.58 Y85.26 E31.2589
G1 X130.47 Y85.32 E31.2642
G1 X130.23 Y85.61 E31.2799
G1 X130.11 Y85.67 E31.2854
G1 X129.96 Y85.79 E31.2933
G1 X129.88 Y85.8 E31.2965
G1 X129.77 Y85.86 E31.3019
G1 X129.53 Y86.15 E31.3175
G1 X129.41 Y86.21 E31.3231
G1 X129.26 Y86.33 E31.3311
G1 X129.18 Y86.34 E31.3342
G1 X129.07 Y86.41 E31.3395
G1 X128.83 Y86.69 E31.3552
G1 X128.71 Y86.75 E31.3608
G1 X128.56 Y86.87 E31.3688
G1 X128.49 Y86.88 E31.3719
G1 X128.38 Y86.95 E31.3772
G1 X128.21 Y87.14 E31.3876
G1 X128.09 Y87.2 E31.3932
G1 X127.95 Y87.32 E31.401
G1 X127.87 Y87.33 E31.4043
G1 X127.76 Y87.4 E31.4097
G1 X127.44 Y87.78 E31.4305
G1 X127.34 Y87.86 E31.4358
G1 X127.17 Y87.87 E31.4427
G1 X126.97 Y88.03 E31.4532
G1 X126.91 Y88.14 E31.4586
G1 X126.9 Y88.31 E31.4655
G1 X126.84 Y88.41 E31.4708
G1 X126.37 Y88.83 E31.4969
G1 X126.31 Y88.95 E31.5023
G1 X126.3 Y89.11 E31.5092
G1 X126.24 Y89.22 E31.5146
G1 X125.68 Y89.73 E31.5458
G1 X125.61 Y89.84 E31.5512
G1 X125.6 Y89.92 E31.5545
G1 X125.49 Y90.07 E31.5624
G1 X125.44 Y90.2 E31.568
G1 X124.98 Y90.62 E31.594
G1 X124.92 Y90.73 E31.5994
G1 X124.91 Y90.81 E31.6028
G1 X124.79 Y90.96 E31.6106
G1 X124.74 Y91.09 E31.6162
G1 X124.38 Y91.43 E31.637
G1 X124.31 Y91.54 E31.6424
G1 X124.3 Y91.61 E31.6456
G1 X124.19 Y91.77 E31.6535
G1 X124.14 Y91.9 E31.6592
G1 X123.86 Y92.15 E31.6748
G1 X123.37 Y92.72 E31.706
G1 X123.26 Y92.78 E31.7115
G1 X123.09 Y92.79 E31.7184
G1 X122.98 Y92.86 E31.7238
G1 X122.82 Y93.05 E31.7342
G1 X122.7 Y93.11 E31.7396
G1 X122.55 Y93.24 E31.7478
G1 X122.48 Y93.25 E31.7507
G1 X122.37 Y93.32 E31.756
G1 X122.21 Y93.5 E31.7664
G1 X122.04 Y93.52 E31.7734
G1 X121.93 Y93.58 E31.7787
G1 X121.77 Y93.78 E31.7892
G1 X121.61 Y93.8 E31.7958
G1 X121.5 Y93.86 E31.8012
G1 X121.42 Y93.96 E31.8064
G1 X121.26 Y93.98 E31.8132
G1 X121.15 Y94.04 E31.8186
G1 X120.99 Y94.06 E31.8252
G1 X120.88 Y94.13 E31.8306
G1 X120.8 Y94.23 E31.8358
G1 X120.65 Y94.25 E31.8423
G1 X120.53 Y94.32 E31.8477
G1 X120.38 Y94.34 E31.8541
G1 X120.27 Y94.41 E31.8595
G1 X120.12 Y94.44 E31.8659
G1 X120.01 Y94.5 E31.8713
G1 X119.85 Y94.53 E31.8777
G1 X119.74 Y94.59 E31.8831
G1 X119.41 Y94.61 E31.8971
G1 X119.29 Y94.68 E31.9025
G1 X118.96 Y94.71 E31.9163
G1 X118.85 Y94.78 E31.9217
G1 X118.52 Y94.8 E31.9354
G1 X118.33 Y94.89 E31.9441
G1 X117.81 Y94.9 E31.966
G1 X117.53 Y95.01 E31.9786
G1 X116.81 Y95.03 E32.0083
G1 X116.67 Y94.99 E32.0142
G1 X116.48 Y94.92 E32.0227
G1 X116.04 Y94.93 E32.0413
G1 X115.88 Y94.91 E32.0479
G1 X115.77 Y94.85 E32.0533
G1 X115.34 Y94.85 E32.0709
G1 X115.25 Y94.84 E32.0747
G1 X115.14 Y94.77 E32.0801
G1 X114.81 Y94.76 E32.0939
G1 X114.7 Y94.69 E32.0993
G1 X114.54 Y94.67 E32.1057
G1 X114.43 Y94.61 E32.1111
G1 X114.28 Y94.58 E32.1175
G1 X114.17 Y94.52 E32.1228
G1 X114.01 Y94.5 E32.1293
G1 X113.9 Y94.44 E32.1346
G1 X113.75 Y94.41 E32.141
G1 X113.63 Y94.35 E32.1464
G1 X113.48 Y94.33 E32.153
G1 X113.36 Y94.27 E32.1584
G1 X113.2 Y94.26 E32.1651
G1 X113.12 Y94.16 E32.1703
G1 X113.01 Y94.1 E32.1756
G1 X112.85 Y94.08 E32.1822
G1 X112.77 Y93.99 E32.1875
G1 X112.66 Y93.92 E32.1928
G1 X112.5 Y93.91 E32.1994
G1 X112.41 Y93.82 E32.2046
G1 X112.3 Y93.75 E32.21
G1 X112.13 Y93.75 E32.217
G1 X111.96 Y93.56 E32.2274
G1 X111.85 Y93.5 E32.2327
G1 X111.78 Y93.49 E32.2355
G1 X111.51 Y93.31 E32.2491
G1 X111.45 Y93.19 E32.2546
G1 X111.07 Y92.87 E32.2754
G1 X110.95 Y92.85 E32.2805
G1 X110.87 Y92.89 E32.2839
G1 X110.45 Y92.43 E32.31
G1 X110.33 Y92.37 E32.3153
G1 X110.26 Y92.36 E32.3185
G1 X110.11 Y92.24 E32.3264
G1 X109.99 Y92.18 E32.3319
G1 X109.82 Y92 E32.3424
G1 X109.71 Y91.93 E32.3477
G1 X109.63 Y91.92 E32.351
G1 X109.48 Y91.81 E32.3588
G1 X109.36 Y91.75 E32.3643
G1 X109.2 Y91.56 E32.3747
G1 X109.09 Y91.5 E32.3801
G1 X108.92 Y91.49 E32.3871
G1 X108.82 Y91.41 E32.3923
G1 X108.57 Y91.13 E32.4079
G1 X108.46 Y91.07 E32.4133
G1 X108.29 Y91.06 E32.4202
G1 X108.03 Y90.79 E32.4358
G1 X107.92 Y90.73 E32.4412
G1 X107.85 Y90.72 E32.4442
G1 X107.69 Y90.6 E32.4523
G1 X107.47 Y90.48 E32.4631
G1 X107.31 Y90.46 E32.4695
G1 X107.23 Y90.36 E32.4748
G1 X107.12 Y90.29 E32.4801
G1 X106.97 Y90.27 E32.4866
G1 X106.85 Y90.21 E32.492
G1 X106.7 Y90.19 E32.4985
G1 X106.58 Y90.13 E32.5039
G1 X106.43 Y90.11 E32.5104
G1 X106.32 Y90.05 E32.5158
G1 X106.16 Y90.03 E32.5222
G1 X106.05 Y89.97 E32.5277
G1 X105.89 Y89.94 E32.5341
G1 X105.81 Y89.85 E32.5394
G1 X105.7 Y89.78 E32.5447
G1 X105.55 Y89.76 E32.5512
G1 X105.43 Y89.7 E32.5566
G1 X105.28 Y89.68 E32.5631
G1 X105.16 Y89.62 E32.5685
G1 X105.01 Y89.6 E32.575
G1 X104.89 Y89.54 E32.5804
G1 X104.74 Y89.52 E32.5868
G1 X104.63 Y89.45 E32.5922
G1 X104.47 Y89.43 E32.5987
G1 X104.21 Y89.34 E32.6101
G1 X104.02 Y89.27 E32.6186
G1 X103.39 Y89.29 E32.645
G1 X103.24 Y89.27 E32.6513
G1 X103.05 Y89.19 E32.6597
G1 X102.41 Y89.22 E32.6862
G1 X102.27 Y89.19 E32.6924
G1 X102.08 Y89.12 E32.7008
G1 X101.44 Y89.15 E32.7274
G1 X101.29 Y89.12 E32.7336
G1 X101.1 Y89.05 E32.742
G1 X100.66 Y89.06 E32.7607
G1 X100.59 Y89.07 E32.7635
G1 X100.48 Y89.14 E32.7689
G1 X100.39 Y89.16 E32.7728
G1 X100.04 Y89.15 E32.7871
G1 X99.78 Y89.25 E32.7988
G1 X99.53 Y89.26 E32.8091
G1 X99.42 Y89.33 E32.8145
G1 X99.33 Y89.35 E32.8182
G1 X98.91 Y89.35 E32.8358
G1 X98.8 Y89.42 E32.8412
G1 X98.47 Y89.45 E32.8549
G1 X98.36 Y89.52 E32.8602
G1 X98.27 Y89.54 E32.8639
G1 X97.93 Y89.53 E32.8782
G1 X97.87 Y89.41 E32.8839
G1 X98.04 Y88.68 E32.9148
G1 X98.18 Y87.43 E32.9675
G1 X98.17 Y85.88 E33.0317
G1 X97.98 Y84.46 E33.0914
G1 X97.61 Y83.05 E33.152
G1 X97.09 Y81.78 E33.2089
G1 X96.4 Y80.52 E33.2686
G1 X95.58 Y79.39 E33.3267
G1 X94.56 Y78.29 E33.3891
G1 X93.6 Y77.48 E33.4412
G1 X93.5 Y77.4 E33.4465
G1 X92.33 Y76.64 E33.5047
G1 X92.31 Y76.51 E33.5102
G1 X105.86 Y76.51 E34.0737
G1 X108.66 Y76.5 E34.1899
G1 X111.61 Y76.51 E34.3127
G1 X114.58 Y76.5 E34.4361
G1 X117.54 Y76.51 E34.5589
G1 X120.5 Y76.5 E34.6823
G1 X153.07 Y76.51 E36.0362
G1 X155.86 Y76.5 E36.1524
G1 X155.99 Y76.55 E36.158
G1 X157.4 Y78.87 E36.2708
G1 X157.53 Y79.09 E36.2815
G1 X159.41 Y82.18 E36.4319
G1 X159.77 Y82.89 E36.4648
G1 X159.82 Y83.01 E36.4704
G1 X159.95 Y83.24 E36.4813
G1 X160.01 Y83.36 E36.4869
G1 X160.67 Y84.66 E36.5473
G1 X160.91 Y85.13 E36.5692
G1 X160.98 Y85.24 E36.5746
G1 X161.21 Y85.71 E36.5967
G1 X161.45 Y86.18 E36.6186
G1 X161.52 Y86.29 E36.624
G1 X161.57 Y86.42 E36.6296
G1 X161.7 Y86.64 E36.6405
G1 X161.75 Y86.77 E36.6461
G1 X161.88 Y87 E36.657
G1 X162.42 Y88.05 E36.7063
G1 X162.57 Y88.43 E36.7234
G1 X162.79 Y88.93 E36.7459
G1 X165.07 Y94.3 E36.9884
G1 X166.84 Y99.47 E37.2158
G1 X167.2 Y100.54 E37.2624
G1 X167.29 Y100.81 E37.2744
G1 X168.78 Y106.47 E37.5178
G1 X168.96 Y107.16 E37.5475
G1 X168.99 Y107.31 E37.5538
G1 X170.06 Y113.03 E37.7955
G1 X170.2 Y113.78 E37.8273
G1 X170.33 Y114.9 E37.8742
G1 X170.37 Y115.22 E37.8878
G1 X170.54 Y116.67 E37.9482
G1 X170.96 Y120.44 E38.1061
G1 X171.19 Y125.68 E38.3243
G1 X171.24 Y127.25 E38.3893
G1 X171.07 Y132.91 E38.6248
G1 X171.05 Y133.76 E38.6602
G1 X170.99 Y134.4 E38.6868
G1 X170.93 Y134.87 E38.7066
G1 X170.37 Y140.42 E38.9384
G1 X170.3 Y140.87 E38.9574
G1 X169.22 Y146.97 E39.2149
G1 X169.16 Y147.26 E39.2272
G1 X168.95 Y148.1 E39.2632
G1 X167.72 Y153 E39.4733
G1 X167.43 Y152.81 E39.4875
;
; 'Loop', 49.9 [RPM], 25.0 [mm/s]
G1 F15000
G1 X167.5 Y151.74 E39.4875
G1 F1500
G1 X167.44 Y151.63 E39.493
G1 X166.69 Y150.42 E39.552
G1 X166.53 Y150.23 E39.5624
G1 X164.53 Y147.98 E39.6875
G1 X164.35 Y147.81 E39.6979
G1 X161.86 Y145.89 E39.8286
G1 X161.64 Y145.75 E39.8392
G1 X158.72 Y144.27 E39.9753
G1 X158.46 Y144.19 E39.9869
G1 X155.4 Y143.31 E40.1191
G1 X152.13 Y143 E40.2559
G1 X151.85 Y143 E40.2675
G1 X148.74 Y143.29 E40.3973
G1 X148.44 Y143.34 E40.41
G1 X145.4 Y144.23 E40.5417
G1 X145.14 Y144.33 E40.553
G1 X142.32 Y145.76 E40.6849
G1 X142.1 Y145.91 E40.6955
G1 X139.6 Y147.84 E40.8268
G1 X139.42 Y148.01 E40.8372
G1 X137.35 Y150.35 E40.9672
G1 X137.2 Y150.55 E40.9777
G1 X137 Y150.88 E40.9937
G1 X136.96 Y150.9 E40.9954
G1 X136.93 Y150.76 E41.0014
G1 X136.88 Y150.27 E41.0219
G1 X136.29 Y147.41 E41.1435
G1 X136.18 Y147.04 E41.1593
G1 X134.97 Y144.16 E41.2892
G1 X134.69 Y143.73 E41.3105
G1 X133.12 Y141.4 E41.4274
G1 X132.95 Y141.21 E41.4378
G1 X130.83 Y139.09 E41.5625
G1 X130.64 Y138.93 E41.5729
G1 X128 Y137.17 E41.7051
G1 X127.76 Y137.05 E41.716
G1 X125.03 Y135.92 E41.8389
G1 X124.77 Y135.82 E41.8504
G1 X121.56 Y135.18 E41.9864
G1 X118.29 Y135.16 E42.1224
G1 X117.98 Y135.21 E42.1356
G1 X114.98 Y135.79 E42.2624
G1 X114.72 Y135.88 E42.274
G1 X111.93 Y137.01 E42.3989
G1 X111.1 Y137.53 E42.4399
G1 X111.13 Y137.44 E42.4437
G1 X111.12 Y137.33 E42.4485
G1 X111.61 Y135.3 E42.5351
G1 X111.91 Y132.98 E42.6326
G1 X111.92 Y130.73 E42.7262
G1 X111.91 Y130.41 E42.7395
G1 X111.64 Y128.17 E42.8331
G1 X111.1 Y125.86 E42.9317
G1 X110.28 Y123.66 E43.0296
G1 X109.5 Y122.12 E43.101
G1 X109.13 Y121.43 E43.1338
G1 X107.84 Y119.52 E43.2294
G1 X106.28 Y117.72 E43.3285
G1 X104.62 Y116.21 E43.4221
G1 X104.42 Y116.05 E43.4325
G1 X104.36 Y115.94 E43.4379
G1 X104.37 Y115.9 E43.4394
G1 X104.5 Y115.85 E43.4451
G1 X104.93 Y115.76 E43.4637
G1 X105.07 Y115.74 E43.4694
G1 X105.28 Y115.74 E43.478
G1 X105.43 Y115.71 E43.4844
G1 X105.8 Y115.56 E43.5014
G1 X106.25 Y115.42 E43.5209
G1 X106.69 Y115.2 E43.5413
G1 X106.91 Y115.06 E43.552
G1 X107.31 Y114.93 E43.5695
G1 X107.66 Y114.74 E43.5859
G1 X107.88 Y114.61 E43.5966
G1 X108.22 Y114.42 E43.613
G1 X108.5 Y114.34 E43.6249
G1 X108.62 Y114.29 E43.6305
G1 X108.84 Y114.15 E43.6413
G1 X109.08 Y114.03 E43.6523
G1 X109.25 Y113.85 E43.6627
G1 X109.37 Y113.62 E43.6736
G1 X110.5 Y112.63 E43.7362
G1 X110.61 Y112.56 E43.7415
G1 X110.71 Y112.48 E43.7467
G1 X110.98 Y112.39 E43.7585
G1 X111.18 Y112.24 E43.769
G1 X111.51 Y111.86 E43.7898
G1 X111.77 Y111.77 E43.8013
G1 X111.97 Y111.62 E43.8118
G1 X112.22 Y111.33 E43.8274
G1 X112.47 Y111.22 E43.8387
G1 X112.78 Y111 E43.8546
G1 X113.02 Y110.88 E43.8656
G1 X113.21 Y110.73 E43.8761
G1 X113.56 Y110.55 E43.8925
G1 X113.96 Y110.41 E43.9099
G1 X114.17 Y110.26 E43.9205
G1 X114.83 Y110.03 E43.9496
G1 X115.15 Y109.99 E43.9628
G1 X115.28 Y109.94 E43.9686
G1 X115.44 Y109.93 E43.9754
G1 X115.72 Y109.85 E43.9875
G1 X116.06 Y109.83 E44.0015
G1 X116.33 Y109.75 E44.0135
G1 X116.48 Y109.73 E44.0197
G1 X117.55 Y109.7 E44.0642
G1 X117.83 Y109.77 E44.0761
G1 X118.14 Y109.81 E44.0892
G1 X118.27 Y109.86 E44.0949
G1 X118.58 Y109.89 E44.1079
G1 X118.71 Y109.94 E44.1137
G1 X119.03 Y109.97 E44.127
G1 X119.83 Y110.22 E44.162
G1 X119.96 Y110.26 E44.1677
G1 X120.19 Y110.39 E44.1784
G1 X120.32 Y110.44 E44.1841
G1 X120.54 Y110.57 E44.1949
G1 X121.14 Y110.85 E44.2223
G1 X121.32 Y111.02 E44.2327
G1 X121.68 Y111.19 E44.2492
G1 X122.03 Y111.55 E44.27
G1 X122.24 Y111.64 E44.2795
G1 X122.42 Y111.68 E44.2873
G1 X122.86 Y112.13 E44.3133
G1 X122.95 Y112.39 E44.325
G1 X123.1 Y112.6 E44.3355
G1 X123.57 Y113.01 E44.3615
G1 X123.74 Y113.37 E44.3781
G1 X123.82 Y113.47 E44.3834
G1 X124.11 Y113.71 E44.399
G1 X124.28 Y114.07 E44.4156
G1 X124.36 Y114.17 E44.4208
G1 X124.65 Y114.41 E44.4365
G1 X124.82 Y114.77 E44.4531
G1 X125.1 Y115.03 E44.4687
G1 X125.27 Y115.39 E44.4853
G1 X125.35 Y115.48 E44.4905
G1 X125.64 Y115.72 E44.5061
G1 X125.81 Y116.08 E44.5227
G1 X125.89 Y116.18 E44.528
G1 X126.18 Y116.42 E44.5436
G1 X126.35 Y116.78 E44.5602
G1 X126.72 Y117.12 E44.581
G1 X127.15 Y117.58 E44.607
G1 X127.36 Y117.72 E44.6175
G1 X127.45 Y117.76 E44.6217
G1 X127.62 Y117.81 E44.629
G1 X127.96 Y118.18 E44.6498
G1 X128.17 Y118.32 E44.6603
G1 X128.43 Y118.41 E44.6718
G1 X128.85 Y118.88 E44.6979
G1 X129.06 Y119.02 E44.7084
G1 X129.32 Y119.11 E44.7199
G1 X129.66 Y119.48 E44.7407
G1 X129.87 Y119.62 E44.7512
G1 X130.13 Y119.71 E44.7628
G1 X130.55 Y120.18 E44.7888
G1 X130.76 Y120.32 E44.7993
G1 X131 Y120.43 E44.8104
G1 X131.1 Y120.51 E44.8156
G1 X131.56 Y120.75 E44.8373
G1 X131.69 Y120.8 E44.843
G1 X131.97 Y120.87 E44.8548
G1 X132.19 Y121 E44.8655
G1 X132.59 Y121.13 E44.883
G1 X132.81 Y121.26 E44.8937
G1 X133.21 Y121.38 E44.9112
G1 X133.43 Y121.51 E44.9219
G1 X133.84 Y121.64 E44.9394
G1 X134.06 Y121.77 E44.9501
G1 X134.46 Y121.89 E44.9676
G1 X134.68 Y122.02 E44.9783
G1 X135.03 Y122.2 E44.9946
G1 X135.43 Y122.33 E45.0121
G1 X135.65 Y122.46 E45.0228
G1 X136.05 Y122.58 E45.0402
G1 X136.54 Y122.62 E45.0607
G1 X136.67 Y122.66 E45.0664
G1 X136.98 Y122.7 E45.0793
G1 X137.26 Y122.77 E45.0913
G1 X137.6 Y122.78 E45.1055
G1 X137.88 Y122.85 E45.1175
G1 X138.22 Y122.86 E45.1316
G1 X138.5 Y122.93 E45.1436
G1 X138.84 Y122.94 E45.1578
G1 X139.12 Y123.01 E45.1698
G1 X139.46 Y123.02 E45.184
G1 X139.74 Y123.09 E45.196
G1 X140.08 Y123.1 E45.2101
G1 X140.36 Y123.17 E45.2221
G1 X140.7 Y123.17 E45.2363
G1 X140.98 Y123.25 E45.2483
G1 X141.52 Y123.22 E45.2708
G1 X142.07 Y123.23 E45.2934
G1 X142.35 Y123.15 E45.3054
G1 X142.86 Y123.13 E45.3269
G1 X143.01 Y123.1 E45.3333
G1 X143.28 Y123.03 E45.3449
G1 X143.66 Y123.03 E45.3605
G1 X143.94 Y122.95 E45.3725
G1 X144.08 Y122.93 E45.3783
G1 X144.45 Y122.93 E45.3941
G1 X144.87 Y122.83 E45.4118
G1 X145.25 Y122.83 E45.4276
G1 X145.53 Y122.75 E45.4396
G1 X145.86 Y122.73 E45.4536
G1 X146.01 Y122.7 E45.4599
G1 X146.14 Y122.65 E45.4656
G1 X146.66 Y122.63 E45.4872
G1 X146.81 Y122.6 E45.4935
G1 X147.46 Y122.37 E45.5224
G1 X147.67 Y122.22 E45.5331
G1 X148.48 Y121.96 E45.5683
G1 X148.61 Y121.91 E45.574
G1 X148.82 Y121.77 E45.5846
G1 X149.39 Y121.58 E45.6097
G1 X149.48 Y121.54 E45.6138
G1 X149.7 Y121.4 E45.6245
G1 X150.27 Y121.21 E45.6496
G1 X150.36 Y121.18 E45.6536
G1 X150.58 Y121.03 E45.6643
G1 X151.15 Y120.84 E45.6896
G1 X151.45 Y120.67 E45.704
G1 X151.72 Y120.58 E45.7158
G1 X151.85 Y120.53 E45.7215
G1 X151.96 Y120.46 E45.7269
G1 X152.13 Y120.28 E45.7373
G1 X152.49 Y120.1 E45.7538
G1 X152.58 Y120.02 E45.759
G1 X152.83 Y119.74 E45.7746
G1 X153.19 Y119.56 E45.7913
G1 X153.28 Y119.48 E45.7965
G1 X153.53 Y119.19 E45.8121
G1 X153.89 Y119.02 E45.8287
G1 X154.14 Y118.75 E45.8443
G1 X154.5 Y118.57 E45.8609
G1 X154.6 Y118.49 E45.8661
G1 X154.84 Y118.21 E45.8818
G1 X155.2 Y118.03 E45.8983
G1 X155.3 Y117.95 E45.9036
G1 X155.54 Y117.66 E45.9192
G1 X155.9 Y117.49 E45.9358
G1 X156.24 Y117.12 E45.9566
G1 X156.59 Y116.77 E45.9774
G1 X156.66 Y116.66 E45.9827
G1 X156.75 Y116.4 E45.9942
G1 X157.21 Y115.98 E46.0203
G1 X157.35 Y115.77 E46.0308
G1 X157.44 Y115.51 E46.0423
G1 X157.9 Y115.08 E46.0683
G1 X158.05 Y114.87 E46.0789
G1 X158.14 Y114.61 E46.0903
G1 X158.51 Y114.28 E46.1111
G1 X158.65 Y114.07 E46.1216
G1 X158.74 Y113.81 E46.1331
G1 X159.2 Y113.38 E46.1592
G1 X159.35 Y113.17 E46.1697
G1 X159.46 Y112.93 E46.1808
G1 X159.63 Y112.75 E46.1912
G1 X159.73 Y112.55 E46.2006
G1 X159.82 Y112.24 E46.214
G1 X159.95 Y112.02 E46.2247
G1 X160.07 Y111.61 E46.2422
G1 X160.21 Y111.39 E46.2529
G1 X160.33 Y110.99 E46.2703
G1 X160.46 Y110.77 E46.281
G1 X160.59 Y110.37 E46.2985
G1 X160.72 Y110.15 E46.3092
G1 X160.84 Y109.74 E46.3267
G1 X160.97 Y109.52 E46.3374
G1 X161.1 Y109.12 E46.3549
G1 X161.23 Y108.9 E46.3656
G1 X161.35 Y108.5 E46.3831
G1 X161.48 Y108.28 E46.3938
G1 X161.7 Y107.62 E46.4226
G1 X161.73 Y107.47 E46.429
G1 X161.73 Y107.13 E46.4431
G1 X161.8 Y106.85 E46.4551
G1 X161.81 Y106.51 E46.4693
G1 X161.88 Y106.23 E46.4813
G1 X161.89 Y105.89 E46.4954
G1 X161.96 Y105.61 E46.5075
G1 X161.97 Y105.27 E46.5216
G1 X162.04 Y104.99 E46.5336
G1 X162.05 Y104.64 E46.5478
G1 X162.12 Y104.36 E46.5598
G1 X162.13 Y104.02 E46.574
G1 X162.2 Y103.74 E46.586
G1 X162.2 Y103.4 E46.6001
G1 X162.27 Y103.12 E46.6121
G1 X162.28 Y102.78 E46.6263
G1 X162.35 Y102.5 E46.6383
G1 X162.35 Y102.13 E46.654
G1 X162.25 Y101.71 E46.6718
G1 X162.25 Y101.33 E46.6875
G1 X162.17 Y101.05 E46.6995
G1 X162.15 Y100.72 E46.7135
G1 X162.12 Y100.57 E46.7199
G1 X162.07 Y100.44 E46.7256
G1 X162.05 Y99.92 E46.7471
G1 X162.02 Y99.77 E46.7535
G1 X161.95 Y99.5 E46.7651
G1 X161.95 Y99.13 E46.7807
G1 X161.87 Y98.85 E46.7926
G1 X161.85 Y98.71 E46.7985
G1 X161.85 Y98.33 E46.8142
G1 X161.76 Y97.92 E46.832
G1 X161.75 Y97.54 E46.8478
G1 X161.67 Y97.26 E46.8597
G1 X161.62 Y96.96 E46.8725
G1 X161.44 Y96.42 E46.896
G1 X161.39 Y96.29 E46.9017
G1 X161.25 Y96.08 E46.9124
G1 X161.06 Y95.5 E46.9377
G1 X160.88 Y95.2 E46.9521
G1 X160.84 Y95.07 E46.9579
G1 X160.69 Y94.62 E46.9775
G1 X160.52 Y94.32 E46.9919
G1 X160.47 Y94.2 E46.9976
G1 X160.33 Y93.74 E47.0174
G1 X160.15 Y93.45 E47.0317
G1 X160.1 Y93.32 E47.0374
G1 X159.97 Y92.91 E47.0552
G1 X159.84 Y92.51 E47.0726
G1 X159.69 Y92.3 E47.0833
G1 X159.56 Y91.9 E47.1009
G1 X159.41 Y91.69 E47.1114
G1 X159.13 Y91.45 E47.127
G1 X158.95 Y91.09 E47.1436
G1 X158.87 Y91 E47.1488
G1 X158.58 Y90.75 E47.1645
G1 X158.41 Y90.39 E47.1811
G1 X158.33 Y90.3 E47.1863
G1 X158.04 Y90.05 E47.2019
G1 X157.87 Y89.69 E47.2185
G1 X157.79 Y89.6 E47.2237
G1 X157.5 Y89.36 E47.2394
G1 X157.33 Y89 E47.256
G1 X157.24 Y88.9 E47.2612
G1 X156.96 Y88.66 E47.2768
G1 X156.78 Y88.3 E47.2935
G1 X156.51 Y88.04 E47.3091
G1 X156.34 Y87.68 E47.3257
G1 X156.16 Y87.51 E47.3361
G1 X156.05 Y87.44 E47.3415
G1 X155.79 Y87.35 E47.3529
G1 X155.45 Y86.98 E47.3737
G1 X155.24 Y86.84 E47.3842
G1 X154.98 Y86.75 E47.3957
G1 X154.56 Y86.29 E47.4217
G1 X154.35 Y86.14 E47.4323
G1 X154.09 Y86.05 E47.4437
G1 X153.75 Y85.68 E47.4646
G1 X153.54 Y85.54 E47.4751
G1 X153.28 Y85.45 E47.4866
G1 X152.86 Y84.99 E47.5126
G1 X152.65 Y84.84 E47.5232
G1 X152.39 Y84.75 E47.5346
G1 X152.05 Y84.38 E47.5555
G1 X151.84 Y84.24 E47.566
G1 X151.44 Y84.11 E47.5835
G1 X151.22 Y83.98 E47.5942
G1 X150.82 Y83.85 E47.6116
G1 X150.6 Y83.72 E47.6223
G1 X150.2 Y83.6 E47.6398
G1 X149.98 Y83.47 E47.6505
G1 X149.57 Y83.34 E47.668
G1 X149.35 Y83.21 E47.6787
G1 X148.95 Y83.09 E47.6962
G1 X148.73 Y82.96 E47.7069
G1 X148.33 Y82.83 E47.7243
G1 X148.11 Y82.7 E47.735
G1 X147.7 Y82.58 E47.7525
G1 X147.48 Y82.45 E47.7632
G1 X146.81 Y82.24 E47.7924
G1 X146.51 Y82.2 E47.8052
G1 X146.23 Y82.13 E47.8172
G1 X145.89 Y82.12 E47.8314
G1 X145.61 Y82.05 E47.8434
G1 X145.27 Y82.04 E47.8576
G1 X144.99 Y81.97 E47.8696
G1 X144.64 Y81.96 E47.8837
G1 X144.21 Y81.87 E47.9023
G1 X143.93 Y81.8 E47.9143
G1 X143.72 Y81.81 E47.923
G1 X143.59 Y81.8 E47.9285
G1 X143.31 Y81.72 E47.9405
G1 X142.97 Y81.72 E47.9546
G1 X142.69 Y81.65 E47.9666
G1 X142.35 Y81.64 E47.9808
G1 X142.07 Y81.57 E47.9928
G1 X141.52 Y81.59 E48.0156
G1 X140.8 Y81.59 E48.0453
G1 X140.53 Y81.67 E48.0573
G1 X140.01 Y81.69 E48.0789
G1 X139.86 Y81.72 E48.0852
G1 X139.59 Y81.79 E48.0968
G1 X139.21 Y81.79 E48.1124
G1 X138.94 Y81.87 E48.1244
G1 X138.8 Y81.89 E48.1303
G1 X138.42 Y81.89 E48.146
G1 X138 Y81.98 E48.1637
G1 X137.62 Y81.99 E48.1795
G1 X137.35 Y82.07 E48.1915
G1 X137.01 Y82.09 E48.2055
G1 X136.86 Y82.12 E48.2119
G1 X136.73 Y82.17 E48.2176
G1 X136.21 Y82.19 E48.2391
G1 X136.06 Y82.22 E48.2455
G1 X135.67 Y82.36 E48.2628
G1 X135.46 Y82.5 E48.2734
G1 X134.88 Y82.69 E48.2988
G1 X134.58 Y82.87 E48.3132
G1 X134.45 Y82.92 E48.3189
G1 X134.04 Y83.04 E48.3367
G1 X133.65 Y83.18 E48.3541
G1 X133.44 Y83.32 E48.3648
G1 X132.86 Y83.51 E48.3898
G1 X132.77 Y83.55 E48.3939
G1 X132.56 Y83.69 E48.4046
G1 X131.98 Y83.88 E48.4297
G1 X131.89 Y83.92 E48.4338
G1 X131.68 Y84.06 E48.4444
G1 X131.11 Y84.25 E48.4695
G1 X130.9 Y84.35 E48.4789
G1 X130.81 Y84.43 E48.4842
G1 X130.57 Y84.72 E48.4998
G1 X130.21 Y84.89 E48.5164
G1 X130.11 Y84.97 E48.5216
G1 X129.87 Y85.26 E48.5372
G1 X129.51 Y85.43 E48.5538
G1 X129.41 Y85.52 E48.5591
G1 X129.17 Y85.8 E48.5747
G1 X128.81 Y85.98 E48.5913
G1 X128.72 Y86.06 E48.5965
G1 X128.47 Y86.35 E48.6122
G1 X128.11 Y86.52 E48.6288
G1 X127.86 Y86.79 E48.6444
G1 X127.5 Y86.96 E48.661
G1 X127.4 Y87.05 E48.6662
G1 X127.16 Y87.33 E48.6818
G1 X126.8 Y87.51 E48.6984
G1 X126.54 Y87.78 E48.714
G1 X126.47 Y87.89 E48.7194
G1 X126.38 Y88.15 E48.7308
G1 X126.01 Y88.48 E48.7517
G1 X125.87 Y88.69 E48.7622
G1 X125.78 Y88.96 E48.7737
G1 X125.32 Y89.38 E48.7997
G1 X125.17 Y89.59 E48.8103
G1 X125.08 Y89.85 E48.8218
G1 X124.62 Y90.27 E48.8478
G1 X124.48 Y90.48 E48.8583
G1 X124.38 Y90.74 E48.8697
G1 X124.02 Y91.08 E48.8906
G1 X123.87 Y91.29 E48.9011
G1 X123.78 Y91.55 E48.9126
G1 X123.5 Y91.8 E48.9282
G1 X123.09 Y92.27 E48.9542
G1 X122.83 Y92.36 E48.9659
G1 X122.62 Y92.51 E48.9764
G1 X122.46 Y92.7 E48.9868
G1 X122.22 Y92.82 E48.9979
G1 X122.01 Y92.97 E49.0084
G1 X121.67 Y93.15 E49.0248
G1 X121.47 Y93.31 E49.0353
G1 X121.13 Y93.5 E49.0517
G1 X120.72 Y93.63 E49.0692
G1 X120.51 Y93.77 E49.0799
G1 X120.38 Y93.82 E49.0856
G1 X119.58 Y94.09 E49.1206
G1 X119.27 Y94.13 E49.1339
G1 X119.14 Y94.18 E49.1397
G1 X118.83 Y94.23 E49.1527
G1 X118.7 Y94.28 E49.1585
G1 X118.39 Y94.32 E49.1716
G1 X118.12 Y94.39 E49.1829
G1 X117.74 Y94.4 E49.1986
G1 X117.32 Y94.5 E49.2169
G1 X117.14 Y94.51 E49.2243
G1 X116.96 Y94.51 E49.2318
G1 X116.53 Y94.41 E49.25
G1 X116.15 Y94.42 E49.2658
G1 X116.02 Y94.41 E49.2714
G1 X115.74 Y94.34 E49.2834
G1 X115.39 Y94.33 E49.2978
G1 X115.26 Y94.29 E49.3035
G1 X114.95 Y94.25 E49.3166
G1 X113.89 Y93.91 E49.3631
G1 X113.76 Y93.86 E49.3688
G1 X113.48 Y93.79 E49.3806
G1 X113.26 Y93.66 E49.3913
G1 X113.13 Y93.61 E49.397
G1 X112.91 Y93.48 E49.4077
G1 X112.42 Y93.27 E49.4299
G1 X112.1 Y93.06 E49.4457
G1 X111.86 Y92.95 E49.4567
G1 X111.68 Y92.77 E49.4671
G1 X111.57 Y92.71 E49.4725
G1 X111.3 Y92.62 E49.4841
G1 X110.8 Y92.07 E49.5153
G1 X110.59 Y91.93 E49.5259
G1 X110.34 Y91.83 E49.5371
G1 X110.07 Y91.56 E49.5527
G1 X109.71 Y91.39 E49.5692
G1 X109.45 Y91.13 E49.5848
G1 X109.09 Y90.96 E49.6013
G1 X108.82 Y90.69 E49.6169
G1 X108.46 Y90.52 E49.6334
G1 X108.28 Y90.35 E49.6438
G1 X107.93 Y90.18 E49.6603
G1 X107.72 Y90.04 E49.6708
G1 X107.59 Y89.99 E49.6765
G1 X107.37 Y89.85 E49.6871
G1 X107.24 Y89.81 E49.6928
G1 X106.3 Y89.53 E49.7339
G1 X105.95 Y89.34 E49.7501
G1 X105.82 Y89.3 E49.7558
G1 X104.61 Y88.93 E49.8085
G1 X104.23 Y88.79 E49.8256
G1 X104.04 Y88.76 E49.8332
G1 X103.52 Y88.78 E49.8548
G1 X103.25 Y88.72 E49.8665
G1 X103.07 Y88.69 E49.874
G1 X102.55 Y88.71 E49.8957
G1 X102.28 Y88.64 E49.9074
G1 X102.1 Y88.62 E49.9149
G1 X101.58 Y88.64 E49.9365
G1 X101.43 Y88.62 E49.9426
G1 X101.15 Y88.55 E49.9546
G1 X100.6 Y88.56 E49.9776
G1 X100.32 Y88.64 E49.9896
G1 X99.98 Y88.65 E50.0039
G1 X99.7 Y88.73 E50.0159
G1 X99.26 Y88.83 E50.0346
G1 X99.13 Y88.84 E50.0403
G1 X98.92 Y88.84 E50.0489
G1 X98.64 Y88.92 E50.061
G1 X98.51 Y88.94 E50.0664
G1 X98.69 Y87.4 E50.1309
G1 X98.68 Y85.89 E50.1934
G1 X98.48 Y84.41 E50.2555
G1 X98.09 Y82.91 E50.3201
G1 X97.52 Y81.51 E50.3826
G1 X96.83 Y80.26 E50.4423
G1 X96.01 Y79.12 E50.5004
G1 X94.91 Y77.93 E50.5681
G1 X94.81 Y77.85 E50.5733
G1 X93.95 Y77.12 E50.6202
G1 X93.91 Y77.02 E50.6248
G1 X96.32 Y77.01 E50.7248
G1 X100.15 Y77.01 E50.884
G1 X155.54 Y77.01 E53.187
G1 X155.71 Y77.02 E53.1938
G1 X155.76 Y77.15 E53.1995
G1 X155.91 Y77.35 E53.2101
G1 X156.03 Y77.59 E53.2211
G1 X156.18 Y77.8 E53.2316
G1 X156.3 Y78.03 E53.2426
G1 X156.38 Y78.13 E53.2478
G1 X156.71 Y78.68 E53.2747
G1 X156.77 Y78.81 E53.2804
G1 X156.98 Y79.12 E53.2963
G1 X157.03 Y79.25 E53.302
G1 X157.25 Y79.56 E53.3178
G1 X157.3 Y79.69 E53.3235
G1 X157.45 Y79.89 E53.3341
G1 X157.57 Y80.13 E53.3451
G1 X157.72 Y80.33 E53.3556
G1 X157.84 Y80.57 E53.3666
G1 X157.99 Y80.78 E53.3772
G1 X158.11 Y81.01 E53.3882
G1 X158.19 Y81.11 E53.3934
G1 X158.52 Y81.66 E53.4203
G1 X158.58 Y81.79 E53.4259
G1 X158.79 Y82.1 E53.4418
G1 X158.84 Y82.23 E53.4475
G1 X158.99 Y82.43 E53.4581
G1 X159.03 Y82.57 E53.4641
G1 X159.16 Y82.8 E53.4749
G1 X159.21 Y82.92 E53.4806
G1 X159.34 Y83.15 E53.4914
G1 X159.39 Y83.28 E53.4971
G1 X159.46 Y83.39 E53.5024
G1 X160.42 Y85.27 E53.5904
G1 X160.49 Y85.38 E53.5957
G1 X160.78 Y85.98 E53.6233
G1 X160.85 Y86.09 E53.6287
G1 X161.14 Y86.68 E53.6563
G1 X161.21 Y86.79 E53.6616
G1 X161.5 Y87.39 E53.6892
G1 X161.57 Y87.5 E53.6946
G1 X161.86 Y88.09 E53.7221
G1 X161.93 Y88.2 E53.7275
G1 X162.11 Y88.56 E53.7441
G1 X164.65 Y94.55 E54.0147
G1 X164.72 Y94.84 E54.027
G1 X164.77 Y94.96 E54.0327
G1 X165.27 Y96.42 E54.0968
G1 X165.31 Y96.56 E54.1028
G1 X165.36 Y96.69 E54.1085
G1 X165.4 Y96.83 E54.1145
G1 X165.82 Y98.02 E54.1668
G1 X165.86 Y98.15 E54.1728
G1 X165.91 Y98.28 E54.1785
G1 X166.59 Y100.28 E54.2661
G1 X166.73 Y100.67 E54.2834
G1 X166.81 Y100.94 E54.2952
G1 X166.85 Y101.12 E54.3027
G1 X167 Y101.65 E54.3256
G1 X167.22 Y102.52 E54.3631
G1 X167.3 Y102.78 E54.3742
G1 X167.56 Y103.76 E54.4166
G1 X167.58 Y103.91 E54.423
G1 X167.64 Y104.04 E54.4287
G1 X167.77 Y104.62 E54.4534
G1 X167.82 Y104.75 E54.4591
G1 X167.96 Y105.32 E54.4838
G1 X168.01 Y105.45 E54.4895
G1 X168.08 Y105.8 E54.5042
G1 X168.41 Y107.01 E54.5564
G1 X168.51 Y107.45 E54.5751
G1 X169.15 Y110.84 E54.7185
G1 X169.21 Y111.21 E54.7342
G1 X169.63 Y113.39 E54.8266
G1 X169.71 Y113.92 E54.8489
G1 X170.46 Y120.51 E55.1246
G1 X170.74 Y127.05 E55.3967
G1 X170.73 Y127.36 E55.4095
G1 X170.54 Y133.79 E55.677
G1 X169.87 Y140.29 E55.9485
G1 X169.81 Y140.74 E55.9677
G1 X168.76 Y146.69 E56.2189
G1 X168.68 Y147.13 E56.2375
G1 X167.55 Y151.61 E56.4296
G1 X167.5 Y151.74 E56.4353
;
; 'Wipe', 0.0 [RPM], 25.0 [mm/s]
G1 F15000
G1 X167.5 Y151.74 E56.4353
G1 F1500
G1 X167.55 Y151.61 E56.4353
G1 X168.71 Y146.99 E56.4353
G1 X168.76 Y146.69 E56.4353
G1 X169.6 Y141.93 E56.4353
;
; 'Crown', 49.9 [RPM], 25.0 [mm/s]
G1 F15000
G1 X136.51 Y152.63 E56.4353
G1 F1500
G1 X136.48 Y152.64 E56.4367
G1 X136.43 Y152.89 E56.4471
G1 X136.4 Y152.91 E56.4489
G1 X136.36 Y153.05 E56.4549
G1 X136.24 Y153.45 E56.4724
G1 X136.25 Y153.61 E56.4787
G1 X136.22 Y153.61 E56.4801
;
; 'Wipe', 0.0 [RPM], 25.0 [mm/s]
G1 F15000
G1 X136.22 Y153.61 E56.4801
G1 F1500
G1 X136.25 Y153.61 E56.4801
G1 X136.24 Y153.45 E56.4801
G1 X136.36 Y153.05 E56.4801
G1 X136.4 Y152.91 E56.4801
G1 X136.43 Y152.89 E56.4801
G1 X136.48 Y152.64 E56.4801
G1 X136.51 Y152.63 E56.4801
;
; 'Solid', 49.9 [RPM], 25.0 [mm/s]
G1 F15000
G1 X140.29 Y146.75 E56.4801
G1 F1500
G1 X169.52 Y116.64 E58.2246
G1 X169.44 Y116 E58.2513
G1 X137.19 Y149.23 E60.1764
G1 X137.07 Y148.64 E60.2015
G1 X169.36 Y115.36 E62.1294
G1 X169.29 Y114.72 E62.1564
G1 X136.95 Y148.05 E64.0873
G1 X136.82 Y147.45 E64.1125
G1 X169.22 Y114.08 E66.0462
G1 X169.12 Y113.45 E66.0724
G1 X136.67 Y146.89 E68.0096
G1 X136.46 Y146.39 E68.0323
G1 X169 Y112.86 E69.9749
G1 X168.89 Y112.26 E70.0004
G1 X136.25 Y145.89 E71.9489
G1 X136.04 Y145.39 E71.9715
G1 X168.77 Y111.66 E73.9255
G1 X168.67 Y111.05 E73.9511
G1 X135.83 Y144.89 E75.9113
G1 X135.62 Y144.39 E75.9339
G1 X168.55 Y110.46 E77.8996
G1 X168.43 Y109.86 E77.925
G1 X135.4 Y143.89 E79.8968
G1 X135.13 Y143.46 E79.9182
G1 X168.32 Y109.26 E81.8998
G1 X168.21 Y108.65 E81.9252
G1 X134.84 Y143.04 E83.9171
G1 X134.56 Y142.61 E83.9384
G1 X168.1 Y108.05 E85.9405
G1 X167.98 Y107.45 E85.966
G1 X134.27 Y142.19 E87.9784
G1 X133.99 Y141.76 E87.9997
G1 X167.84 Y106.88 E90.0209
G1 X167.69 Y106.32 E90.045
G1 X133.65 Y141.39 E92.0772
;
; 'Solid', 49.9 [RPM], 25.0 [mm/s]
G1 F15000
G1 X142.53 Y145.17 E92.0772
G1 F1500
G1 X169.58 Y117.29 E93.6921
G1 X169.66 Y117.93 E93.7189
G1 X144.06 Y144.31 E95.2473
G1 X145.37 Y143.67 E95.308
G1 X169.73 Y118.58 E96.7621
G1 X169.8 Y119.22 E96.7889
G1 X146.31 Y143.43 E98.1917
G1 X147.27 Y143.15 E98.2336
G1 X169.88 Y119.86 E99.5829
G1 X169.95 Y120.5 E99.6099
G1 X148.23 Y142.89 E100.9066
G1 X149.07 Y142.74 E100.9422
G1 X169.98 Y121.19 E102.1905
G1 X170.01 Y121.88 E102.2192
G1 X149.83 Y142.67 E103.4238
G1 X150.59 Y142.6 E103.4558
G1 X170.04 Y122.57 E104.6165
G1 X170.06 Y123.26 E104.6451
G1 X151.36 Y142.53 E105.7618
G1 X152.11 Y142.48 E105.7929
G1 X170.09 Y123.94 E106.8667
G1 X170.12 Y124.63 E106.8953
G1 X152.74 Y142.54 E107.9327
G1 X153.38 Y142.6 E107.9593
G1 X170.15 Y125.32 E108.9605
G1 X170.18 Y126.01 E108.9891
G1 X154.02 Y142.66 E109.9538
G1 X154.66 Y142.72 E109.9805
G1 X170.21 Y126.7 E110.9088
G1 X170.22 Y127.4 E110.9381
G1 X155.29 Y142.79 E111.8295
G1 X155.87 Y142.9 E111.8542
G1 X170.2 Y128.14 E112.7092
G1 X170.17 Y128.89 E112.7401
G1 X156.42 Y143.06 E113.5614
G1 X156.96 Y143.22 E113.585
G1 X170.15 Y129.63 E114.3725
G1 X170.13 Y130.37 E114.4033
G1 X157.5 Y143.38 E115.1572
G1 X158.05 Y143.54 E115.1807
G1 X170.11 Y131.11 E115.9008
G1 X170.08 Y131.85 E115.9317
G1 X158.59 Y143.7 E116.618
G1 X159.1 Y143.88 E116.6407
G1 X170.06 Y132.59 E117.295
G1 X170.04 Y133.33 E117.3258
G1 X159.57 Y144.12 E117.951
G1 X160.03 Y144.36 E117.9728
G1 X169.99 Y134.1 E118.5675
G1 X169.91 Y134.9 E118.601
G1 X160.5 Y144.6 E119.1629
G1 X160.97 Y144.83 E119.1846
G1 X169.83 Y135.7 E119.7137
G1 X169.75 Y136.5 E119.7472
G1 X161.43 Y145.07 E120.2436
G1 X161.9 Y145.31 E120.2654
G1 X169.66 Y137.31 E120.7289
G1 X169.58 Y138.11 E120.7624
G1 X162.31 Y145.6 E121.1963
G1 X162.72 Y145.9 E121.2172
G1 X169.5 Y138.91 E121.6222
G1 X169.42 Y139.72 E121.6556
G1 X163.12 Y146.21 E122.0319
G1 X163.51 Y146.52 E122.0529
G1 X169.32 Y140.54 E122.3994
G1 X169.17 Y141.41 E122.436
G1 X163.91 Y146.83 E122.75
G1 X164.31 Y147.13 E122.771
G1 X169.02 Y142.28 E123.0519
G1 X168.86 Y143.16 E123.0889
G1 X164.71 Y147.44 E123.337
G1 X165.06 Y147.8 E123.3577
G1 X168.71 Y144.04 E123.5755
G1 X168.55 Y144.91 E123.6124
G1 X165.39 Y148.17 E123.8012
G1 X165.72 Y148.55 E123.8221
G1 X168.4 Y145.79 E123.9817
G1 X168.24 Y146.67 E124.0187
G1 X166.06 Y148.92 E124.1493
G1 X166.39 Y149.3 E124.1702
G1 X168.03 Y147.61 E124.268
G1 X167.78 Y148.58 E124.3095
G1 X166.72 Y149.67 E124.373
G1 X167.08 Y150.02 E124.3938
G1 X167.64 Y149.44 E124.4273
;
; 'Solid', 49.9 [RPM], 25.0 [mm/s]
G1 F15000
G1 X154.77 Y118.91 E124.4273
G1 F1500
G1 X133.4 Y140.94 E125.7035
G1 X133.05 Y140.58 E125.7243
G1 X152.17 Y120.87 E126.8662
G1 X150.86 Y121.51 E126.9272
G1 X132.69 Y140.23 E128.0115
G1 X132.34 Y139.87 E128.0323
G1 X149.72 Y121.96 E129.07
G1 X148.51 Y122.49 E129.1249
G1 X131.98 Y139.52 E130.1116
G1 X131.63 Y139.17 E130.1324
G1 X147.4 Y122.91 E131.0741
G1 X146.46 Y123.17 E131.115
G1 X131.28 Y138.81 E132.0212
G1 X130.9 Y138.49 E132.0421
G1 X145.68 Y123.25 E132.9247
G1 X144.88 Y123.36 E132.9583
G1 X130.47 Y138.2 E133.8183
G1 X130.05 Y137.92 E133.8395
G1 X144.07 Y123.48 E134.6762
G1 X143.28 Y123.58 E134.7094
G1 X129.63 Y137.64 E135.5241
G1 X129.21 Y137.36 E135.5453
G1 X142.5 Y123.65 E136.3391
G1 X141.71 Y123.75 E136.3723
G1 X128.78 Y137.07 E137.1441
G1 X128.36 Y136.79 E137.1652
G1 X141.02 Y123.75 E137.9208
G1 X140.39 Y123.68 E137.9471
G1 X127.9 Y136.55 E138.6929
G1 X127.4 Y136.35 E138.7152
G1 X139.78 Y123.59 E139.4541
G1 X139.16 Y123.51 E139.4799
G1 X126.9 Y136.14 E140.2116
G1 X126.41 Y135.93 E140.2339
G1 X138.53 Y123.44 E140.9579
G1 X137.91 Y123.37 E140.9842
G1 X125.91 Y135.73 E141.7003
G1 X125.41 Y135.52 E141.7227
G1 X137.29 Y123.28 E142.432
G1 X136.69 Y123.18 E142.4573
G1 X124.9 Y135.33 E143.1613
G1 X124.32 Y135.21 E143.1859
G1 X136.07 Y123.1 E143.8874
G1 X135.52 Y122.96 E143.9112
G1 X123.74 Y135.09 E144.6143
G1 X123.16 Y134.97 E144.639
G1 X135.03 Y122.74 E145.3478
G1 X134.55 Y122.52 E145.3699
G1 X122.57 Y134.86 E146.0846
G1 X121.99 Y134.74 E146.1093
G1 X134.06 Y122.31 E146.8296
G1 X133.57 Y122.09 E146.8517
G1 X121.37 Y134.66 E147.5802
G1 X120.67 Y134.66 E147.6091
G1 X133.06 Y121.9 E148.3485
G1 X132.55 Y121.7 E148.3712
G1 X119.98 Y134.66 E149.1216
G1 X119.29 Y134.65 E149.1504
G1 X132.05 Y121.5 E149.9125
G1 X131.56 Y121.29 E149.9347
G1 X118.6 Y134.64 E150.7084
G1 X117.83 Y134.72 E150.7407
G1 X131.08 Y121.07 E151.5318
G1 X130.63 Y120.81 E151.5533
G1 X116.98 Y134.88 E152.3681
G1 X116.13 Y135.04 E152.4043
G1 X130.19 Y120.54 E153.2442
G1 X129.85 Y120.18 E153.265
G1 X115.29 Y135.18 E154.1343
G1 X114.27 Y135.52 E154.179
G1 X129.4 Y119.93 E155.0821
G1 X129.05 Y119.57 E155.1029
G1 X113.14 Y135.96 E156.0526
G1 X111.98 Y136.44 E156.1046
G1 X128.59 Y119.33 E157.0961
G1 X128.24 Y118.97 E157.1169
G1 X112.05 Y135.65 E158.0831
G1 X112.21 Y134.77 E158.1202
G1 X127.8 Y118.7 E159.0508
G1 X127.43 Y118.37 E159.0716
G1 X112.31 Y133.95 E159.9745
G1 X112.4 Y133.13 E160.0087
G1 X126.99 Y118.1 E160.8798
G1 X126.62 Y117.76 E160.9006
G1 X112.43 Y132.38 E161.7477
G1 X112.44 Y131.66 E161.7776
G1 X126.27 Y117.41 E162.6034
G1 X125.92 Y117.05 E162.6242
G1 X112.43 Y130.95 E163.4291
G1 X112.41 Y130.25 E163.4581
G1 X125.63 Y116.63 E164.2472
G1 X125.31 Y116.24 E164.2681
G1 X112.33 Y129.61 E165.0427
G1 X112.26 Y128.97 E165.0695
G1 X124.99 Y115.85 E165.8297
G1 X124.71 Y115.42 E165.851
G1 X112.18 Y128.33 E166.599
G1 X112.08 Y127.72 E166.6247
G1 X124.39 Y115.04 E167.3596
G1 X124.1 Y114.62 E167.3808
G1 X111.93 Y127.15 E168.107
G1 X111.8 Y126.58 E168.1316
G1 X123.78 Y114.23 E168.8471
G1 X123.46 Y113.84 E168.868
G1 X111.66 Y126 E169.5729
G1 X111.5 Y125.45 E169.5969
G1 X123.18 Y113.41 E170.2944
G1 X122.84 Y113.05 E170.3152
G1 X111.3 Y124.93 E171.0037
G1 X111.11 Y124.41 E171.0267
G1 X122.52 Y112.66 E171.7076
G1 X122.24 Y112.23 E171.7289
G1 X110.92 Y123.9 E172.4047
G1 X110.72 Y123.38 E172.4277
G1 X121.77 Y111.99 E173.0875
G1 X121.4 Y111.65 E173.1083
G1 X110.48 Y122.91 E173.7603
G1 X110.24 Y122.44 E173.7823
G1 X120.96 Y111.39 E174.4222
G1 X120.53 Y111.12 E174.4434
G1 X110 Y121.97 E175.0721
G1 X109.76 Y121.5 E175.094
G1 X120.05 Y110.89 E175.7086
G1 X119.57 Y110.67 E175.7306
G1 X109.5 Y121.05 E176.3321
G1 X109.21 Y120.63 E176.3534
G1 X119.03 Y110.51 E176.9394
G1 X118.43 Y110.41 E176.9645
G1 X108.92 Y120.2 E177.532
G1 X108.64 Y119.78 E177.5533
G1 X117.84 Y110.3 E178.1027
G1 X117.22 Y110.22 E178.1286
G1 X108.35 Y119.36 E178.6583
G1 X108.04 Y118.96 E178.6793
G1 X116.49 Y110.26 E179.1837
G1 X115.66 Y110.39 E179.2186
G1 X107.71 Y118.58 E179.6932
G1 X107.38 Y118.2 E179.714
G1 X114.72 Y110.64 E180.1521
G1 X113.57 Y111.11 E180.2038
G1 X107.05 Y117.83 E180.5928
G1 X106.72 Y117.45 E180.6137
G1 X111.53 Y112.49 E180.9005
;
; 'Solid', 49.9 [RPM], 25.0 [mm/s]
G1 F15000
G1 X110.06 Y110.42 E180.9005
G1 F1500
G1 X134.53 Y85.2 E182.3614
G1 X133.36 Y85.69 E182.4139
G1 X107.41 Y112.43 E183.9633
G1 X106.11 Y113.05 E184.023
G1 X132.32 Y86.05 E185.5875
;
; 'Solid', 49.9 [RPM], 25.0 [mm/s]
G1 F15000
G1 X131 Y83.82 E185.5875
G1 F1500
G1 X137.11 Y77.52 E185.9523
G1 X137.8 Y77.52 E185.9813
G1 X132.27 Y83.22 E186.3114
G1 X133.47 Y82.71 E186.3656
G1 X138.5 Y77.53 E186.6659
G1 X139.19 Y77.53 E186.6948
G1 X134.58 Y82.28 E186.9703
G1 X135.78 Y81.76 E187.0246
G1 X139.89 Y77.53 E187.2701
G1 X140.59 Y77.53 E187.2991
G1 X136.58 Y81.66 E187.5384
G1 X137.41 Y81.52 E187.5733
G1 X141.28 Y77.53 E187.8047
G1 X141.98 Y77.53 E187.8336
G1 X138.2 Y81.42 E188.0594
G1 X139.01 Y81.31 E188.0935
G1 X142.68 Y77.53 E188.3125
G1 X143.37 Y77.53 E188.3415
G1 X139.8 Y81.21 E188.555
G1 X140.57 Y81.13 E188.5874
G1 X144.07 Y77.53 E188.7962
G1 X144.77 Y77.53 E188.8252
G1 X141.33 Y81.07 E189.0307
G1 X142.04 Y81.06 E189.0604
G1 X145.46 Y77.53 E189.2649
G1 X146.16 Y77.53 E189.2939
G1 X142.65 Y81.14 E189.5033
G1 X143.28 Y81.21 E189.5296
G1 X146.86 Y77.53 E189.7431
G1 X147.56 Y77.53 E189.7721
G1 X143.89 Y81.3 E189.9908
G1 X144.5 Y81.4 E190.0161
G1 X148.25 Y77.52 E190.2405
G1 X148.95 Y77.52 E190.2695
G1 X145.12 Y81.47 E190.498
G1 X145.74 Y81.55 E190.5238
G1 X149.65 Y77.52 E190.7572
G1 X150.34 Y77.53 E190.7862
G1 X146.35 Y81.64 E191.0244
G1 X146.95 Y81.74 E191.0495
G1 X151.04 Y77.53 E191.2938
G1 X151.74 Y77.53 E191.3228
G1 X147.48 Y81.91 E191.5767
G1 X147.97 Y82.13 E191.5988
G1 X152.43 Y77.53 E191.8653
G1 X153.13 Y77.53 E191.8943
G1 X148.48 Y82.32 E192.1719
G1 X148.99 Y82.51 E192.1946
G1 X153.83 Y77.53 E192.4834
G1 X154.52 Y77.53 E192.5124
G1 X149.48 Y82.72 E192.8131
G1 X149.98 Y82.93 E192.8353
G1 X155.24 Y77.51 E193.1496
G1 X155.62 Y77.83 E193.1704
G1 X150.46 Y83.15 E193.4783
G1 X150.97 Y83.34 E193.5009
G1 X155.89 Y78.28 E193.7944
G1 X156.15 Y78.72 E193.8158
G1 X151.48 Y83.53 E194.0949
G1 X151.98 Y83.74 E194.1173
G1 X156.4 Y79.18 E194.3816
G1 X156.67 Y79.62 E194.4031
G1 X152.41 Y84.01 E194.6576
G1 X152.78 Y84.35 E194.6784
G1 X156.94 Y80.06 E194.927
G1 X157.21 Y80.5 E194.9485
G1 X153.21 Y84.62 E195.187
G1 X153.55 Y84.99 E195.2078
G1 X157.48 Y80.94 E195.442
G1 X157.75 Y81.38 E195.4635
G1 X154.01 Y85.23 E195.6864
G1 X154.36 Y85.59 E195.7072
G1 X158.03 Y81.81 E195.9262
G1 X158.3 Y82.25 E195.9477
G1 X154.82 Y85.84 E196.1555
G1 X155.17 Y86.19 E196.1763
G1 X158.57 Y82.69 E196.3791
G1 X158.8 Y83.17 E196.4012
G1 X155.61 Y86.46 E196.5917
G1 X155.98 Y86.8 E196.6125
G1 X159.02 Y83.66 E196.7944
G1 X159.28 Y84.11 E196.816
G1 X156.41 Y87.06 E196.9872
G1 X156.77 Y87.41 E197.008
G1 X159.52 Y84.58 E197.172
G1 X159.76 Y85.05 E197.194
G1 X157.06 Y87.83 E197.3552
G1 X157.34 Y88.26 E197.3765
G1 X160 Y85.52 E197.5353
G1 X160.23 Y86.01 E197.5576
G1 X157.69 Y88.62 E197.7092
G1 X157.96 Y89.07 E197.7307
G1 X160.48 Y86.46 E197.8816
G1 X160.73 Y86.93 E197.9035
G1 X158.31 Y89.42 E198.048
G1 X158.59 Y89.85 E198.0692
G1 X160.95 Y87.42 E198.2101
G1 X161.21 Y87.87 E198.2318
G1 X158.91 Y90.24 E198.3689
G1 X159.23 Y90.63 E198.3899
G1 X161.45 Y88.34 E198.5224
G1 X161.67 Y88.83 E198.5448
G1 X159.51 Y91.06 E198.6737
G1 X159.85 Y91.42 E198.6945
G1 X161.9 Y89.31 E198.8168
G1 X162.11 Y89.81 E198.8394
G1 X160.1 Y91.88 E198.9596
G1 X160.33 Y92.37 E198.9819
G1 X162.33 Y90.31 E199.1013
G1 X162.54 Y90.81 E199.1239
G1 X160.51 Y92.9 E199.2452
G1 X160.73 Y93.39 E199.2675
G1 X162.75 Y91.3 E199.3883
G1 X162.96 Y91.8 E199.4109
G1 X160.91 Y93.92 E199.5332
G1 X161.15 Y94.39 E199.5552
G1 X163.17 Y92.3 E199.6762
G1 X163.39 Y92.8 E199.6987
G1 X161.33 Y94.92 E199.8214
G1 X161.56 Y95.4 E199.8435
G1 X163.6 Y93.3 E199.965
G1 X163.81 Y93.8 E199.9876
G1 X161.76 Y95.91 E200.1097
G1 X161.98 Y96.41 E200.1323
G1 X164.02 Y94.3 E200.2544
G1 X164.21 Y94.83 E200.2776
G1 X162.14 Y96.96 E200.401
G1 X162.26 Y97.56 E200.4263
G1 X164.4 Y95.35 E200.5542
G1 X164.57 Y95.9 E200.5779
G1 X162.35 Y98.18 E200.7101
G1 X162.42 Y98.82 E200.7371
G1 X164.76 Y96.42 E200.8764
G1 X164.91 Y96.97 E200.9004
G1 X162.49 Y99.47 E201.0449
G1 X162.57 Y100.11 E201.0718
G1 X165.09 Y97.5 E201.2228
G1 X165.28 Y98.03 E201.2461
G1 X162.67 Y100.73 E201.4021
G1 X162.76 Y101.35 E201.4283
G1 X165.46 Y98.57 E201.5895
G1 X165.65 Y99.09 E201.6126
G1 X162.86 Y101.96 E201.7791
G1 X162.81 Y102.73 E201.8109
G1 X165.83 Y99.62 E201.9912
G1 X166.01 Y100.15 E202.0147
G1 X162.71 Y103.55 E202.2114
G1 X162.62 Y104.36 E202.2455
G1 X166.2 Y100.68 E202.459
G1 X166.36 Y101.23 E202.4828
G1 X162.51 Y105.2 E202.7127
G1 X162.4 Y106.02 E202.7474
G1 X166.5 Y101.8 E202.9924
G1 X166.65 Y102.36 E203.0167
G1 X162.31 Y106.84 E203.2759
G1 X162.2 Y107.67 E203.3109
G1 X166.81 Y102.91 E203.5865
G1 X166.94 Y103.5 E203.6114
G1 X161.81 Y108.79 E203.9181
G1 X161.31 Y110.02 E203.9731
G1 X167.1 Y104.05 E204.3186
G1 X167.25 Y104.62 E204.3428
G1 X160.79 Y111.27 E204.7285
G1 X160.29 Y112.5 E204.7836
G1 X167.4 Y105.18 E205.2077
G1 X167.56 Y105.73 E205.2316
G1 X158.32 Y115.25 E205.783
;
; 'Solid', 49.9 [RPM], 25.0 [mm/s]
G1 F15000
G1 X156.02 Y114.04 E205.783
G1 F1500
G1 X153.44 Y116.7 E205.9369
;
; 'Solid', 49.9 [RPM], 25.0 [mm/s]
G1 F15000
G1 X150.83 Y118.67 E205.9369
G1 F1500
G1 X157.78 Y111.51 E206.3517
G1 X158.3 Y110.25 E206.4081
G1 X149.76 Y119.05 E206.9174
G1 X148.6 Y119.53 E206.9698
G1 X158.82 Y109 E207.5797
G1 X159.33 Y107.75 E207.636
G1 X147.42 Y120.02 E208.3469
G1 X146.33 Y120.43 E208.3955
G1 X159.61 Y106.75 E209.1881
G1 X159.72 Y105.92 E209.223
G1 X145.48 Y120.59 E210.0727
G1 X144.69 Y120.69 E210.1061
G1 X159.83 Y105.09 E211.01
G1 X159.93 Y104.26 E211.0448
G1 X143.89 Y120.79 E212.0029
G1 X143.09 Y120.9 E212.0363
G1 X160.05 Y103.43 E213.0487
G1 X160.15 Y102.6 E213.0833
G1 X142.29 Y121.01 E214.1498
G1 X141.51 Y121.09 E214.1824
G1 X160.11 Y101.92 E215.2933
G1 X160.03 Y101.28 E215.3199
G1 X140.87 Y121.03 E216.4641
G1 X140.25 Y120.95 E216.49
G1 X159.95 Y100.65 E217.6659
G1 X159.87 Y100.02 E217.6925
G1 X139.63 Y120.87 E218.9004
G1 X139.01 Y120.79 E218.9263
G1 X159.78 Y99.39 E220.166
G1 X159.7 Y98.75 E220.1927
G1 X138.4 Y120.71 E221.4646
G1 X137.78 Y120.63 E221.4905
G1 X159.62 Y98.12 E222.7945
G1 X159.52 Y97.5 E222.8204
G1 X137.16 Y120.55 E224.1554
G1 X136.57 Y120.44 E224.1803
G1 X159.35 Y96.96 E225.5404
G1 X159.12 Y96.48 E225.5626
G1 X136.06 Y120.24 E226.939
G1 X135.57 Y120.03 E226.9614
G1 X158.93 Y95.95 E228.3564
G1 X158.73 Y95.45 E228.3791
G1 X135.07 Y119.83 E229.7913
G1 X134.57 Y119.62 E229.8137
G1 X158.49 Y94.97 E231.2417
G1 X158.31 Y94.45 E231.2649
G1 X134.02 Y119.47 E232.7149
;
; 'Solid', 49.9 [RPM], 25.0 [mm/s]
G1 F15000
G1 X124.67 Y111.16 E232.7149
G1 F1500
G1 X135.89 Y99.59 E233.3849
G1 X135.37 Y100.85 E233.4413
G1 X125.05 Y111.48 E234.0575
G1 X125.36 Y111.88 E234.0785
G1 X135.28 Y101.66 E234.6705
G1 X135.2 Y102.47 E234.7041
G1 X125.67 Y112.28 E235.2727
G1 X125.98 Y112.68 E235.2937
G1 X135.27 Y103.1 E235.8486
G1 X135.36 Y103.73 E235.875
G1 X126.29 Y113.08 E236.4167
G1 X126.59 Y113.48 E236.4377
G1 X135.52 Y104.29 E236.9702
G1 X135.75 Y104.77 E236.9924
G1 X126.9 Y113.88 E237.5204
G1 X127.21 Y114.29 E237.5414
G1 X135.96 Y105.27 E238.064
G1 X136.18 Y105.76 E238.0865
G1 X127.52 Y114.69 E238.6035
G1 X127.83 Y115.09 E238.6245
G1 X136.5 Y106.15 E239.1422
G1 X136.81 Y106.55 E239.1632
G1 X128.13 Y115.49 E239.6809
G1 X128.5 Y115.83 E239.7017
G1 X137.13 Y106.93 E240.217
G1 X137.53 Y107.24 E240.2379
G1 X128.9 Y116.13 E240.753
G1 X129.3 Y116.44 E240.7739
G1 X137.93 Y107.55 E241.289
G1 X138.34 Y107.84 E241.3101
G1 X129.7 Y116.75 E241.8263
G1 X130.1 Y117.05 E241.8473
G1 X138.82 Y108.06 E242.3683
G1 X139.32 Y108.27 E242.3906
G1 X130.5 Y117.36 E242.9175
G1 X130.9 Y117.67 E242.9384
G1 X139.83 Y108.46 E243.4715
G1 X140.43 Y108.56 E243.497
G1 X131.29 Y117.97 E244.0425
G1 X131.69 Y118.28 E244.0634
G1 X141.04 Y108.65 E244.6213
G1 X141.74 Y108.65 E244.6503
G1 X132.09 Y118.59 E245.2262
G1 X132.58 Y118.8 E245.2484
G1 X142.5 Y108.58 E245.8405
G1 X143.45 Y108.32 E245.8814
G1 X133.08 Y119 E246.5004
G1 X133.58 Y119.21 E246.5227
G1 X144.91 Y107.54 E247.199
;
; 'Solid', 49.9 [RPM], 25.0 [mm/s]
G1 F15000
G1 X146.77 Y105.62 E247.199
G1 F1500
G1 X158.07 Y93.97 E247.8737
G1 X157.89 Y93.44 E247.8971
G1 X147.45 Y104.19 E248.5201
G1 X147.66 Y103.26 E248.5598
G1 X157.64 Y92.98 E249.1553
G1 X157.33 Y92.58 E249.1763
G1 X147.73 Y102.47 E249.7493
G1 X147.69 Y101.8 E249.7775
G1 X157.02 Y92.18 E250.3346
G1 X156.71 Y91.78 E250.3556
G1 X147.6 Y101.17 E250.8998
G1 X147.47 Y100.58 E250.9249
G1 X156.41 Y91.38 E251.4581
G1 X156.09 Y90.99 E251.479
G1 X147.26 Y100.08 E252.006
G1 X147.06 Y99.58 E252.0286
G1 X155.78 Y90.59 E252.5496
G1 X155.48 Y90.18 E252.5707
G1 X146.81 Y99.12 E253.0885
G1 X146.5 Y98.71 E253.1095
G1 X155.18 Y89.78 E253.6272
G1 X154.87 Y89.38 E253.6482
G1 X146.19 Y98.31 E254.1659
G1 X145.87 Y97.93 E254.1868
G1 X154.51 Y89.03 E254.7022
G1 X154.11 Y88.72 E254.7231
G1 X145.48 Y97.61 E255.2383
G1 X145.08 Y97.31 E255.2592
G1 X153.71 Y88.42 E255.7743
G1 X153.31 Y88.11 E255.7952
G1 X144.68 Y97 E256.3104
G1 X144.2 Y96.78 E256.3324
G1 X152.91 Y87.8 E256.8525
G1 X152.51 Y87.5 E256.8735
G1 X143.7 Y96.57 E257.3993
G1 X143.2 Y96.38 E257.4219
G1 X152.11 Y87.19 E257.9541
G1 X151.71 Y86.88 E257.975
G1 X142.61 Y96.26 E258.5183
G1 X141.99 Y96.18 E258.5442
G1 X151.32 Y86.57 E259.1007
G1 X150.91 Y86.27 E259.1217
G1 X141.34 Y96.13 E259.693
G1 X140.55 Y96.23 E259.7263
G1 X150.44 Y86.04 E260.3167
G1 X149.94 Y85.84 E260.3391
G1 X139.72 Y96.37 E260.9494
G1 X138.49 Y96.92 E261.0053
G1 X149.44 Y85.63 E261.6592
G1 X148.95 Y85.42 E261.6816
G1 X124.4 Y110.72 E263.1473
G1 X124.04 Y110.37 E263.168
G1 X148.45 Y85.22 E264.6253
G1 X147.95 Y85.01 E264.6477
G1 X123.64 Y110.06 E266.0989
G1 X123.29 Y109.71 E266.1197
G1 X147.46 Y84.81 E267.5626
G1 X146.96 Y84.6 E267.585
G1 X122.87 Y109.42 E269.0229
G1 X122.45 Y109.14 E269.0441
G1 X146.46 Y84.4 E270.4775
G1 X145.89 Y84.27 E270.5018
G1 X122.01 Y108.87 E271.9269
G1 X121.54 Y108.64 E271.9487
G1 X145.26 Y84.2 E273.3647
G1 X144.65 Y84.11 E273.3906
G1 X121.07 Y108.41 E274.7982
G1 X120.57 Y108.21 E274.8206
G1 X144.03 Y84.03 E276.2212
G1 X143.41 Y83.95 E276.2471
G1 X120.04 Y108.04 E277.6425
G1 X119.5 Y107.88 E277.6659
G1 X142.79 Y83.87 E279.0565
G1 X142.17 Y83.79 E279.0824
G1 X118.91 Y107.76 E280.4711
G1 X118.31 Y107.66 E280.4963
G1 X141.54 Y83.72 E281.8829
G1 X140.79 Y83.78 E281.9144
G1 X117.67 Y107.6 E283.2942
G1 X117 Y107.58 E283.3223
G1 X139.98 Y83.89 E284.6946
G1 X139.18 Y84 E284.7281
G1 X116.27 Y107.61 E286.0962
G1 X115.49 Y107.69 E286.1287
G1 X138.39 Y84.1 E287.4954
G1 X137.59 Y84.21 E287.529
G1 X114.62 Y107.87 E288.8999
G1 X113.62 Y108.19 E288.9435
G1 X136.75 Y84.35 E290.3245
G1 X135.71 Y84.71 E290.3703
G1 X112.26 Y108.87 E291.7704
;
; 'Wipe', 0.0 [RPM], 25.0 [mm/s]
G1 F15000
G1 X112.26 Y108.87 E291.7704
G1 F1500
G1 X135.71 Y84.71 E291.7704
;
; 'Solid', 49.9 [RPM], 25.0 [mm/s]
G1 F15000
G1 X108.65 Y114.74 E291.7704
G1 F1500
G1 X106.36 Y117.1 E291.9071
G1 X105.99 Y116.76 E291.9279
G1 X107.18 Y115.54 E291.9988
G1 X105.97 Y116.06 E292.0534
G1 X105.57 Y116.48 E292.0776
;
; 'Wipe', 0.0 [RPM], 25.0 [mm/s]
G1 F15000
G1 X105.57 Y116.48 E292.0776
G1 F1500
G1 X105.97 Y116.06 E292.0776
G1 X107.18 Y115.54 E292.0776
G1 X105.99 Y116.76 E292.0776
G1 X106.36 Y117.1 E292.0776
G1 X108.65 Y114.74 E292.0776
;
; 'Solid', 49.9 [RPM], 25.0 [mm/s]
G1 F15000
G1 X115.29 Y96.41 E292.0776
G1 F1500
G1 X107.27 Y104.68 E292.5563
G1 X107.64 Y103.58 E292.6041
G1 X114.63 Y96.38 E293.0217
G1 X114.06 Y96.25 E293.046
G1 X107.7 Y102.8 E293.4255
G1 X107.73 Y102.05 E293.4564
G1 X113.52 Y96.08 E293.8024
G1 X112.99 Y95.92 E293.8258
G1 X107.64 Y101.43 E294.1452
G1 X107.54 Y100.81 E294.1714
G1 X112.5 Y95.7 E294.4673
G1 X112.01 Y95.48 E294.4894
G1 X107.35 Y100.29 E294.7678
G1 X107.14 Y99.79 E294.7904
G1 X111.54 Y95.25 E295.0529
G1 X111.1 Y94.99 E295.0742
G1 X106.92 Y99.29 E295.3235
G1 X106.63 Y98.88 E295.3447
G1 X110.66 Y94.72 E295.5854
G1 X110.25 Y94.43 E295.6064
G1 X106.32 Y98.48 E295.8408
G1 X106.01 Y98.08 E295.8618
G1 X109.85 Y94.12 E296.0907
G1 X109.45 Y93.81 E296.1116
G1 X105.64 Y97.74 E296.3392
G1 X105.24 Y97.43 E296.3601
G1 X109.04 Y93.52 E296.5868
G1 X108.62 Y93.23 E296.6079
G1 X104.84 Y97.13 E296.8334
G1 X104.4 Y96.87 E296.8548
G1 X108.2 Y92.95 E297.0819
G1 X107.79 Y92.66 E297.103
G1 X103.9 Y96.66 E297.3347
G1 X103.41 Y96.45 E297.357
G1 X107.37 Y92.37 E297.5934
G1 X106.95 Y92.08 E297.6144
G1 X102.86 Y96.29 E297.8583
G1 X102.25 Y96.21 E297.8843
G1 X106.47 Y91.86 E298.1366
G1 X105.95 Y91.68 E298.1594
G1 X101.63 Y96.13 E298.4172
G1 X100.87 Y96.19 E298.4491
G1 X105.43 Y91.49 E298.7214
G1 X104.91 Y91.31 E298.7443
G1 X100.11 Y96.27 E299.0313
G1 X99.01 Y96.68 E299.08
G1 X104.45 Y91.07 E299.4049
;
; 'Solid', 49.9 [RPM], 25.0 [mm/s]
G1 F15000
G1 X95.6 Y92.29 E299.4049
G1 F1500
G1 X91.18 Y96.84 E299.6686
G1 X90.71 Y98.05 E299.7227
G1 X96.82 Y91.75 E300.0879
G1 X97.97 Y91.29 E300.1393
G1 X90.28 Y99.21 E300.5986
G1 X90.02 Y100.19 E300.6406
G1 X98.86 Y91.08 E301.1684
G1 X99.71 Y90.93 E301.2043
G1 X89.94 Y101 E301.7878
G1 X89.88 Y101.78 E301.8204
G1 X100.58 Y90.75 E302.4594
G1 X101.28 Y90.75 E302.4883
G1 X89.81 Y102.57 E303.1729
G1 X89.83 Y103.26 E303.2016
G1 X101.93 Y90.8 E303.9235
G1 X102.58 Y90.85 E303.9506
G1 X89.94 Y103.87 E304.7052
G1 X90.05 Y104.47 E304.7306
G1 X103.22 Y90.9 E305.517
G1 X103.86 Y90.96 E305.5435
G1 X90.16 Y105.08 E306.3612
G1 X90.27 Y105.68 E306.3867
G1 X95.68 Y100.1 E306.7096
G1 X95.31 Y101.21 E306.7581
G1 X90.44 Y106.23 E307.0489
G1 X90.67 Y106.71 E307.0711
G1 X95.24 Y102 E307.3443
G1 X95.22 Y102.74 E307.3751
G1 X90.9 Y107.19 E307.6333
G1 X91.13 Y107.67 E307.6554
G1 X95.31 Y103.36 E307.9051
G1 X95.4 Y103.99 E307.9314
G1 X91.35 Y108.15 E308.1728
G1 X91.59 Y108.63 E308.1949
G1 X95.61 Y104.49 E308.4351
G1 X95.84 Y104.97 E308.4573
G1 X91.88 Y109.05 E308.6936
G1 X92.21 Y109.43 E308.7145
G1 X96.05 Y105.47 E308.9441
G1 X96.31 Y105.92 E308.9657
G1 X92.53 Y109.81 E309.1914
G1 X92.86 Y110.19 E309.2122
G1 X96.62 Y106.32 E309.4369
G1 X96.92 Y106.72 E309.458
G1 X93.19 Y110.57 E309.6809
G1 X93.51 Y110.96 E309.7018
G1 X97.29 Y107.06 E309.9274
G1 X97.69 Y107.37 E309.9484
G1 X93.89 Y111.28 E310.1751
G1 X94.31 Y111.57 E310.1962
G1 X98.09 Y107.68 E310.4217
G1 X98.53 Y107.94 E310.4431
G1 X94.73 Y111.86 E310.6702
G1 X95.15 Y112.14 E310.6913
G1 X99.03 Y108.15 E310.9228
G1 X99.52 Y108.35 E310.9452
G1 X95.57 Y112.43 E311.1814
G1 X95.99 Y112.72 E311.2025
G1 X100.07 Y108.51 E311.4463
G1 X100.68 Y108.59 E311.4721
G1 X96.46 Y112.94 E311.7241
G1 X96.98 Y113.13 E311.747
G1 X101.3 Y108.68 E312.0048
G1 X102.05 Y108.62 E312.0363
G1 X97.5 Y113.31 E312.3083
G1 X98.02 Y113.49 E312.3311
G1 X102.82 Y108.55 E312.6178
G1 X103.91 Y108.14 E312.6661
G1 X98.54 Y113.68 E312.9867
G1 X99.07 Y113.85 E313.0099
G1 X115.83 Y96.57 E314.0107
G1 X116.5 Y96.6 E314.0385
G1 X99.71 Y113.91 E315.0411
G1 X100.35 Y113.96 E315.0681
G1 X117.17 Y96.63 E316.072
G1 X117.92 Y96.57 E316.1033
G1 X101 Y114.01 E317.1135
G1 X101.65 Y114.06 E317.1406
G1 X118.68 Y96.51 E318.1575
G1 X119.56 Y96.32 E318.1949
G1 X102.37 Y114.04 E319.2214
G1 X103.21 Y113.89 E319.257
G1 X120.5 Y96.07 E320.2894
G1 X121.63 Y95.62 E320.3399
G1 X104.06 Y113.73 E321.3887
G1 X104.91 Y113.57 E321.4247
G1 X123.29 Y94.63 E322.5221
;
; 'Solid', 49.9 [RPM], 25.0 [mm/s]
G1 F15000
G1 X121.85 Y92.53 E322.5221
G1 F1500
G1 X124.68 Y89.61 E322.6912
;
; 'Solid', 49.9 [RPM], 25.0 [mm/s]
G1 F15000
G1 X126.51 Y91.32 E322.6912
G1 F1500
G1 X129.94 Y87.78 E322.8961
;
; 'Solid', 49.9 [RPM], 25.0 [mm/s]
G1 F15000
G1 X128.52 Y85.65 E322.8961
G1 F1500
G1 X136.41 Y77.52 E323.3669
G1 X135.71 Y77.53 E323.3959
G1 X120.52 Y93.18 E324.3027
G1 X119.45 Y93.57 E324.3501
G1 X135.01 Y77.53 E325.2794
G1 X134.32 Y77.53 E325.3083
G1 X118.56 Y93.77 E326.2492
G1 X117.75 Y93.88 E326.283
G1 X133.62 Y77.53 E327.2302
G1 X132.92 Y77.53 E327.2592
G1 X116.96 Y93.98 E328.2124
G1 X116.32 Y93.91 E328.2388
G1 X132.23 Y77.53 E329.1881
G1 X131.53 Y77.53 E329.217
G1 X115.7 Y93.84 E330.1619
G1 X115.1 Y93.74 E330.1872
G1 X130.83 Y77.53 E331.1263
G1 X130.14 Y77.53 E331.1553
G1 X114.55 Y93.58 E332.0854
G1 X114.02 Y93.41 E332.1087
G1 X129.44 Y77.53 E333.0292
G1 X128.74 Y77.53 E333.0581
G1 X113.52 Y93.22 E333.967
G1 X113.04 Y92.99 E333.9889
G1 X128.05 Y77.53 E334.8846
G1 X127.35 Y77.53 E334.9136
G1 X112.57 Y92.75 E335.7957
G1 X112.14 Y92.48 E335.817
G1 X126.65 Y77.53 E336.6836
G1 X125.96 Y77.52 E336.7125
G1 X111.7 Y92.22 E337.5636
G1 X111.32 Y91.88 E337.5844
G1 X125.26 Y77.52 E338.4164
G1 X124.56 Y77.52 E338.4454
G1 X110.96 Y91.55 E339.2578
G1 X110.53 Y91.27 E339.279
G1 X123.87 Y77.53 E340.0752
G1 X123.17 Y77.53 E340.1042
G1 X110.09 Y91 E340.885
G1 X109.7 Y90.68 E340.9058
G1 X122.47 Y77.53 E341.668
G1 X121.78 Y77.53 E341.697
G1 X109.28 Y90.4 E342.443
G1 X108.84 Y90.13 E342.4642
G1 X121.08 Y77.53 E343.1945
G1 X120.38 Y77.53 E343.2235
G1 X108.43 Y89.84 E343.937
G1 X107.97 Y89.6 E343.9586
G1 X119.68 Y77.53 E344.6579
G1 X118.99 Y77.53 E344.6868
G1 X107.51 Y89.36 E345.3721
G1 X106.97 Y89.19 E345.3955
G1 X118.29 Y77.53 E346.0713
G1 X117.59 Y77.53 E346.1002
G1 X106.44 Y89.02 E346.7663
G1 X105.95 Y88.8 E346.7884
G1 X116.9 Y77.53 E347.4418
G1 X116.2 Y77.53 E347.4707
G1 X105.42 Y88.64 E348.1145
G1 X104.88 Y88.47 E348.1379
G1 X115.51 Y77.53 E348.7722
G1 X114.81 Y77.53 E348.8011
G1 X104.36 Y88.29 E349.4248
G1 X103.69 Y88.26 E349.4526
G1 X114.11 Y77.52 E350.0745
G1 X113.42 Y77.52 E350.1035
G1 X103.07 Y88.18 E350.7211
G1 X102.42 Y88.14 E350.7484
G1 X112.72 Y77.52 E351.3635
G1 X112.02 Y77.53 E351.3925
G1 X101.73 Y88.13 E352.0068
G1 X101.12 Y88.05 E352.0326
G1 X111.32 Y77.53 E352.642
G1 X110.63 Y77.53 E352.671
G1 X100.37 Y88.1 E353.2833
G1 X99.53 Y88.24 E353.3188
G1 X109.93 Y77.53 E353.9398
G1 X109.23 Y77.53 E353.9687
G1 X99.14 Y87.92 E354.5711
G1 X99.21 Y87.14 E354.604
G1 X108.54 Y77.53 E355.1607
G1 X107.84 Y77.53 E355.1897
G1 X99.2 Y86.43 E355.7057
G1 X99.18 Y85.74 E355.7347
G1 X107.14 Y77.53 E356.2102
G1 X106.45 Y77.53 E356.2392
G1 X99.09 Y85.1 E356.6781
G1 X99.01 Y84.47 E356.7046
G1 X105.75 Y77.53 E357.107
G1 X105.05 Y77.53 E357.136
G1 X98.88 Y83.89 E357.5045
G1 X98.73 Y83.32 E357.5288
G1 X104.36 Y77.53 E357.8647
G1 X103.66 Y77.53 E357.8936
G1 X98.57 Y82.77 E358.1973
G1 X98.38 Y82.25 E358.2202
G1 X102.96 Y77.53 E358.494
G1 X102.27 Y77.52 E358.5229
G1 X98.17 Y81.74 E358.7674
G1 X97.96 Y81.24 E358.79
G1 X101.57 Y77.52 E359.0055
G1 X100.87 Y77.52 E359.0345
G1 X97.71 Y80.79 E359.2235
G1 X97.46 Y80.33 E359.2452
G1 X100.18 Y77.53 E359.4076
G1 X99.48 Y77.53 E359.4366
G1 X97.19 Y79.88 E359.5731
G1 X96.9 Y79.47 E359.5942
G1 X98.78 Y77.53 E359.7068
G1 X98.09 Y77.53 E359.7358
G1 X96.6 Y79.06 E359.8246
G1 X96.29 Y78.66 E359.8456
G1 X97.39 Y77.53 E359.911
G1 X96.69 Y77.53 E359.94
G1 X95.95 Y78.29 E359.9841
G1 X95.65 Y77.89 E360.0051
G1 X96.02 Y77.51 E360.0271
;
; 'Wipe', 0.0 [RPM], 25.0 [mm/s]
G1 F1500
G1 X95.65 Y77.89 E360.0271
G1 X95.95 Y78.29 E360.0271
G1 X96.69 Y77.53 E360.0271
G1 X97.39 Y77.53 E360.0271
G1 X96.29 Y78.66 E360.0271
G1 X96.6 Y79.06 E360.0271
G1 X98.09 Y77.53 E360.0271
G1 X98.78 Y77.53 E360.0271
G1 X96.9 Y79.47 E360.0271
G1 F210
G1 X96.9 Y79.47 Z0.4 E360.0271
; END_LAYER_OBJECT z=0.20
; Reset extruder pos
G92 E0
; BEGIN_LAYER_OBJECT z=0.40
;
; *** Warming Extruder 1 to 160 C ***
M104 S160
G92 E0
;
; fan on
M106
;
; 'Perimeter', 180.0 [RPM], 90.2 [mm/s]
G1 F15000
G1 X91.7 Y94.34 E0
G1 F5411.9
G1 X90.18 Y96.56 E0.1117
G1 X90.07 Y96.8 E0.1228
G1 X89.06 Y99.65 E0.2486
G1 X89.01 Y99.78 E0.2543
G1 X88.77 Y102.86 E0.3826
G1 X88.77 Y103.1 E0.3927
G1 X88.79 Y103.26 E0.3992
G1 X89.35 Y106.27 E0.5266
G1 X89.45 Y106.53 E0.5381
G1 X90.77 Y109.29 E0.6655
G1 X90.85 Y109.4 E0.6708
G1 X92.97 Y111.88 E0.8065
G1 X95.69 Y113.74 E0.9436
G1 X95.81 Y113.79 E0.9492
G1 X98.8 Y114.84 E1.0808
G1 X98.94 Y114.87 E1.087
G1 X101.86 Y115.1 E1.2086
G1 X102.2 Y115.11 E1.2226
G1 X105.29 Y114.53 E1.3534
G1 X105.43 Y114.5 E1.3596
G1 X107.97 Y113.29 E1.4767
G1 X108.15 Y113.12 E1.4864
G1 X108.14 Y113.11 E1.4869
G1 X107.98 Y113.1 E1.4939
G1 X107.1 Y112.21 E1.5459
G1 X107.1 Y112.03 E1.5533
G1 X106.92 Y111.86 E1.5637
;
; 'Wipe', 0.0 [RPM], 67.5 [mm/s]
G1 F15000
G1 X106.92 Y111.86 E1.5637
G1 F4050
G1 X107.1 Y112.03 E1.5637
G1 X107.1 Y112.21 E1.5637
G1 X107.98 Y113.1 E1.5637
G1 X108.14 Y113.11 E1.5637
G1 X108.06 Y113.21 E1.5637
G1 X107.97 Y113.29 E1.5637
G1 X105.43 Y114.5 E1.5637
G1 X105.29 Y114.53 E1.5637
G1 X102.2 Y115.11 E1.5637
G1 X101.93 Y115.1 E1.5637
G1 X100.41 Y114.98 E1.5637
;
; 'Loop', 161.0 [RPM], 80.7 [mm/s]
G1 F15000
G1 X92.12 Y94.61 E1.5637
G1 F4840.8
G1 X92.41 Y94.2 E1.5847
G1 X94.8 Y92.16 E1.7152
G1 X97.69 Y90.78 E1.8482
G1 X100.55 Y90.25 E1.9692
G1 X100.86 Y90.2 E1.9822
G1 X104.01 Y90.45 E2.1136
G1 X106.99 Y91.5 E2.2452
G1 X109.72 Y93.36 E2.3823
G1 X110.7 Y94.14 E2.4346
G1 X111.91 Y94.87 E2.4932
G1 X113.12 Y95.42 E2.5486
G1 X114.47 Y95.83 E2.6069
G1 X115.87 Y96.06 E2.666
G1 X117.18 Y96.12 E2.7207
G1 X118.51 Y96.01 E2.7761
G1 X119.99 Y95.7 E2.8388
G1 X121.04 Y95.33 E2.8852
G1 X121.42 Y95.18 E2.9022
G1 X122.48 Y94.64 E2.9517
G1 X123.65 Y93.86 E3.0102
G1 X124.69 Y92.95 E3.0676
G1 X124.85 Y92.76 E3.078
G1 X127.84 Y88.86 E3.2821
G1 X127.93 Y88.78 E3.2873
G1 X131.84 Y85.78 E3.4921
G1 X132.2 Y85.61 E3.5089
G1 X136.48 Y83.84 E3.7015
G1 X136.64 Y83.82 E3.7079
G1 X141.38 Y83.19 E3.9067
G1 X141.69 Y83.21 E3.9198
G1 X146.33 Y83.82 E4.1143
G1 X146.59 Y83.89 E4.1254
G1 X151.07 Y85.75 E4.3272
G1 X155.07 Y88.81 E4.5365
G1 X155.15 Y88.91 E4.5417
G1 X158.15 Y92.82 E4.7466
G1 X158.2 Y92.94 E4.7521
G1 X160.03 Y97.34 E4.9503
G1 X160.1 Y97.8 E4.9698
G1 X160.13 Y98.08 E4.9812
G1 X160.6 Y101.6 E5.1288
G1 X160.69 Y102.46 E5.1647
G1 X160.08 Y107.09 E5.359
G1 X160.03 Y107.39 E5.3718
G1 X158.13 Y111.99 E5.5787
G1 X158.06 Y112.1 E5.584
G1 X155.07 Y115.99 E5.788
G1 X151.16 Y118.99 E5.9929
G1 X151.06 Y119.06 E5.9981
G1 X146.53 Y120.94 E6.2019
G1 X146.39 Y120.98 E6.2079
G1 X141.51 Y121.62 E6.4125
