; generated by Slic3r 0.9.3 on 2012-11-02 at 00:17:02

; layer_height = 0.4
; perimeters = 3
; solid_layers = 3
; fill_density = 0.4
; perimeter_speed = 30
; infill_speed = 60
; travel_speed = 130
; scale = 1
; nozzle_diameter = 0.5
; filament_diameter = 3
; extrusion_multiplier = 1
; single wall width = 0.53mm

M104 S200 ; set temperature
G28 ; home all axes
M109 S200 ; wait for temperature to be reached
G90 ; use absolute coordinates
G21 ; set units to millimeters
G92 E0
M82 ; use absolute distances for extrusion
G1 F1800.000 E-1.00000
G92 E0
G1 Z0.400 F7800.000
G1 X54.900 Y61.185
G1 F1800.000 E1.00000
G1 X54.910 Y60.915 F540.000 E1.00794
G1 X55.020 Y60.095 E1.03227
G1 X55.150 Y59.565 E1.04832
G1 X55.230 Y59.305 E1.05632
G1 X55.540 Y58.545 E1.08045
G1 X55.800 Y58.065 E1.09651
G1 X56.260 Y57.375 E1.12089
G1 X57.020 Y56.555 E1.15377
G1 X57.650 Y56.045 E1.17760
G1 X58.110 Y55.745 E1.19375
G1 X58.830 Y55.375 E1.21756
G1 X59.330 Y55.185 E1.23328
G1 X59.850 Y55.025 E1.24928
G1 X60.380 Y54.915 E1.26520
G1 X61.180 Y54.835 E1.28884
G1 X126.230 Y54.985 E3.20166
G1 X126.760 Y55.035 E3.21732
G1 X127.290 Y55.125 E3.23312
G1 X127.810 Y55.255 E3.24889
G1 X128.310 Y55.425 E3.26441
G1 X128.800 Y55.635 E3.28009
G1 X129.270 Y55.885 E3.29574
G1 X129.720 Y56.175 E3.31149
G1 X130.340 Y56.675 E3.33491
G1 X130.720 Y57.055 E3.35071
G1 X131.070 Y57.455 E3.36634
G1 X131.380 Y57.885 E3.38193
G1 X135.170 Y64.145 E3.59711
G1 X138.440 Y70.555 E3.80871
G1 X141.240 Y77.185 E4.02034
G1 X143.580 Y84.075 E4.23431
G1 X145.370 Y90.945 E4.44307
G1 X146.680 Y98.015 E4.65450
G1 X147.480 Y105.155 E4.86577
G1 X147.760 Y112.325 E5.07677
G1 X147.550 Y119.325 E5.28270
G1 X146.770 Y126.675 E5.50004
G1 X145.510 Y133.765 E5.71179
G1 X143.940 Y139.905 E5.89815
G1 X143.750 Y140.405 E5.91388
G1 X143.520 Y140.885 E5.92953
G1 X143.090 Y141.565 E5.95319
G1 X142.940 Y141.775 E5.96077
G1 X142.410 Y142.385 E5.98454
G1 X142.020 Y142.745 E6.00014
G1 X141.600 Y143.075 E6.01585
G1 X141.150 Y143.375 E6.03175
G1 X140.440 Y143.745 E6.05530
G1 X139.950 Y143.945 E6.07086
G1 X139.440 Y144.105 E6.08658
G1 X138.920 Y144.215 E6.10220
G1 X138.430 Y144.285 E6.11676
G1 X137.620 Y144.345 E6.14064
G1 X106.340 Y144.685 E7.06050
G1 X106.040 Y144.685 E7.06932
G1 X105.450 Y144.635 E7.08673
G1 X105.160 Y144.595 E7.09534
G1 X104.580 Y144.465 E7.11282
G1 X104.300 Y144.385 E7.12138
G1 X103.740 Y144.175 E7.13897
G1 X76.530 Y129.725 E8.04491
G1 X76.300 Y129.585 E8.05283
G1 X75.840 Y129.265 E8.06930
G1 X75.420 Y128.905 E8.08557
G1 X75.030 Y128.505 E8.10200
G1 X74.670 Y128.085 E8.11826
G1 X74.350 Y127.625 E8.13474
G1 X56.920 Y94.655 E9.23138
G1 X56.490 Y93.645 E9.26366
G1 X55.600 Y90.905 E9.34837
G1 X55.520 Y90.575 E9.35836
G1 X55.460 Y90.245 E9.36822
G1 X54.903 Y61.710 E10.20746
G1 F1800.000 E9.20746
G92 E0
G1 X66.782 Y63.043 F7800.000
G1 F1800.000 E1.00000
G1 X125.096 Y63.043 F540.000 E3.42746
G1 X128.036 Y67.882 E3.66318
G1 X131.053 Y73.763 E3.93831
G1 X133.638 Y79.845 E4.21343
G1 X135.779 Y86.098 E4.48855
G1 X137.464 Y92.489 E4.76368
G1 X138.685 Y98.984 E5.03880
G1 X139.435 Y105.551 E5.31393
G1 X139.711 Y112.154 E5.58905
G1 X139.510 Y118.761 E5.86418
G1 X138.835 Y125.335 E6.13931
G1 X137.688 Y131.844 E6.41443
G1 X137.136 Y134.035 E6.50849
G1 X136.897 Y134.094 E6.51877
G1 X135.179 Y132.154 E6.62661
G1 X132.311 Y129.939 E6.77746
G1 X129.081 Y128.298 E6.92831
G1 X125.600 Y127.289 E7.07916
G1 X123.169 Y127.060 E7.18081
G1 X123.169 Y126.838 E7.19004
G1 X121.992 Y126.949 E7.23925
G1 X120.815 Y126.838 E7.28845
G1 X120.815 Y127.060 E7.29769
G1 X118.384 Y127.289 E7.39933
G1 X114.904 Y128.298 E7.55018
G1 X111.673 Y129.939 E7.70103
G1 X108.805 Y132.154 E7.85188
G1 X107.769 Y133.324 E7.91693
G1 X107.516 Y133.257 E7.92784
G1 X107.236 Y131.895 E7.98571
G1 X105.861 Y128.625 E8.13337
G1 X103.881 Y125.683 E8.28101
G1 X101.368 Y123.180 E8.42866
G1 X100.159 Y122.373 E8.48917
G1 X100.159 Y122.373 E8.48917
G1 X98.418 Y121.210 E8.57632
G1 X95.148 Y119.851 E8.72374
G1 X95.147 Y119.851 E8.72374
G1 X93.585 Y119.201 E8.79416
G1 X93.585 Y119.534 E8.80802
G1 X91.666 Y119.147 E8.88954
G1 X88.119 Y119.131 E9.03719
G1 X84.636 Y119.802 E9.18484
G1 X82.621 Y120.618 E9.27534
G1 X82.948 Y117.960 E9.38683
G1 X82.950 Y117.049 E9.42473
G1 X82.950 Y117.049 E9.42473
G1 X82.954 Y115.455 E9.49110
G1 X82.662 Y112.967 E9.59537
G1 X82.076 Y110.532 E9.69964
G1 X81.203 Y108.184 E9.80391
G1 X80.056 Y105.957 E9.90818
G1 X78.653 Y103.883 E10.01244
G1 X77.011 Y101.991 E10.11671
G1 X76.321 Y101.365 E10.15550
G1 X79.548 Y99.823 E10.30435
G1 X81.523 Y98.134 E10.41251
G1 X84.504 Y96.139 E10.56184
G1 X84.860 Y95.995 E10.57784
G1 X85.807 Y95.759 E10.61845
G1 X86.777 Y95.655 E10.65907
G1 X87.752 Y95.685 E10.69968
G1 X88.714 Y95.849 E10.74029
G1 X89.644 Y96.144 E10.78091
G1 X90.524 Y96.564 E10.82152
G1 X91.338 Y97.102 E10.86213
G1 X92.071 Y97.746 E10.90275
G1 X92.756 Y98.540 E10.94639
G1 X96.047 Y102.829 E11.17145
G1 X100.565 Y106.296 E11.40850
G1 X105.826 Y108.475 E11.64554
G1 X111.472 Y109.218 E11.88259
G1 X117.118 Y108.475 E12.11964
G1 X122.379 Y106.296 E12.35669
G1 X126.896 Y102.829 E12.59374
G1 X130.363 Y98.311 E12.83079
G1 X132.542 Y93.050 E13.06783
G1 X133.285 Y87.404 E13.30488
G1 X132.542 Y81.759 E13.54193
G1 X130.363 Y76.498 E13.77898
G1 X126.896 Y71.980 E14.01603
G1 X122.379 Y68.513 E14.25307
G1 X117.118 Y66.334 E14.49012
G1 X111.472 Y65.591 E14.72717
G1 X105.826 Y66.334 E14.96422
G1 X100.565 Y68.513 E15.20127
G1 X96.047 Y71.980 E15.43831
G1 X93.134 Y75.776 E15.63752
G1 X90.622 Y77.702 E15.76929
G1 X90.264 Y77.881 E15.78593
G1 X89.267 Y78.233 E15.82994
G1 X88.234 Y78.456 E15.87394
G1 X87.181 Y78.548 E15.91795
G1 X86.125 Y78.507 E15.96196
G1 X85.082 Y78.333 E16.00596
G1 X84.069 Y78.029 E16.04997
G1 X83.103 Y77.601 E16.09398
G1 X82.198 Y77.054 E16.13799
G1 X81.232 Y76.290 E16.18926
G1 X78.188 Y74.201 E16.34292
G1 X74.542 Y72.913 E16.50390
G1 X70.687 Y72.612 E16.66488
G1 X69.729 Y72.790 E16.70542
G1 X69.706 Y70.774 E16.78934
G1 X69.688 Y70.644 E16.79478
G1 X69.688 Y70.644 E16.79478
G1 X69.489 Y69.172 E16.85662
G1 X69.305 Y68.474 E16.88670
G1 X69.304 Y68.474 E16.88670
G1 X69.077 Y67.609 E16.92391
G1 X68.476 Y66.109 E16.99119
G1 X68.413 Y65.994 E16.99664
G1 X68.413 Y65.994 E16.99664
G1 X67.695 Y64.693 E17.05848
G1 X66.823 Y63.489 E17.12039
G1 X66.153 Y63.873 F7800.000
G1 X64.923 Y62.552 F540.000 E17.19552
G1 X65.044 Y62.275 E17.20811
G1 X125.528 Y62.275 E19.72590
G1 X128.707 Y67.507 E19.98075
G1 X131.749 Y73.437 E20.25818
G1 X134.356 Y79.571 E20.53561
G1 X136.514 Y85.876 E20.81304
G1 X136.657 Y86.415 E20.83627
G1 X136.657 Y86.415 E20.83627
G1 X138.214 Y92.320 E21.09047
G1 X139.445 Y98.870 E21.36790
G1 X140.201 Y105.491 E21.64533
G1 X140.479 Y112.150 E21.92275
G1 X140.277 Y118.812 E22.20019
G1 X139.596 Y125.441 E22.47761
G1 X138.439 Y132.005 E22.75504
G1 X137.526 Y135.633 E22.91081
G1 X137.286 Y135.692 E22.92108
G1 X134.652 Y132.718 E23.08647
G1 X131.899 Y130.590 E23.23129
G1 X128.797 Y129.015 E23.37611
G1 X125.456 Y128.047 E23.52094
G1 X122.401 Y127.759 E23.64866
G1 X122.401 Y127.682 E23.65187
G1 X121.993 Y127.720 E23.66894
G1 X121.992 Y127.720 E23.66897
G1 X121.991 Y127.720 E23.66901
G1 X121.583 Y127.682 E23.68607
G1 X121.583 Y127.759 E23.68928
G1 X118.528 Y128.047 E23.81700
G1 X115.187 Y129.015 E23.96183
G1 X112.085 Y130.590 E24.10665
G1 X109.332 Y132.718 E24.25147
G1 X107.327 Y134.982 E24.37738
G1 X107.073 Y134.914 E24.38829
G1 X106.499 Y132.123 E24.50691
G1 X105.183 Y128.992 E24.64832
G1 X103.285 Y126.174 E24.78973
G1 X100.879 Y123.777 E24.93113
G1 X98.954 Y122.491 E25.02747
G1 X98.954 Y122.491 E25.02748
G1 X98.054 Y121.890 E25.07254
G1 X94.914 Y120.585 E25.21407
G1 X94.914 Y120.585 E25.21407
G1 X94.353 Y120.352 E25.23936
G1 X94.353 Y120.472 E25.24438
G1 X91.587 Y119.914 E25.36184
G1 X88.190 Y119.899 E25.50325
G1 X84.855 Y120.541 E25.64465
G1 X81.753 Y121.798 E25.78396
G1 X81.559 Y121.630 E25.79464
G1 X81.886 Y120.307 E25.85139
G1 X82.180 Y117.912 E25.95183
G1 X82.180 Y117.817 E25.95577
G1 X82.180 Y117.817 E25.95577
G1 X82.186 Y115.499 E26.05228
G1 X81.905 Y113.102 E26.15272
G1 X81.340 Y110.757 E26.25316
G1 X80.499 Y108.495 E26.35361
G1 X79.395 Y106.349 E26.45405
G1 X78.042 Y104.351 E26.55450
G1 X76.461 Y102.528 E26.65494
G1 X74.949 Y101.157 E26.73992
G1 X75.022 Y100.902 E26.75094
G1 X75.819 Y100.754 E26.78469
G1 X79.126 Y99.174 E26.93726
G1 X81.841 Y96.851 E27.08600
G1 X81.916 Y96.947 E27.09104
G1 X83.658 Y95.781 E27.17833
G1 X83.598 Y95.676 E27.18337
G1 X84.623 Y95.263 E27.22936
G1 X85.672 Y95.001 E27.27439
G1 X86.748 Y94.886 E27.31942
G1 X87.829 Y94.919 E27.36445
G1 X88.895 Y95.101 E27.40948
G1 X89.926 Y95.428 E27.45451
G1 X90.903 Y95.894 E27.49954
G1 X91.806 Y96.490 E27.54457
G1 X92.618 Y97.204 E27.58961
G1 X93.352 Y98.055 E27.63637
G1 X96.595 Y102.281 E27.85814
G1 X100.952 Y105.625 E28.08677
G1 X106.026 Y107.727 E28.31540
G1 X111.472 Y108.444 E28.54403
G1 X116.917 Y107.727 E28.77267
G1 X121.991 Y105.625 E29.00130
G1 X126.349 Y102.281 E29.22993
G1 X129.692 Y97.924 E29.45856
G1 X131.794 Y92.850 E29.68719
G1 X132.511 Y87.404 E29.91583
G1 X131.794 Y81.959 E30.14446
G1 X129.692 Y76.885 E30.37309
G1 X126.349 Y72.528 E30.60172
G1 X121.991 Y69.184 E30.83036
G1 X116.917 Y67.082 E31.05899
G1 X111.472 Y66.365 E31.28762
G1 X106.026 Y67.082 E31.51625
G1 X100.952 Y69.184 E31.74489
G1 X96.595 Y72.528 E31.97352
G1 X93.365 Y76.737 E32.19437
G1 X93.276 Y76.635 E32.20000
G1 X91.601 Y77.919 E32.28786
G1 X91.677 Y78.032 E32.29352
G1 X90.565 Y78.589 E32.34529
G1 X89.477 Y78.973 E32.39333
G1 X88.349 Y79.217 E32.44137
G1 X87.199 Y79.317 E32.48941
G1 X86.046 Y79.272 E32.53745
G1 X84.908 Y79.082 E32.58549
G1 X83.802 Y78.751 E32.63353
G1 X82.747 Y78.283 E32.68157
G1 X81.759 Y77.686 E32.72961
G1 X80.776 Y76.908 E32.78182
G1 X77.837 Y74.891 E32.93019
G1 X74.382 Y73.670 E33.08275
G1 X70.728 Y73.385 E33.23532
G1 X68.801 Y73.743 E33.31691
G1 X68.956 Y72.352 E33.37520
G1 X68.951 Y71.880 E33.39485
G1 X68.951 Y71.880 E33.39485
G1 X68.939 Y70.830 E33.43855
G1 X68.734 Y69.322 E33.50189
G1 X68.713 Y69.242 E33.50537
G1 X68.713 Y69.242 E33.50537
G1 X68.346 Y67.851 E33.56524
G1 X67.781 Y66.438 E33.62859
G1 X67.046 Y65.105 E33.69194
G1 X66.461 Y64.298 E33.73343
G1 X65.559 Y64.362 F7800.000
G1 X64.586 Y63.317 F540.000 E33.79284
G1 X63.493 Y62.400 E33.85225
G1 X62.530 Y61.777 E33.89999
G1 X62.610 Y61.507 E33.91170
G1 X125.959 Y61.507 E36.54879
G1 X129.377 Y67.132 E36.82277
G1 X132.444 Y73.111 E37.10251
G1 X135.073 Y79.296 E37.38224
G1 X137.250 Y85.653 E37.66197
G1 X138.963 Y92.151 E37.94170
G1 X140.204 Y98.755 E38.22144
G1 X140.248 Y99.134 E38.23733
G1 X140.248 Y99.134 E38.23733
G1 X140.967 Y105.432 E38.50117
G1 X141.247 Y112.146 E38.78090
G1 X141.050 Y118.660 E39.05221
G1 X141.064 Y118.660 E39.05282
G1 X140.357 Y125.547 E39.34102
G1 X139.190 Y132.165 E39.62075
G1 X137.773 Y137.799 E39.86258
G1 X137.558 Y137.830 E39.87162
G1 X136.336 Y135.777 E39.97109
G1 X134.125 Y133.281 E40.10989
G1 X131.487 Y131.242 E40.24869
G1 X128.514 Y129.732 E40.38748
G1 X125.312 Y128.804 E40.52628
G1 X122.351 Y128.525 E40.65007
G1 X122.351 Y128.525 E40.65007
G1 X121.992 Y128.492 E40.66508
G1 X121.633 Y128.525 E40.68008
G1 X121.633 Y128.525 E40.68008
G1 X118.673 Y128.804 E40.80388
G1 X115.470 Y129.732 E40.94267
G1 X112.497 Y131.242 E41.08147
G1 X109.859 Y133.281 E41.22027
G1 X107.648 Y135.777 E41.35906
G1 X106.712 Y137.350 E41.43524
G1 X106.431 Y137.273 E41.44736
G1 X106.417 Y135.532 E41.51987
G1 X105.762 Y132.352 E41.65503
G1 X104.504 Y129.358 E41.79019
G1 X102.690 Y126.665 E41.92535
G1 X100.390 Y124.373 E42.06051
G1 X97.749 Y122.610 E42.19269
G1 X97.749 Y122.610 E42.19269
G1 X97.690 Y122.570 E42.19567
G1 X95.121 Y121.503 E42.31147
G1 X95.121 Y121.503 E42.31147
G1 X94.692 Y121.324 E42.33083
G1 X91.509 Y120.682 E42.46599
G1 X88.262 Y120.667 E42.60116
G1 X85.074 Y121.281 E42.73632
G1 X82.065 Y122.501 E42.87148
G1 X80.399 Y123.591 E42.95435
G1 X80.194 Y123.426 E42.96530
G1 X80.574 Y122.421 E43.01004
G1 X80.635 Y122.174 E43.02062
G1 X80.635 Y122.174 E43.02062
G1 X81.129 Y120.168 E43.10666
G1 X81.412 Y117.864 E43.20328
G1 X81.418 Y115.543 E43.29990
G1 X81.148 Y113.237 E43.39651
G1 X80.604 Y110.981 E43.49313
G1 X79.796 Y108.805 E43.58975
G1 X78.733 Y106.742 E43.68637
G1 X77.432 Y104.820 E43.78299
G1 X75.911 Y103.066 E43.87961
G1 X73.849 Y101.195 E43.99554
G1 X73.790 Y101.221 E43.99822
G1 X73.040 Y100.688 E44.03652
G1 X73.085 Y100.481 E44.04535
G1 X75.579 Y100.017 E44.15093
G1 X78.704 Y98.525 E44.29508
G1 X80.726 Y96.795 E44.40586
G1 X80.726 Y96.795 E44.40586
G1 X81.980 Y95.777 E44.47311
G1 X82.084 Y95.911 E44.48015
G1 X82.635 Y95.541 E44.50778
G1 X82.551 Y95.395 E44.51482
G1 X83.283 Y94.975 E44.54993
G1 X84.385 Y94.531 E44.59938
G1 X85.537 Y94.243 E44.64883
G1 X86.718 Y94.116 E44.69828
G1 X87.906 Y94.153 E44.74773
G1 X89.077 Y94.353 E44.79718
G1 X90.209 Y94.713 E44.84663
G1 X91.281 Y95.224 E44.89608
G1 X92.273 Y95.878 E44.94553
G1 X93.165 Y96.663 E44.99498
G1 X93.948 Y97.570 E45.04487
G1 X97.142 Y101.734 E45.26333
G1 X101.339 Y104.954 E45.48355
G1 X106.227 Y106.979 E45.70377
G1 X111.472 Y107.669 E45.92398
G1 X116.717 Y106.979 E46.14420
G1 X121.604 Y104.954 E46.36442
G1 X125.801 Y101.734 E46.58463
G1 X129.022 Y97.537 E46.80485
G1 X131.046 Y92.649 E47.02507
G1 X131.737 Y87.404 E47.24528
G1 X131.046 Y82.160 E47.46550
G1 X129.022 Y77.272 E47.68572
G1 X125.801 Y73.075 E47.90593
G1 X121.604 Y69.855 E48.12615
G1 X116.717 Y67.830 E48.34637
G1 X111.472 Y67.140 E48.56658
G1 X106.227 Y67.830 E48.78680
G1 X101.339 Y69.855 E49.00702
G1 X97.142 Y73.075 E49.22723
G1 X93.959 Y77.224 E49.44492
G1 X93.284 Y77.812 E49.48219
G1 X93.171 Y77.683 E49.48934
G1 X92.640 Y78.090 E49.51718
G1 X92.736 Y78.232 E49.52433
G1 X91.985 Y78.737 E49.56200
G1 X90.866 Y79.298 E49.61408
G1 X89.687 Y79.713 E49.66615
G1 X88.464 Y79.978 E49.71823
G1 X87.218 Y80.086 E49.77030
G1 X85.968 Y80.037 E49.82238
G1 X84.734 Y79.831 E49.87445
G1 X83.535 Y79.472 E49.92652
G1 X82.392 Y78.965 E49.97860
G1 X81.321 Y78.319 E50.03067
G1 X80.320 Y77.527 E50.08381
G1 X77.486 Y75.582 E50.22689
G1 X74.221 Y74.428 E50.37104
G1 X70.769 Y74.158 E50.51518
G1 X67.796 Y74.711 E50.64108
G1 X68.029 Y73.732 E50.68300
G1 X68.188 Y72.314 E50.74241
G1 X68.171 Y70.887 E50.80182
G1 X67.980 Y69.472 E50.86123
G1 X67.616 Y68.092 E50.92064
G1 X67.085 Y66.767 E50.98005
G1 X66.396 Y65.518 E51.03946
G1 X65.867 Y64.787 E51.07701
G1 F1800.000 E50.07701
G92 E0
G1 X105.571 Y83.998 F7800.000
G1 F1800.000 E1.00000
G1 X106.654 Y82.587 F540.000 E1.07404
G1 X108.065 Y81.504 E1.14809
G1 X109.708 Y80.823 E1.22213
G1 X111.472 Y80.591 E1.29617
G1 X113.235 Y80.823 E1.37022
G1 X114.879 Y81.504 E1.44426
G1 X116.290 Y82.587 E1.51831
G1 X117.373 Y83.998 E1.59235
G1 X118.053 Y85.641 E1.66639
G1 X118.326 Y87.716 E1.75350
G1 X118.655 Y87.716 E1.76717
G1 X117.373 Y90.811 E1.90666
G1 X116.290 Y92.222 E1.98070
G1 X114.879 Y93.305 E2.05474
G1 X113.235 Y93.986 E2.12879
G1 X111.472 Y94.218 E2.20283
G1 X109.708 Y93.986 E2.27687
G1 X108.205 Y93.363 E2.34460
G1 X108.205 Y93.363 E2.34460
G1 X108.065 Y93.305 E2.35092
G1 X106.654 Y92.222 E2.42496
G1 X105.571 Y90.811 E2.49900
G1 X105.391 Y90.377 E2.51856
G1 X105.391 Y90.377 E2.51856
G1 X104.890 Y89.168 E2.57305
G1 X104.658 Y87.404 E2.64709
G1 X104.747 Y86.730 E2.67539
G1 X104.439 Y86.730 E2.68821
G1 X105.370 Y84.483 E2.78948
G1 X106.242 Y84.385 F7800.000
G1 X107.201 Y83.134 F540.000 E2.85511
G1 X108.452 Y82.174 E2.92074
G1 X109.909 Y81.571 E2.98637
G1 X111.472 Y81.365 E3.05199
G1 X113.035 Y81.571 E3.11762
G1 X114.491 Y82.174 E3.18325
G1 X115.742 Y83.134 E3.24888
G1 X116.702 Y84.385 E3.31451
G1 X117.305 Y85.841 E3.38013
G1 X117.511 Y87.404 E3.44576
G1 X117.369 Y88.483 E3.49106
G1 X117.506 Y88.483 E3.49676
G1 X116.702 Y90.424 E3.58420
G1 X115.742 Y91.675 E3.64983
G1 X114.491 Y92.635 E3.71545
G1 X113.035 Y93.238 E3.78108
G1 X111.472 Y93.444 E3.84671
G1 X109.909 Y93.238 E3.91234
G1 X108.452 Y92.635 E3.97796
G1 X107.201 Y91.675 E4.04359
G1 X106.242 Y90.424 E4.10922
G1 X105.904 Y89.610 E4.14592
G1 X105.904 Y89.610 E4.14592
G1 X105.638 Y88.968 E4.17485
G1 X105.433 Y87.404 E4.24048
G1 X105.562 Y86.418 E4.28188
G1 X105.562 Y86.418 E4.28188
